;FLAVOR:Marlin
;TIME:488
;Filament used: 0.234501m
;Layer height: 0.2
;MINX:112.626
;MINY:106.819
;MINZ:0.2
;MAXX:122.173
;MAXY:128.181
;MAXZ:4.8
;Generated with Cura_SteamEngine 4.8.0
M140 S60
M105
M190 S60
M104 S200
M105
M109 S200
M82 ;absolute extrusion mode
; Ender 3 Custom Start G-code
G92 E0 ; Reset Extruder
G28 ; Home all axes
G1 Z2.0 F3000 ; Move Z Axis up little to prevent scratching of Heat Bed
G1 X0.1 Y20 Z0.3 F5000.0 ; Move to start position
G1 X0.1 Y200.0 Z0.3 F1500.0 E15 ; Draw the first line
G1 X0.4 Y200.0 Z0.3 F5000.0 ; Move to side a little
G1 X0.4 Y20 Z0.3 F1500.0 E30 ; Draw the second line
G92 E0 ; Reset Extruder
G1 Z2.0 F3000 ; Move Z Axis up little to prevent scratching of Heat Bed
G1 X5 Y20 Z0.3 F5000.0 ; Move over to prevent blob squish
G92 E0
G92 E0
G1 F2700 E-8
;LAYER_COUNT:24
;LAYER:0
M107
M204 S25
;MESH:Handle_inserts.stl(1)
G0 F3000 X118.712 Y112.431 Z0.2
M204 S5
;TYPE:WALL-INNER
G1 F2700 E0
G1 F600 X118.463 Y112.431 E0.01035
G1 X116.289 Y112.431 E0.10074
G1 X116.289 Y107.369 E0.31119
G1 X118.711 Y107.369 E0.41189
G1 X118.712 Y112.182 E0.61199
G1 X118.712 Y112.431 E0.61868
M204 S25
G0 F3000 X119.212 Y112.931
M204 S5
;TYPE:WALL-OUTER
G1 F600 X115.789 Y112.931 E0.76099
G1 X115.789 Y106.869 E1.01302
G1 X119.211 Y106.869 E1.15529
G1 X119.212 Y112.931 E1.40732
M204 S25
G0 F3000 X118.892 Y112.611
G0 X118.552 Y111.941
G0 X118.222 Y111.941
M204 S5
;TYPE:SKIN
G1 F600 X116.779 Y111.941 E1.46731
G1 X116.779 Y107.859 E1.63702
G1 X118.221 Y107.859 E1.69697
G1 X118.222 Y111.941 E1.86668
M204 S25
G0 F3000 X117.397 Y111.74
M204 S5
G1 F600 X116.978 Y111.321 E1.89132
M204 S25
G0 F3000 X116.978 Y110.614
M204 S5
G1 F600 X118.021 Y111.657 E1.95264
M204 S25
G0 F3000 X118.021 Y110.95
M204 S5
G1 F600 X116.978 Y109.907 E2.01397
M204 S25
G0 F3000 X116.978 Y109.199
M204 S5
G1 F600 X118.021 Y110.242 E2.07529
M204 S25
G0 F3000 X118.021 Y109.535
M204 S5
G1 F600 X116.978 Y108.492 E2.13662
M204 S25
G0 F3000 X117.251 Y108.058
M204 S5
G1 F600 X118.021 Y108.828 E2.18189
M204 S25
G0 F3000 X118.461 Y108.827
G1 F2700 E-5.81811
;MESH:Handle_inserts.stl
G0 F3000 X118.552 Y108.828
G0 X118.48 Y112.199
G0 X116.288 Y112.661
G0 X116.288 Y114.739
G0 X116.288 Y114.969
M204 S5
;TYPE:WALL-INNER
G1 F2700 E2.18189
G1 F600 X116.537 Y114.969 E2.19224
G1 X118.711 Y114.969 E2.28263
G1 X118.711 Y120.031 E2.49308
G1 X116.289 Y120.031 E2.59377
G1 X116.288 Y115.218 E2.79388
G1 X116.288 Y114.969 E2.80057
M204 S25
G0 F3000 X115.788 Y114.469
M204 S5
;TYPE:WALL-OUTER
G1 F600 X119.211 Y114.469 E2.94288
G1 X119.211 Y120.531 E3.19491
G1 X115.789 Y120.531 E3.33718
G1 X115.788 Y114.469 E3.58921
M204 S25
G0 F3000 X116.108 Y114.789
G0 X116.778 Y115.129
G0 X116.778 Y115.459
M204 S5
;TYPE:SKIN
G1 F600 X118.221 Y115.459 E3.6492
G1 X118.221 Y119.541 E3.81891
G1 X116.779 Y119.541 E3.87886
G1 X116.778 Y115.459 E4.04857
M204 S25
G0 F3000 X116.778 Y115.129
G0 X118.479 Y115.201
G0 X118.551 Y115.899
G0 X118.021 Y115.899
M204 S5
G1 F600 X117.78 Y115.659 E4.06271
M204 S25
G0 F3000 X117.073 Y115.659
M204 S5
G1 F600 X118.021 Y116.606 E4.11842
M204 S25
G0 F3000 X118.021 Y117.313
M204 S5
G1 F600 X116.977 Y116.27 E4.17978
M204 S25
G0 F3000 X116.977 Y116.977
M204 S5
G1 F600 X118.021 Y118.021 E4.24116
M204 S25
G0 F3000 X118.021 Y118.728
M204 S5
G1 F600 X116.978 Y117.685 E4.30248
M204 S25
G0 F3000 X116.978 Y118.392
M204 S5
G1 F600 X117.926 Y119.34 E4.35822
M204 S25
G0 F3000 X117.219 Y119.34
M204 S5
G1 F600 X116.978 Y119.099 E4.37239
M204 S25
G0 F3000 X116.539 Y119.1
G1 F2700 E-3.62761
;MESH:Handle_inserts.stl(2)
G0 F3000 X116.448 Y119.099
G0 X116.288 Y120.261
G0 X116.288 Y122.339
G0 X116.288 Y122.569
M204 S5
;TYPE:WALL-INNER
G1 F2700 E4.37239
G1 F600 X116.537 Y122.569 E4.38275
G1 X118.711 Y122.569 E4.47313
G1 X118.711 Y127.631 E4.68358
G1 X116.289 Y127.631 E4.78428
G1 X116.288 Y122.818 E4.98438
G1 X116.288 Y122.569 E4.99107
M204 S25
G0 F3000 X115.788 Y122.069
M204 S5
;TYPE:WALL-OUTER
G1 F600 X119.211 Y122.069 E5.13339
G1 X119.211 Y128.131 E5.38541
G1 X115.789 Y128.131 E5.52768
G1 X115.788 Y122.069 E5.77971
M204 S25
G0 F3000 X116.108 Y122.389
G0 X116.778 Y122.729
G0 X116.778 Y123.059
M204 S5
;TYPE:SKIN
G1 F600 X118.221 Y123.059 E5.83971
G1 X118.221 Y127.141 E6.00942
G1 X116.779 Y127.141 E6.06937
G1 X116.778 Y123.059 E6.23908
M204 S25
G0 F3000 X116.778 Y122.729
G0 X118.479 Y122.801
G0 X118.551 Y123.677
G0 X118.021 Y123.677
M204 S5
G1 F600 X117.601 Y123.258 E6.26374
M204 S25
G0 F3000 X116.978 Y123.342
M204 S5
G1 F600 X118.021 Y124.385 E6.32507
M204 S25
G0 F3000 X118.021 Y125.092
M204 S5
G1 F600 X116.978 Y124.049 E6.38639
M204 S25
G0 F3000 X116.978 Y124.756
M204 S5
G1 F600 X118.021 Y125.799 E6.44771
M204 S25
G0 F3000 X118.021 Y126.506
M204 S5
G1 F600 X116.978 Y125.463 E6.50904
M204 S25
G0 F3000 X116.978 Y126.17
M204 S5
G1 F600 X117.748 Y126.94 E6.55431
M204 S25
G0 F3000 X117.748 Y127.381
G1 F2700 E-1.44569
;MESH:NONMESH
G0 F300 X117.748 Y127.381 Z0.4
G0 F3000 X117.748 Y127.471
G0 X118.479 Y127.399
G0 X118.861 Y122.339
G0 X119.72 Y121.3
G0 X120.122 Y120.909
G0 X120.122 Y114.091
G0 X119.721 Y113.701
G0 X118.861 Y112.661
G0 X118.962 Y112.481
;TIME_ELAPSED:52.787295
;LAYER:1
M106 S85
M204 S252
;TYPE:WALL-INNER
;MESH:Handle_inserts.stl(1)
G1 F2700 E6.55431
G1 F900 X118.713 Y112.481 E6.56466
G1 X116.039 Y112.481 E6.67584
G1 X116.039 Y107.319 E6.89045
G1 X118.961 Y107.319 E7.01193
G1 X118.962 Y112.232 E7.21619
G1 X118.962 Y112.481 E7.22288
M204 S138
G0 F9000 X119.462 Y112.981
M204 S252
;TYPE:WALL-OUTER
G1 F900 X115.539 Y112.981 E7.38598
G1 X115.539 Y106.819 E7.64217
G1 X119.461 Y106.819 E7.80523
G1 X119.462 Y112.981 E8.06141
M204 S138
G0 F9000 X119.142 Y112.661
G0 X118.802 Y111.991
G0 X118.472 Y111.991
M204 S252
;TYPE:SKIN
G1 F1800 X116.529 Y111.991 E8.14219
G1 X116.529 Y107.809 E8.31606
G1 X118.471 Y107.809 E8.3968
G1 X118.472 Y111.991 E8.57067
M204 S138
G0 F9000 X118.27 Y111.539
M204 S252
G1 F1800 X118.018 Y111.791 E8.58548
M204 S138
G0 F9000 X117.311 Y111.791
M204 S252
G1 F1800 X118.27 Y110.831 E8.6419
M204 S138
G0 F9000 X118.27 Y110.124
M204 S252
G1 F1800 X116.728 Y111.667 E8.73259
M204 S138
G0 F9000 X116.728 Y110.959
M204 S252
G1 F1800 X118.27 Y109.417 E8.82325
M204 S138
G0 F9000 X118.27 Y108.71
M204 S252
G1 F1800 X116.728 Y110.252 E8.91392
M204 S138
G0 F9000 X116.728 Y109.545
M204 S252
G1 F1800 X118.265 Y108.009 E9.00426
M204 S138
G0 F9000 X117.557 Y108.009
M204 S252
G1 F1800 X116.728 Y108.838 E9.053
M204 S138
G0 F9000 X116.728 Y108.131
M204 S252
G1 F1800 X116.85 Y108.009 E9.06017
M204 S138
G0 F9000 X116.85 Y107.569
G1 F2700 E1.06017
;MESH:Handle_inserts.stl
G0 F9000 X116.85 Y107.479
G0 X116.271 Y107.551
G0 X116.038 Y112.711
G0 X116.038 Y114.689
G0 X116.038 Y114.919
M204 S252
;TYPE:WALL-INNER
G1 F2700 E9.06017
G1 F900 X116.287 Y114.919 E9.07053
G1 X118.961 Y114.919 E9.1817
G1 X118.961 Y120.081 E9.39631
G1 X116.039 Y120.081 E9.51779
G1 X116.038 Y115.168 E9.72205
G1 X116.038 Y114.919 E9.72874
M204 S138
G0 F9000 X115.538 Y114.419
M204 S252
;TYPE:WALL-OUTER
G1 F900 X119.461 Y114.419 E9.89184
G1 X119.461 Y120.581 E10.14803
G1 X115.539 Y120.581 E10.31109
G1 X115.538 Y114.419 E10.56727
M204 S138
G0 F9000 X115.858 Y114.739
G0 X116.528 Y115.079
G0 X116.528 Y115.409
M204 S252
;TYPE:SKIN
G1 F1800 X118.471 Y115.409 E10.64805
G1 X118.471 Y119.591 E10.82192
G1 X116.529 Y119.591 E10.90266
G1 X116.528 Y115.409 E11.07653
M204 S138
G0 F9000 X116.728 Y115.909
M204 S252
G1 F1800 X117.029 Y115.609 E11.0942
M204 S138
G0 F9000 X117.736 Y115.609
M204 S252
G1 F1800 X116.728 Y116.616 E11.15343
M204 S138
G0 F9000 X116.728 Y117.323
M204 S252
G1 F1800 X118.27 Y115.781 E11.2441
M204 S138
G0 F9000 X118.27 Y116.488
M204 S252
G1 F1800 X116.729 Y118.03 E11.33473
M204 S138
G0 F9000 X116.729 Y118.737
M204 S252
G1 F1800 X118.27 Y117.195 E11.42537
M204 S138
G0 F9000 X118.27 Y117.902
M204 S252
G1 F1800 X116.782 Y119.39 E11.51285
M204 S138
G0 F9000 X117.49 Y119.39
M204 S252
G1 F1800 X118.27 Y118.61 E11.55872
M204 S138
G0 F9000 X118.27 Y119.317
M204 S252
G1 F1800 X118.197 Y119.39 E11.56301
M204 S138
G0 F9000 X118.197 Y119.831
G1 F2700 E3.56301
;MESH:Handle_inserts.stl(2)
G0 F9000 X118.197 Y119.921
G0 X116.038 Y120.311
G0 X116.038 Y122.289
G0 X116.038 Y122.519
M204 S252
;TYPE:WALL-INNER
G1 F2700 E11.56301
G1 F900 X116.287 Y122.519 E11.57336
G1 X118.961 Y122.519 E11.68453
G1 X118.961 Y127.681 E11.89914
G1 X116.039 Y127.681 E12.02063
G1 X116.038 Y122.768 E12.22488
G1 X116.038 Y122.519 E12.23158
M204 S138
G0 F9000 X115.538 Y122.019
M204 S252
;TYPE:WALL-OUTER
G1 F900 X119.461 Y122.019 E12.39468
G1 X119.461 Y128.181 E12.65086
G1 X115.539 Y128.181 E12.81392
G1 X115.538 Y122.019 E13.07011
M204 S138
G0 F9000 X115.858 Y122.339
G0 X116.528 Y122.679
G0 X116.528 Y123.009
M204 S252
;TYPE:SKIN
G1 F1800 X118.471 Y123.009 E13.15089
G1 X118.471 Y127.191 E13.32476
G1 X116.529 Y127.191 E13.40549
G1 X116.528 Y123.009 E13.57936
M204 S138
G0 F9000 X116.729 Y123.687
M204 S252
G1 F1800 X117.207 Y123.208 E13.6075
M204 S138
G0 F9000 X117.915 Y123.208
M204 S252
G1 F1800 X116.729 Y124.394 E13.67723
M204 S138
G0 F9000 X116.729 Y125.101
M204 S252
G1 F1800 X118.271 Y123.559 E13.76789
M204 S138
G0 F9000 X118.271 Y124.266
M204 S252
G1 F1800 X116.729 Y125.808 E13.85856
M204 S138
G0 F9000 X116.729 Y126.515
M204 S252
G1 F1800 X118.271 Y124.973 E13.94922
M204 S138
G0 F9000 X118.271 Y125.68
M204 S252
G1 F1800 X116.961 Y126.99 E14.02624
M204 S138
G0 F9000 X117.668 Y126.99
M204 S252
G1 F1800 X118.271 Y126.387 E14.0617
M204 S138
G0 F9000 X118.711 Y126.387
G1 F2700 E6.0617
;MESH:NONMESH
G0 F300 X118.711 Y126.387 Z0.6
G0 F9000 X118.801 Y126.387
G0 X119.111 Y122.289
G0 X120.02 Y121.3
G0 X120.372 Y120.959
G0 X120.372 Y114.041
G0 X120.021 Y113.701
G0 X119.111 Y112.711
G0 X119.162 Y112.481
;TIME_ELAPSED:72.174958
;LAYER:2
M106 S170
M204 S500
;TYPE:WALL-INNER
;MESH:Handle_inserts.stl(1)
G1 F2700 E14.0617
G1 F938.4 X118.913 Y112.481 E14.07205
G1 X115.839 Y112.481 E14.19985
G1 X115.839 Y107.319 E14.41446
G1 X119.161 Y107.319 E14.55257
G1 X119.162 Y112.232 E14.75683
G1 X119.162 Y112.481 E14.76353
M204 S250
G0 F15000 X119.662 Y112.981
M204 S500
;TYPE:WALL-OUTER
G1 F938.4 X115.339 Y112.981 E14.94326
G1 X115.339 Y106.819 E15.19944
G1 X119.661 Y106.819 E15.37913
G1 X119.662 Y112.981 E15.63532
M204 S250
G0 F15000 X119.342 Y112.661
G0 X119.002 Y111.991
G0 X118.672 Y111.991
M204 S500
;TYPE:SKIN
G1 F2346 X116.329 Y111.991 E15.73273
G1 X116.329 Y107.809 E15.90659
G1 X118.671 Y107.809 E16.00396
G1 X118.672 Y111.991 E16.17783
M204 S250
G0 F15000 X119.002 Y111.991
G0 X116.74 Y112.321
G0 X116.74 Y111.79
M204 S500
G1 F2346 X116.528 Y111.578 E16.1903
M204 S250
G0 F15000 X116.528 Y110.871
M204 S500
G1 F2346 X117.447 Y111.79 E16.24433
M204 S250
G0 F15000 X118.154 Y111.79
M204 S500
G1 F2346 X116.528 Y110.164 E16.33993
M204 S250
G0 F15000 X116.528 Y109.457
M204 S500
G1 F2346 X118.471 Y111.4 E16.45417
M204 S250
G0 F15000 X118.471 Y110.693
M204 S500
G1 F2346 X116.528 Y108.75 E16.56841
M204 S250
G0 F15000 X116.528 Y108.043
M204 S500
G1 F2346 X118.471 Y109.986 E16.68265
M204 S250
G0 F15000 X118.47 Y109.278
M204 S500
G1 F2346 X117.201 Y108.009 E16.75727
M204 S250
G0 F15000 X117.908 Y108.009
M204 S500
G1 F2346 X118.47 Y108.571 E16.79031
M204 S250
G0 F15000 X118.911 Y108.57
G1 F2700 E8.79031
;MESH:Handle_inserts.stl
G0 F15000 X119.002 Y108.571
G0 X118.93 Y112.249
G0 X115.838 Y112.711
G0 X115.838 Y114.689
G0 X115.838 Y114.919
M204 S500
;TYPE:WALL-INNER
G1 F2700 E16.79031
G1 F938.4 X116.087 Y114.919 E16.80066
G1 X119.161 Y114.919 E16.92846
G1 X119.161 Y120.081 E17.14308
G1 X115.839 Y120.081 E17.28119
G1 X115.838 Y115.168 E17.48545
G1 X115.838 Y114.919 E17.49214
M204 S250
G0 F15000 X115.338 Y114.419
M204 S500
;TYPE:WALL-OUTER
G1 F938.4 X119.661 Y114.419 E17.67187
G1 X119.661 Y120.581 E17.92806
G1 X115.339 Y120.581 E18.10774
G1 X115.338 Y114.419 E18.36393
M204 S250
G0 F15000 X115.658 Y114.739
G0 X116.328 Y115.079
G0 X116.328 Y115.409
M204 S500
;TYPE:SKIN
G1 F2346 X118.671 Y115.409 E18.46134
G1 X118.671 Y119.591 E18.63521
G1 X116.329 Y119.591 E18.73258
G1 X116.328 Y115.409 E18.90644
M204 S250
G0 F15000 X116.328 Y115.079
G0 X118.929 Y115.151
G0 X119.001 Y116.349
G0 X118.47 Y116.349
M204 S500
G1 F2346 X117.73 Y115.609 E18.94995
M204 S250
G0 F15000 X117.023 Y115.609
M204 S500
G1 F2346 X118.47 Y117.056 E19.03503
M204 S250
G0 F15000 X118.47 Y117.763
M204 S500
G1 F2346 X116.526 Y115.819 E19.14933
M204 S250
G0 F15000 X116.526 Y116.526
M204 S500
G1 F2346 X118.47 Y118.47 E19.26363
M204 S250
G0 F15000 X118.47 Y119.177
M204 S500
G1 F2346 X116.527 Y117.234 E19.37787
M204 S250
G0 F15000 X116.527 Y117.941
M204 S500
G1 F2346 X117.975 Y119.39 E19.46304
M204 S250
G0 F15000 X117.268 Y119.39
M204 S500
G1 F2346 X116.528 Y118.649 E19.50658
M204 S250
G0 F15000 X116.089 Y118.65
G1 F2700 E11.50658
;MESH:Handle_inserts.stl(2)
G0 F15000 X115.998 Y118.649
G0 X115.838 Y120.311
G0 X115.838 Y122.289
G0 X115.838 Y122.519
M204 S500
;TYPE:WALL-INNER
G1 F2700 E19.50658
G1 F938.4 X116.087 Y122.519 E19.51693
G1 X119.161 Y122.519 E19.64473
G1 X119.161 Y127.681 E19.85934
G1 X115.839 Y127.681 E19.99746
G1 X115.838 Y122.768 E20.20171
G1 X115.838 Y122.519 E20.20841
M204 S250
G0 F15000 X115.338 Y122.019
M204 S500
;TYPE:WALL-OUTER
G1 F938.4 X119.661 Y122.019 E20.38814
G1 X119.661 Y128.181 E20.64432
G1 X115.339 Y128.181 E20.82401
G1 X115.338 Y122.019 E21.0802
M204 S250
G0 F15000 X115.658 Y122.339
G0 X116.328 Y122.679
G0 X116.328 Y123.009
M204 S500
;TYPE:SKIN
G1 F2346 X118.671 Y123.009 E21.17761
G1 X118.671 Y127.191 E21.35148
G1 X116.329 Y127.191 E21.44884
G1 X116.328 Y123.009 E21.62271
M204 S250
G0 F15000 X116.328 Y122.679
G0 X118.929 Y122.751
G0 X119.001 Y123.42
G0 X118.47 Y123.42
M204 S500
G1 F2346 X118.258 Y123.208 E21.63518
M204 S250
G0 F15000 X117.551 Y123.208
M204 S500
G1 F2346 X118.47 Y124.127 E21.68921
M204 S250
G0 F15000 X118.47 Y124.834
M204 S500
G1 F2346 X116.844 Y123.208 E21.78481
M204 S250
G0 F15000 X116.527 Y123.598
M204 S500
G1 F2346 X118.47 Y125.541 E21.89905
M204 S250
G0 F15000 X118.47 Y126.248
M204 S500
G1 F2346 X116.527 Y124.305 E22.01329
M204 S250
G0 F15000 X116.527 Y125.012
M204 S500
G1 F2346 X118.47 Y126.956 E22.12757
M204 S250
G0 F15000 X117.797 Y126.99
M204 S500
G1 F2346 X116.528 Y125.72 E22.20221
M204 S250
G0 F15000 X116.528 Y126.427
M204 S500
G1 F2346 X117.09 Y126.99 E22.23528
M204 S250
G0 F15000 X117.09 Y127.431
G1 F2700 E14.23528
;MESH:NONMESH
G0 F300 X117.09 Y127.431 Z0.8
G0 F15000 X117.09 Y127.521
G0 X118.929 Y127.449
G0 X119.311 Y122.289
G0 X120.22 Y121.3
G0 X120.572 Y120.959
G0 X120.572 Y114.041
G0 X120.221 Y113.701
G0 X119.311 Y112.711
G0 X119.362 Y112.481
;TIME_ELAPSED:90.215196
;LAYER:3
M106 S255
M204 S500
;TYPE:WALL-INNER
;MESH:Handle_inserts.stl(1)
G1 F2700 E22.23528
G1 F995.6 X119.113 Y112.481 E22.24563
G1 X115.639 Y112.481 E22.39006
G1 X115.639 Y107.319 E22.60468
G1 X119.361 Y107.319 E22.75942
G1 X119.362 Y112.232 E22.96368
G1 X119.362 Y112.481 E22.97037
M204 S250
G0 F15000 X119.862 Y112.981
M204 S500
;TYPE:WALL-OUTER
G1 F995.6 X115.139 Y112.981 E23.16673
G1 X115.139 Y106.819 E23.42292
G1 X119.861 Y106.819 E23.61923
G1 X119.862 Y112.981 E23.87542
M204 S250
G0 F15000 X119.542 Y112.661
G0 X119.202 Y111.991
G0 X118.872 Y111.991
M204 S500
;TYPE:SKIN
G1 F2489 X116.129 Y111.991 E23.98946
G1 X116.129 Y107.809 E24.16333
G1 X118.871 Y107.809 E24.27733
G1 X118.872 Y111.991 E24.45119
M204 S250
G0 F15000 X118.67 Y111.139
M204 S500
G1 F2489 X118.018 Y111.791 E24.48953
M204 S250
G0 F15000 X117.311 Y111.791
M204 S500
G1 F2489 X118.67 Y110.432 E24.56943
M204 S250
G0 F15000 X118.67 Y109.725
M204 S500
G1 F2489 X116.604 Y111.791 E24.69091
M204 S250
G0 F15000 X116.328 Y111.36
M204 S500
G1 F2489 X118.67 Y109.018 E24.82861
M204 S250
G0 F15000 X118.67 Y108.311
M204 S500
G1 F2489 X116.328 Y110.653 E24.96631
M204 S250
G0 F15000 X116.328 Y109.945
M204 S500
G1 F2489 X118.265 Y108.008 E25.0802
M204 S250
G0 F15000 X117.558 Y108.008
M204 S500
G1 F2489 X116.328 Y109.238 E25.15252
M204 S250
G0 F15000 X116.328 Y108.531
M204 S500
G1 F2489 X116.851 Y108.008 E25.18327
M204 S250
G0 F15000 X116.851 Y107.569
G1 F2700 E17.18327
;MESH:Handle_inserts.stl
G0 F15000 X116.851 Y107.479
G0 X115.871 Y107.551
G0 X115.638 Y112.711
