;FLAVOR:Marlin
;TIME:2852
;Filament used: 1.41443m
;Layer height: 0.2
;MINX:94.575
;MINY:112.509
;MINZ:0.2
;MAXX:140.425
;MAXY:122.491
;MAXZ:27.55
;Generated with Cura_SteamEngine 4.12.1
M140 S60
M105
M190 S60
M104 S200
M105
M109 S200
M82 ;absolute extrusion mode
; Ender 3 Custom Start G-code
G92 E0 ; Reset Extruder
G28 ; Home all axes
G1 Z2.0 F3000 ; Move Z Axis up little to prevent scratching of Heat Bed
G1 X0.1 Y20 Z0.3 F5000.0 ; Move to start position
G1 X0.1 Y200.0 Z0.3 F1500.0 E15 ; Draw the first line
G1 X0.4 Y200.0 Z0.3 F5000.0 ; Move to side a little
G1 X0.4 Y20 Z0.3 F1500.0 E30 ; Draw the second line
G92 E0 ; Reset Extruder
G1 Z2.0 F3000 ; Move Z Axis up little to prevent scratching of Heat Bed
G1 X5 Y20 Z0.3 F5000.0 ; Move over to prevent blob squish
G92 E0
G92 E0
G1 F2700 E-8
;LAYER_COUNT:134
;LAYER:0
M107
M204 S25
;MESH:Holder_mid.stl
G0 F3000 X134.019 Y121.941 Z0.2
M204 S5
;TYPE:WALL-INNER
G1 F2700 E0
G1 F600 X134.548 Y121.412 E0.0311
G1 X134.548 Y120.46 E0.07068
G1 X135.722 Y120.46 E0.11949
G1 X136.075 Y120.309 E0.13545
G1 X138.435 Y117.88 E0.27626
G1 X138.435 Y117.12 E0.30785
G1 X136.075 Y114.691 E0.44866
G1 X135.722 Y114.54 E0.46462
G1 X134.548 Y114.54 E0.51343
G1 X134.548 Y113.588 E0.55301
G1 X134.019 Y113.059 E0.58411
G1 X134.621 Y113.059 E0.59617
G1 X135.206 Y113.059 E0.62049
G1 X139.647 Y117.5 E0.8816
G1 X135.206 Y121.941 E1.14272
G1 X134.621 Y121.941 E1.16704
G1 X134.019 Y121.941 E1.17909
M204 S25
G1 F2700 E-6.82091
G0 F3000 X100.981 Y121.941
M204 S5
G1 F2700 E1.17909
G1 F600 X100.379 Y121.941 E1.20412
G1 X99.794 Y121.941 E1.22844
G1 X95.353 Y117.5 E1.48956
G1 X99.794 Y113.059 E1.75067
G1 X100.379 Y113.059 E1.77499
G1 X100.981 Y113.059 E1.80002
G1 X100.452 Y113.588 E1.81815
G1 X100.452 Y114.54 E1.85773
G1 X99.278 Y114.54 E1.90654
G1 X98.925 Y114.691 E1.9225
G1 X96.565 Y117.12 E2.0633
G1 X96.565 Y117.88 E2.0949
G1 X98.925 Y120.309 E2.2357
G1 X99.278 Y120.46 E2.25167
G1 X100.452 Y120.46 E2.30047
G1 X100.452 Y121.412 E2.34005
G1 X100.981 Y121.941 E2.35818
M204 S25
G0 F3000 X101.207 Y121.46
M204 S5
;TYPE:WALL-OUTER
G1 F600 X133.793 Y121.46 E3.71295
G1 X134.048 Y121.205 E3.72795
G1 X134.048 Y119.96 E3.77971
G1 X135.62 Y119.96 E3.84506
G1 X135.786 Y119.889 E3.85257
G1 X137.935 Y117.677 E3.98079
G1 X137.935 Y117.323 E3.9955
G1 X135.786 Y115.111 E4.12372
G1 X135.62 Y115.04 E4.13123
G1 X134.048 Y115.04 E4.19659
G1 X134.048 Y113.795 E4.24835
G1 X133.793 Y113.54 E4.26334
G1 X101.207 Y113.54 E5.61811
G1 X100.952 Y113.795 E5.6331
G1 X100.952 Y115.04 E5.68486
G1 X99.38 Y115.04 E5.75022
G1 X99.214 Y115.111 E5.75772
G1 X97.065 Y117.323 E5.88594
G1 X97.065 Y117.677 E5.90066
G1 X99.214 Y119.889 E6.02888
G1 X99.38 Y119.96 E6.03639
G1 X100.952 Y119.96 E6.10174
G1 X100.952 Y121.205 E6.1535
G1 X101.207 Y121.46 E6.1685
M204 S25
G1 F2700 E-1.8315
G0 F3000 X101.207 Y121.81
G0 X135.272 Y122.099
G1 F2700 E6.1685
G0 F3000 X135.414 Y122.441
M204 S5
G1 F600 X99.586 Y122.441 E7.65805
G1 X94.645 Y117.5 E7.94856
G1 X99.586 Y112.559 E8.23907
G1 X135.414 Y112.559 E9.72863
G1 X140.355 Y117.5 E10.01914
G1 X135.414 Y122.441 E10.30965
M204 S25
G0 F3000 X135.204 Y121.933
G0 X135.038 Y121.415
M204 S5
;TYPE:SKIN
G1 F600 X135.038 Y120.95 E10.32899
G1 X135.503 Y120.95 E10.34832
G1 X135.038 Y121.415 E10.37566
M204 S25
G0 F3000 X134.708 Y121.415
G0 X134.78 Y120.692
G0 X135.365 Y120.692
G0 X138.595 Y117.528
G0 X138.925 Y117.528
M204 S5
G1 F600 X138.925 Y117.472 E10.37799
G1 X138.953 Y117.5 E10.37963
G1 X138.925 Y117.528 E10.38128
M204 S25
G0 F3000 X138.595 Y117.528
G0 X135.952 Y114.869
G0 X134.78 Y114.308
G0 X134.708 Y114.05
G0 X135.038 Y114.05
M204 S5
G1 F600 X135.038 Y113.585 E10.40061
G1 X135.503 Y114.05 E10.42795
G1 X135.038 Y114.05 E10.44728
M204 S25
G0 F3000 X135.7 Y114.133
M204 S5
;TYPE:SKIN
G1 F600 X136.015 Y114.448 E10.45654
M204 S25
G0 F3000 X135.999 Y114.484
G0 X134.78 Y114.308
G0 X134.61 Y113.304
G0 X134.953 Y113.219
G0 X134.953 Y113.386
M204 S5
G1 F600 X134.826 Y113.259 E10.46028
M204 S25
G0 F3000 X134.826 Y113.219
G0 X134.78 Y114.308
G0 X135.446 Y114.344
G0 X138.595 Y117.067
G0 X138.633 Y117.067
M204 S5
G1 F600 X138.839 Y117.272 E10.46632
M204 S25
G0 F3000 X138.633 Y117.774
M204 S5
G1 F600 X138.861 Y118.001 E10.47301
M204 S25
G0 F3000 X138.684 Y118.178
M204 S5
G1 F600 X138.551 Y118.045 E10.47692
M204 S25
G0 F3000 X138.377 Y118.224
M204 S5
G1 F600 X138.508 Y118.355 E10.48077
M204 S25
G0 F3000 X138.331 Y118.532
M204 S5
G1 F600 X138.202 Y118.403 E10.48456
M204 S25
G0 F3000 X138.028 Y118.583
M204 S5
G1 F600 X138.154 Y118.709 E10.48827
M204 S25
G0 F3000 X137.977 Y118.885
M204 S5
G1 F600 X137.854 Y118.762 E10.49188
M204 S25
G0 F3000 X137.68 Y118.941
M204 S5
G1 F600 X137.8 Y119.062 E10.49542
M204 S25
G0 F3000 X137.624 Y119.239
M204 S5
G1 F600 X137.506 Y119.121 E10.49889
M204 S25
G0 F3000 X137.331 Y119.3
M204 S5
G1 F600 X137.447 Y119.416 E10.5023
M204 S25
G0 F3000 X137.27 Y119.592
M204 S5
G1 F600 X137.157 Y119.479 E10.50563
M204 S25
G0 F3000 X136.982 Y119.658
M204 S5
G1 F600 X137.093 Y119.769 E10.50889
M204 S25
G0 F3000 X136.917 Y119.946
M204 S5
G1 F600 X136.808 Y119.838 E10.51208
M204 S25
G0 F3000 X136.634 Y120.017
M204 S5
G1 F600 X136.74 Y120.123 E10.51519
M204 S25
G0 F3000 X136.563 Y120.3
M204 S5
G1 F600 X136.46 Y120.196 E10.51824
M204 S25
G0 F3000 X136.286 Y120.376
M204 S5
G1 F600 X136.386 Y120.476 E10.52118
M204 S25
G0 F3000 X136.209 Y120.653
M204 S5
G1 F600 X136.079 Y120.523 E10.525
M204 S25
G0 F3000 X135.832 Y120.629
M204 S5
G1 F600 X136.033 Y120.83 E10.53091
M204 S25
G0 F3000 X135.856 Y121.007
M204 S5
G1 F600 X135.689 Y120.84 E10.53582
M204 S25
G0 F3000 X135.689 Y120.62
G0 X134.78 Y120.692
G0 X134.61 Y121.696
G0 X134.822 Y121.741
M204 S5
G1 F600 X134.662 Y121.58 E10.54054
M204 S25
G1 F2700 E2.54054
G0 F3000 X134.635 Y121.553
G0 X133.912 Y121.746
G0 X101.088 Y121.746
G0 X100.292 Y121.415
G1 F2700 E10.54054
G0 F3000 X99.962 Y121.415
M204 S5
;TYPE:SKIN
G1 F600 X99.497 Y120.95 E10.56788
G1 X99.962 Y120.95 E10.58721
G1 X99.962 Y121.415 E10.60654
M204 S25
G0 F3000 X100.292 Y121.415
G0 X100.22 Y120.692
G0 X99.634 Y120.692
G0 X96.405 Y117.528
G0 X96.075 Y117.528
M204 S5
G1 F600 X96.047 Y117.5 E10.60819
G1 X96.075 Y117.472 E10.60983
G1 X96.075 Y117.528 E10.61216
M204 S25
G0 F3000 X96.405 Y117.528
G0 X99.048 Y114.869
G0 X100.22 Y114.308
G0 X100.292 Y114.05
G0 X99.962 Y114.05
M204 S5
G1 F600 X99.497 Y114.05 E10.63149
G1 X99.962 Y113.585 E10.65883
G1 X99.962 Y114.05 E10.67817
M204 S25
G0 F3000 X99.309 Y114.158
M204 S5
;TYPE:SKIN
G1 F600 X99.142 Y113.991 E10.68308
M204 S25
G0 F3000 X98.965 Y114.168
M204 S5
G1 F600 X99.166 Y114.369 E10.68899
M204 S25
G0 F3000 X98.919 Y114.475
M204 S5
G1 F600 X98.789 Y114.345 E10.69281
M204 S25
G0 F3000 X98.612 Y114.522
M204 S5
G1 F600 X98.713 Y114.623 E10.69578
M204 S25
G0 F3000 X98.538 Y114.802
M204 S5
G1 F600 X98.435 Y114.699 E10.6988
M204 S25
G0 F3000 X98.258 Y114.875
M204 S5
G1 F600 X98.364 Y114.981 E10.70192
M204 S25
G0 F3000 X98.19 Y115.16
M204 S5
G1 F600 X98.082 Y115.052 E10.7051
M204 S25
G0 F3000 X97.905 Y115.229
M204 S5
G1 F600 X98.016 Y115.34 E10.70836
M204 S25
G0 F3000 X97.842 Y115.52
M204 S5
G1 F600 X97.728 Y115.406 E10.71171
M204 S25
G0 F3000 X97.551 Y115.582
M204 S5
G1 F600 X97.667 Y115.698 E10.71512
M204 S25
G0 F3000 X97.493 Y115.878
M204 S5
G1 F600 X97.374 Y115.759 E10.71862
M204 S25
G0 F3000 X97.198 Y115.936
M204 S5
G1 F600 X97.319 Y116.058 E10.72219
M204 S25
G0 F3000 X97.145 Y116.237
M204 S5
G1 F600 X97.021 Y116.113 E10.72584
M204 S25
G0 F3000 X96.844 Y116.29
M204 S5
G1 F600 X96.971 Y116.416 E10.72955
M204 S25
G0 F3000 X96.797 Y116.596
M204 S5
G1 F600 X96.667 Y116.466 E10.73338
M204 S25
G0 F3000 X96.491 Y116.643
M204 S5
G1 F600 X96.622 Y116.775 E10.73724
M204 S25
G0 F3000 X96.448 Y116.954
M204 S5
G1 F600 X96.314 Y116.82 E10.74118
M204 S25
G0 F3000 X96.137 Y116.997
M204 S5
G1 F600 X96.365 Y117.224 E10.74787
M204 S25
G0 F3000 X96.159 Y117.726
M204 S5
G1 F600 X96.365 Y117.931 E10.75391
M204 S25
G0 F3000 X96.405 Y117.931
G0 X98.998 Y120.515
G0 X98.983 Y120.55
M204 S5
G1 F600 X99.299 Y120.865 E10.76319
M204 S25
G0 F3000 X99.299 Y120.62
G0 X100.22 Y120.692
G0 X100.39 Y121.696
G0 X100.046 Y121.781
G0 X100.046 Y121.613
M204 S5
G1 F600 X100.172 Y121.739 E10.76689
M204 S25
G0 F3000 X100.172 Y121.781
G0 X100.206 Y120.25
G0 X99.321 Y120.249
G0 X99.048 Y120.131
G0 X96.778 Y117.793
G0 X96.778 Y117.207
G0 X99.048 Y114.869
G0 X99.321 Y114.751
G0 X100.14 Y114.75
G0 X100.365 Y113.447
G0 X100.337 Y113.419
M204 S5
G1 F600 X100.177 Y113.258 E10.77161
M204 S25
G0 F3000 X101.15 Y113.171
M204 S5
G1 F600 X101.303 Y113.324 E10.77611
M204 S25
G0 F3000 X101.381 Y113.048
M204 S5
G1 F600 X101.734 Y113.048 E10.79235
G1 X133.554 Y113.048 E12.25685
G1 X133.734 Y112.875 E12.26834
M204 S25
G0 F3000 X133.633 Y112.909
G0 X134.334 Y113.676
G0 X134.326 Y114.762
G0 X135.679 Y114.751
G0 X135.952 Y114.869
G0 X138.222 Y117.207
G0 X138.222 Y117.793
G0 X135.952 Y120.131
G0 X135.679 Y120.249
G0 X134.326 Y120.238
G0 X134.334 Y121.324
G0 X133.993 Y121.665
G0 X133.695 Y121.81
G0 X133.695 Y121.674
M204 S5
G1 F600 X133.848 Y121.827 E12.27284
M204 S25
G0 F3000 X133.616 Y121.949
M204 S5
G1 F600 X133.263 Y121.949 E12.28934
G1 X101.443 Y121.949 E13.77709
M204 S25
G0 F3000 X101.365 Y122.225
M204 S5
G1 F600 X101.162 Y122.021 E13.78307
M204 S25
;MESH:NONMESH
G0 F300 X101.162 Y122.021 Z0.45
G0 F3000 X100.502 Y121.91
;TIME_ELAPSED:80.095758
;LAYER:1
M106 S85
M204 S252
;TYPE:WALL-INNER
;MESH:Holder_mid.stl
G1 F900 X134.498 Y121.91 E15.54981
G1 X134.498 Y120.41 E15.62776
G1 X135.908 Y120.41 E15.70104
G1 X138.733 Y117.5 E15.91181
G1 X135.908 Y114.59 E16.12258
G1 X134.498 Y114.59 E16.19586
G1 X134.498 Y113.09 E16.27381
G1 X100.502 Y113.09 E18.04055
G1 X100.502 Y114.59 E18.1185
G1 X99.092 Y114.59 E18.19178
G1 X96.267 Y117.5 E18.40255
G1 X99.092 Y120.41 E18.61332
G1 X100.502 Y120.41 E18.68659
G1 X100.502 Y121.91 E18.76455
M204 S138
G0 F9000 X101.002 Y121.41
M204 S252
;TYPE:WALL-OUTER
G1 F900 X133.998 Y121.41 E20.47931
G1 X133.998 Y119.91 E20.55727
G1 X135.697 Y119.91 E20.64556
G1 X138.036 Y117.5 E20.8201
G1 X135.697 Y115.09 E20.99463
G1 X133.998 Y115.09 E21.08293
G1 X133.998 Y113.59 E21.16088
G1 X101.002 Y113.59 E22.87565
G1 X101.002 Y115.09 E22.9536
G1 X99.303 Y115.09 E23.0419
G1 X96.964 Y117.5 E23.21643
G1 X99.303 Y119.91 E23.39096
G1 X101.002 Y119.91 E23.47926
G1 X101.002 Y121.41 E23.55721
M204 S138
G1 F2700 E15.55721
G0 F9000 X100.652 Y121.41
G0 X100.724 Y121.688
G0 X135.226 Y121.991
M204 S252
;TYPE:WALL-INNER
G1 F2700 E23.55721
G1 F900 X134.498 Y121.991 E23.59505
G1 X100.502 Y121.991 E23.88183
G1 X99.774 Y121.991 E23.91966
G1 X95.283 Y117.5 E24.24973
G1 X99.774 Y113.009 E24.5798
G1 X100.502 Y113.009 E24.61763
G1 X134.498 Y113.009 E24.90442
G1 X135.226 Y113.009 E24.94225
G1 X139.717 Y117.5 E25.27232
G1 X135.226 Y121.991 E25.60238
M204 S138
G0 F9000 X135.434 Y122.491
M204 S252
;TYPE:WALL-OUTER
G1 F900 X99.566 Y122.491 E27.46641
G1 X94.575 Y117.5 E27.83322
G1 X99.566 Y112.509 E28.20004
G1 X135.434 Y112.509 E30.06406
G1 X140.425 Y117.5 E30.43087
G1 X135.434 Y122.491 E30.79769
M204 S138
G0 F9000 X135.224 Y121.983
G0 X135.022 Y121.501
M204 S252
;TYPE:SKIN
G1 F1800 X134.988 Y121.501 E30.79945
G1 X134.988 Y120.9 E30.83069
G1 X135.623 Y120.9 E30.86369
G1 X135.022 Y121.501 E30.90786
M204 S138
G0 F9000 X135.022 Y121.831
G0 X134.73 Y121.759
G0 X134.73 Y120.642
G0 X135.818 Y120.196
G0 X138.424 Y117.5
G0 X135.818 Y114.804
G0 X134.905 Y114.801
G0 X134.658 Y114.1
G0 X134.988 Y114.1
M204 S252
G1 F1800 X134.988 Y113.499 E30.93909
G1 X135.022 Y113.499 E30.94086
G1 X135.623 Y114.1 E30.98503
G1 X134.988 Y114.1 E31.01803
M204 S138
G0 F9000 X135.851 Y114.11
M204 S252
;TYPE:SKIN
G1 F1800 X135.947 Y114.014 E31.02156
M204 S138
G0 F9000 X136.124 Y114.191
M204 S252
G1 F1800 X135.925 Y114.39 E31.02887
M204 S138
G0 F9000 X136.133 Y114.535
M204 S252
G1 F1800 X136.301 Y114.368 E31.03503
M204 S138
G0 F9000 X136.477 Y114.544
M204 S252
G1 F1800 X136.308 Y114.714 E31.04125
M204 S138
G0 F9000 X136.482 Y114.894
M204 S252
G1 F1800 X136.654 Y114.721 E31.04759
M204 S138
G0 F9000 X136.831 Y114.898
M204 S252
G1 F1800 X136.656 Y115.073 E31.05402
M204 S138
G0 F9000 X136.83 Y115.253
M204 S252
G1 F1800 X137.008 Y115.075 E31.06057
M204 S138
G0 F9000 X137.185 Y115.252
M204 S252
G1 F1800 X137.004 Y115.432 E31.0672
M204 S138
G0 F9000 X137.178 Y115.611
M204 S252
G1 F1800 X137.361 Y115.428 E31.07392
M204 S138
G0 F9000 X137.538 Y115.605
M204 S252
G1 F1800 X137.352 Y115.791 E31.08076
M204 S138
G0 F9000 X137.526 Y115.971
M204 S252
G1 F1800 X137.715 Y115.782 E31.0877
M204 S138
G0 F9000 X137.892 Y115.959
M204 S252
G1 F1800 X137.701 Y116.15 E31.09472
M204 S138
G0 F9000 X137.875 Y116.329
M204 S252
G1 F1800 X138.068 Y116.135 E31.10183
M204 S138
G0 F9000 X138.245 Y116.312
M204 S252
G1 F1800 X138.049 Y116.509 E31.10905
M204 S138
G0 F9000 X138.223 Y116.688
M204 S252
G1 F1800 X138.422 Y116.489 E31.11637
M204 S138
G0 F9000 X138.599 Y116.666
M204 S252
G1 F1800 X138.397 Y116.867 E31.12377
M204 S138
G0 F9000 X138.571 Y117.047
M204 S252
G1 F1800 X138.776 Y116.843 E31.13129
M204 S138
G0 F9000 X138.952 Y117.019
M204 S252
G1 F1800 X138.745 Y117.226 E31.13889
M204 S138
G0 F9000 X138.919 Y117.406
M204 S252
G1 F1800 X139.129 Y117.196 E31.14661
M204 S138
G0 F9000 X139.306 Y117.373
M204 S252
G1 F1800 X135.833 Y120.845 E31.27422
M204 S138
G1 F2700 E23.27422
G0 F9000 X135.988 Y121.001
G0 X135.133 Y121.767
G0 X100.724 Y121.688
G0 X100.715 Y120.789
G0 X100.012 Y120.57
G1 F2700 E31.27422
G0 F9000 X100.012 Y120.9
M204 S252
;TYPE:SKIN
G1 F1800 X100.012 Y121.501 E31.30545
G1 X99.978 Y121.501 E31.30722
G1 X99.377 Y120.9 E31.35139
G1 X100.012 Y120.9 E31.38439
M204 S138
G0 F9000 X100.012 Y120.57
G0 X99.182 Y120.196
G0 X96.576 Y117.5
G0 X99.182 Y114.804
G0 X100.091 Y114.8
G0 X100.342 Y114.1
G0 X100.012 Y114.1
M204 S252
G1 F1800 X99.377 Y114.1 E31.41739
G1 X99.978 Y113.499 E31.46156
G1 X100.012 Y113.499 E31.46333
G1 X100.012 Y114.1 E31.49456
M204 S138
G0 F9000 X99.233 Y114.313
M204 S252
;TYPE:SKIN
G1 F1800 X99.156 Y114.389 E31.49737
M204 S138
G0 F9000 X99.128 Y114.064
M204 S252
G1 F1800 X95.629 Y117.562 E31.62593
M204 S138
G0 F9000 X95.806 Y117.739
M204 S252
G1 F1800 X96.017 Y117.528 E31.63369
M204 S138
G0 F9000 X96.191 Y117.708
M204 S252
G1 F1800 X95.983 Y117.916 E31.64133
M204 S138
G0 F9000 X96.16 Y118.093
M204 S252
G1 F1800 X96.365 Y117.888 E31.64886
M204 S138
G0 F9000 X96.539 Y118.067
M204 S252
G1 F1800 X96.336 Y118.269 E31.6563
M204 S138
G0 F9000 X96.513 Y118.446
M204 S252
G1 F1800 X96.713 Y118.246 E31.66365
M204 S138
G0 F9000 X96.887 Y118.426
M204 S252
G1 F1800 X96.69 Y118.623 E31.67089
M204 S138
G0 F9000 X96.867 Y118.8
M204 S252
G1 F1800 X97.061 Y118.605 E31.67804
M204 S138
G0 F9000 X97.236 Y118.784
M204 S252
G1 F1800 X97.044 Y118.977 E31.68511
M204 S138
G0 F9000 X97.22 Y119.153
M204 S252
G1 F1800 X97.41 Y118.964 E31.69208
M204 S138
G0 F9000 X97.584 Y119.143
M204 S252
G1 F1800 X97.397 Y119.33 E31.69895
M204 S138
G0 F9000 X97.574 Y119.507
M204 S252
G1 F1800 X97.758 Y119.323 E31.70571
M204 S138
G0 F9000 X97.932 Y119.502
M204 S252
G1 F1800 X97.751 Y119.684 E31.71238
M204 S138
G0 F9000 X97.927 Y119.86
M204 S252
G1 F1800 X98.106 Y119.682 E31.71894
M204 S138
G0 F9000 X98.28 Y119.861
M204 S252
G1 F1800 X98.104 Y120.037 E31.72541
M204 S138
G0 F9000 X98.281 Y120.214
M204 S252
G1 F1800 X98.454 Y120.041 E31.73176
M204 S138
G0 F9000 X98.629 Y120.22
M204 S252
G1 F1800 X98.458 Y120.391 E31.73805
M204 S138
G0 F9000 X98.635 Y120.568
M204 S252
G1 F1800 X98.803 Y120.399 E31.74424
M204 S138
G0 F9000 X98.977 Y120.579
M204 S252
G1 F1800 X98.811 Y120.744 E31.75032
M204 S138
G0 F9000 X98.988 Y120.921
M204 S252
G1 F1800 X99.238 Y120.671 E31.75951
M204 S138
G0 F9000 X99.238 Y120.66
;MESH:NONMESH
G0 F300 X99.238 Y120.66 Z0.75
G0 F9000 X99.238 Y120.57
G0 X100.27 Y120.642
G0 X100.502 Y121.91
;TIME_ELAPSED:117.111650
;LAYER:2
M106 S170
M204 S500
;TYPE:WALL-INNER
;MESH:Holder_mid.stl
G1 F1200 X134.498 Y121.91 E33.87959
G1 X134.498 Y120.41 E33.97314
G1 X135.908 Y120.41 E34.06107
G1 X138.733 Y117.5 E34.31399
G1 X135.908 Y114.59 E34.56692
G1 X134.498 Y114.59 E34.65485
G1 X134.498 Y113.09 E34.74839
G1 X100.502 Y113.09 E36.86848
