;FLAVOR:Marlin
;TIME:8326
;Filament used: 4.84881m
;Layer height: 0.2
;MINX:106.835
;MINY:38.721
;MINZ:0.2
;MAXX:128.163
;MAXY:195.564
;MAXZ:27.95
;Generated with Cura_SteamEngine 4.12.1
M140 S60
M105
M190 S60
M104 S200
M105
M109 S200
M82 ;absolute extrusion mode
; Ender 3 Custom Start G-code
G92 E0 ; Reset Extruder
G28 ; Home all axes
G1 Z2.0 F3000 ; Move Z Axis up little to prevent scratching of Heat Bed
G1 X0.1 Y20 Z0.3 F5000.0 ; Move to start position
G1 X0.1 Y200.0 Z0.3 F1500.0 E15 ; Draw the first line
G1 X0.4 Y200.0 Z0.3 F5000.0 ; Move to side a little
G1 X0.4 Y20 Z0.3 F1500.0 E30 ; Draw the second line
G92 E0 ; Reset Extruder
G1 Z2.0 F3000 ; Move Z Axis up little to prevent scratching of Heat Bed
G1 X5 Y20 Z0.3 F5000.0 ; Move over to prevent blob squish
G92 E0
G92 E0
G1 F2700 E-8
;LAYER_COUNT:162
;LAYER:0
M107
M204 S25
G0 F3000 X117.088 Y58.783 Z0.2
M204 S500
;TYPE:SKIRT
G1 F2700 E0
G1 F600 X117.912 Y58.783 E0.03426
G1 X117.912 Y61.554 E0.14946
G1 X117.088 Y61.554 E0.18372
G1 X117.088 Y58.783 E0.29893
M204 S25
G0 F3000 X116.588 Y58.283
M204 S500
G1 F600 X118.412 Y58.283 E0.37476
G1 X118.412 Y62.054 E0.53154
G1 X116.588 Y62.054 E0.60737
G1 X116.588 Y58.283 E0.76415
M204 S25
G0 F3000 X116.088 Y57.783
M204 S500
G1 F600 X118.912 Y57.783 E0.88156
G1 X118.912 Y62.554 E1.07992
G1 X116.088 Y62.554 E1.19732
G1 X116.088 Y57.783 E1.39568
M204 S25
G1 F2700 E-6.60432
G0 F3000 X116.088 Y118.983
M204 S500
G1 F2700 E1.39568
G1 F600 X118.912 Y118.983 E1.51309
G1 X118.912 Y123.754 E1.71144
G1 X116.088 Y123.754 E1.82885
G1 X116.088 Y118.983 E2.02721
M204 S25
G0 F3000 X116.588 Y119.483
M204 S500
G1 F600 X118.412 Y119.483 E2.10304
G1 X118.412 Y123.254 E2.25982
G1 X116.588 Y123.254 E2.33565
G1 X116.588 Y119.483 E2.49243
M204 S25
G0 F3000 X117.088 Y119.983
M204 S500
G1 F600 X117.912 Y119.983 E2.52669
G1 X117.912 Y122.754 E2.64189
G1 X117.088 Y122.754 E2.67615
G1 X117.088 Y119.983 E2.79136
M204 S25
G1 F2700 E-5.20864
G0 F3000 X116.088 Y180.183
M204 S500
G1 F2700 E2.79136
G1 F600 X118.912 Y180.183 E2.90877
G1 X118.912 Y184.954 E3.10712
G1 X116.088 Y184.954 E3.22453
G1 X116.088 Y180.183 E3.42288
M204 S25
G0 F3000 X116.588 Y180.683
M204 S500
G1 F600 X118.412 Y180.683 E3.49872
G1 X118.412 Y184.454 E3.6555
G1 X116.588 Y184.454 E3.73133
G1 X116.588 Y180.683 E3.88811
M204 S25
G0 F3000 X117.088 Y181.183
M204 S500
G1 F600 X117.912 Y181.183 E3.92237
G1 X117.912 Y183.954 E4.03757
G1 X117.088 Y183.954 E4.07183
G1 X117.088 Y181.183 E4.18704
M204 S25
G1 F2700 E-3.81296
;MESH:Handle.stl
G0 F3000 X114.338 Y181.183
G0 X114.088 Y182.186
M204 S5
;TYPE:WALL-INNER
G1 F2700 E4.18704
G1 F600 X114 Y181.893 E4.19975
G1 X113.589 Y181.567 E4.22156
G1 X113.314 Y181.525 E4.23313
G1 X113.174 Y181.525 E4.23895
G1 X113.159 Y181.422 E4.24328
G1 X113.12 Y181.013 E4.26036
G1 X113.097 Y180.456 E4.28354
G1 X113.08 Y180.18 E4.29503
G1 X113.073 Y179.86 E4.30834
G1 X113.061 Y179.558 E4.32091
G1 X113.055 Y179.202 E4.33571
G1 X113.046 Y178.902 E4.34819
G1 X113.031 Y177.555 E4.40419
G1 X113.028 Y175.439 E4.49217
G1 X121.973 Y175.439 E4.86406
G1 X121.973 Y176.534 E4.90958
G1 X121.967 Y177.82 E4.96305
G1 X121.953 Y178.909 E5.00833
G1 X121.938 Y179.566 E5.03565
G1 X121.919 Y180.18 E5.06119
G1 X121.904 Y180.453 E5.07255
G1 X121.88 Y181.014 E5.0959
G1 X121.843 Y181.412 E5.11252
G1 X121.826 Y181.526 E5.11731
G1 X121.637 Y181.526 E5.12517
G1 X121.189 Y181.682 E5.14489
G1 X120.914 Y182.087 E5.16524
G1 X120.912 Y178.731 E5.30477
G1 X120.364 Y178.183 E5.33699
G1 X114.636 Y178.183 E5.57513
G1 X114.088 Y178.731 E5.60735
G1 X114.088 Y181.567 E5.72526
G1 X114.088 Y182.186 E5.73838
M204 S25
G0 F3000 X114.161 Y186.479
M204 S5
G1 F600 X114.636 Y186.954 E5.76631
G1 X120.364 Y186.954 E6.00445
G1 X120.839 Y186.479 E6.03238
G1 X120.827 Y187.908 E6.09179
G1 X120.807 Y189.103 E6.14148
G1 X120.788 Y189.879 E6.17376
G1 X120.775 Y190.282 E6.19052
G1 X120.748 Y191.022 E6.2213
G1 X120.693 Y192.054 E6.26427
G1 X120.62 Y192.923 E6.30053
G1 X120.527 Y193.631 E6.33022
G1 X120.425 Y194.124 E6.35115
G1 X120.324 Y194.448 E6.36526
G1 X120.19 Y194.657 E6.37558
G1 X119.819 Y194.763 E6.39162
G1 X119.582 Y194.812 E6.40168
G1 X119.335 Y194.856 E6.41211
G1 X119.126 Y194.89 E6.42092
G1 X118.783 Y194.935 E6.4353
G1 X118.452 Y194.97 E6.44914
G1 X118.144 Y194.994 E6.46198
G1 X117.824 Y195.009 E6.4753
G1 X117.494 Y195.014 E6.48902
G1 X117.291 Y195.012 E6.49746
G1 X117.016 Y195.003 E6.5089
G1 X116.8 Y194.992 E6.51789
G1 X116.54 Y194.969 E6.52874
G1 X116.304 Y194.946 E6.5386
G1 X115.957 Y194.903 E6.55314
G1 X115.681 Y194.86 E6.56475
G1 X115.351 Y194.8 E6.5787
G1 X115.033 Y194.731 E6.59222
G1 X114.794 Y194.649 E6.60273
G1 X114.676 Y194.445 E6.61253
G1 X114.574 Y194.117 E6.62681
G1 X114.473 Y193.626 E6.64765
G1 X114.443 Y193.386 E6.6577
G1 X114.381 Y192.936 E6.67659
G1 X114.308 Y192.055 E6.71334
G1 X114.253 Y191.022 E6.75635
G1 X114.212 Y189.875 E6.80407
G1 X114.185 Y188.69 E6.85335
G1 X114.168 Y187.502 E6.90274
G1 X114.161 Y186.479 E6.94528
M204 S25
G0 F3000 X114.843 Y186.454
M204 S5
;TYPE:WALL-OUTER
G1 F600 X120.157 Y186.454 E7.16621
G1 X120.412 Y186.199 E7.1812
G1 X120.412 Y178.938 E7.48308
G1 X120.157 Y178.683 E7.49807
G1 X114.843 Y178.683 E7.719
G1 X114.588 Y178.938 E7.73399
G1 X114.588 Y186.199 E8.03587
G1 X114.843 Y186.454 E8.05086
M204 S25
G0 F3000 X114.633 Y186.962
G1 F2700 E0.05086
G0 F3000 X114.474 Y191.009
G0 X114.69 Y193.584
G0 X114.879 Y194.355
G0 X117.495 Y195.164
G1 F2700 E8.05086
G0 F3000 X117.497 Y195.514
M204 S5
G1 F600 X117.273 Y195.512 E8.06018
G1 X116.998 Y195.502 E8.07162
G1 X116.762 Y195.49 E8.08144
G1 X116.492 Y195.467 E8.09271
G1 X116.256 Y195.444 E8.10257
G1 X115.889 Y195.398 E8.11794
G1 X115.591 Y195.352 E8.13048
G1 X115.247 Y195.289 E8.14502
G1 X114.919 Y195.218 E8.15897
G1 X114.667 Y195.154 E8.16978
G1 X114.443 Y195.023 E8.18057
G1 X114.293 Y194.798 E8.19181
G1 X114.209 Y194.63 E8.19962
G1 X114.089 Y194.243 E8.21647
G1 X113.98 Y193.713 E8.23896
G1 X113.947 Y193.451 E8.24994
G1 X113.884 Y192.988 E8.26937
G1 X113.81 Y192.096 E8.30658
G1 X113.753 Y191.04 E8.35055
G1 X113.712 Y189.893 E8.39827
G1 X113.685 Y188.701 E8.44784
G1 X113.668 Y187.509 E8.4974
G1 X113.66 Y186.374 E8.54459
G1 X113.655 Y183.098 E8.68079
G1 X113.65 Y182.757 E8.69497
G1 X113.631 Y182.403 E8.70971
G1 X113.566 Y182.187 E8.71908
G1 X113.382 Y182.041 E8.72885
G1 X113.277 Y182.025 E8.73327
G1 X112.786 Y182.026 E8.75368
G1 X112.699 Y181.733 E8.76639
G1 X112.662 Y181.484 E8.77685
G1 X112.62 Y181.045 E8.79519
G1 X112.598 Y180.482 E8.81861
G1 X112.58 Y180.201 E8.83032
G1 X112.573 Y179.875 E8.84387
G1 X112.561 Y179.578 E8.85623
G1 X112.555 Y179.214 E8.87137
G1 X112.546 Y178.917 E8.88372
G1 X112.531 Y177.561 E8.9401
G1 X112.527 Y174.939 E9.04911
G1 X122.473 Y174.939 E9.46262
G1 X122.473 Y176.536 E9.52901
G1 X122.467 Y177.826 E9.58265
G1 X122.453 Y178.92 E9.62813
G1 X122.438 Y179.581 E9.65562
G1 X122.419 Y180.195 E9.68116
G1 X122.403 Y180.477 E9.6929
G1 X122.38 Y181.045 E9.71654
G1 X122.338 Y181.486 E9.73495
G1 X122.301 Y181.734 E9.74538
G1 X122.216 Y182.023 E9.7579
G1 X122.194 Y182.026 E9.75883
G1 X121.722 Y182.026 E9.77845
G1 X121.51 Y182.1 E9.78779
G1 X121.395 Y182.269 E9.79628
G1 X121.356 Y182.578 E9.80923
G1 X121.349 Y182.837 E9.82001
G1 X121.345 Y183.22 E9.83593
G1 X121.343 Y185.675 E9.938
G1 X121.338 Y186.752 E9.98277
G1 X121.327 Y187.916 E10.03117
G1 X121.307 Y189.115 E10.08102
G1 X121.288 Y189.895 E10.11346
G1 X121.275 Y190.301 E10.13035
G1 X121.247 Y191.041 E10.16114
G1 X121.228 Y191.42 E10.17692
G1 X121.191 Y192.096 E10.20506
G1 X121.116 Y192.988 E10.24228
G1 X121.02 Y193.715 E10.27277
G1 X120.911 Y194.244 E10.29522
G1 X120.788 Y194.638 E10.31238
G1 X120.667 Y194.884 E10.32378
G1 X120.471 Y195.086 E10.33548
G1 X120.186 Y195.193 E10.34814
G1 X119.92 Y195.253 E10.35947
G1 X119.683 Y195.302 E10.36954
G1 X119.415 Y195.35 E10.38086
G1 X119.205 Y195.384 E10.3897
G1 X118.848 Y195.431 E10.40467
G1 X118.505 Y195.467 E10.41901
G1 X118.175 Y195.493 E10.43277
G1 X117.831 Y195.509 E10.44709
G1 X117.497 Y195.514 E10.46098
M204 S25
G0 F3000 X117.496 Y194.964
G0 X117.49 Y194.524
M204 S5
;TYPE:SKIN
G1 F600 X117.307 Y194.522 E10.46858
G1 X117.041 Y194.513 E10.47965
G1 X116.587 Y194.481 E10.49857
G1 X116.351 Y194.458 E10.50843
G1 X116.024 Y194.417 E10.52213
G1 X115.763 Y194.377 E10.53311
G1 X115.447 Y194.319 E10.54647
G1 X115.16 Y194.257 E10.55867
G1 X115.127 Y194.246 E10.56012
G1 X115.048 Y193.991 E10.57122
G1 X114.956 Y193.54 E10.59036
G1 X114.929 Y193.322 E10.59949
G1 X114.867 Y192.869 E10.6185
G1 X114.798 Y192.028 E10.65358
G1 X114.743 Y190.996 E10.69655
G1 X114.702 Y189.857 E10.74393
G1 X114.675 Y188.679 E10.79292
G1 X114.658 Y187.444 E10.84427
G1 X120.341 Y187.444 E11.08054
G1 X120.337 Y187.9 E11.0995
G1 X120.317 Y189.091 E11.14902
G1 X120.298 Y189.863 E11.18113
G1 X120.258 Y190.996 E11.22826
G1 X120.203 Y192.028 E11.27123
G1 X120.134 Y192.859 E11.3059
G1 X120.043 Y193.547 E11.33475
G1 X119.949 Y194.005 E11.35419
G1 X119.877 Y194.237 E11.36429
G1 X119.482 Y194.332 E11.38118
G1 X119.049 Y194.406 E11.39944
G1 X118.732 Y194.447 E11.41273
G1 X118.358 Y194.487 E11.42837
G1 X118.121 Y194.504 E11.43825
G1 X117.801 Y194.519 E11.45157
G1 X117.49 Y194.524 E11.4645
M204 S25
G0 F3000 X117.486 Y194.853
G0 X115.569 Y194.676
G0 X115.664 Y194.153
M204 S5
G1 F600 X115.188 Y193.677 E11.49248
M204 S25
G0 F3000 X115.065 Y192.847
M204 S5
G1 F600 X116.488 Y194.269 E11.57612
M204 S25
G0 F3000 X117.243 Y194.318
M204 S5
G1 F600 X115.002 Y192.077 E11.70788
M204 S25
G0 F3000 X114.96 Y191.328
M204 S5
G1 F600 X117.943 Y194.31 E11.88324
M204 S25
G0 F3000 X118.598 Y194.258
M204 S5
G1 F600 X114.928 Y190.588 E12.09903
M204 S25
G0 F3000 X114.902 Y189.855
M204 S5
G1 F600 X119.219 Y194.172 E12.35285
M204 S25
G0 F3000 X119.743 Y193.989
M204 S5
G1 F600 X114.885 Y189.131 E12.63848
M204 S25
G0 F3000 X114.87 Y188.41
M204 S5
G1 F600 X119.86 Y193.399 E12.93184
M204 S25
G0 F3000 X119.94 Y192.772
M204 S5
G1 F600 X114.86 Y187.692 E13.23053
M204 S25
G0 F3000 X115.518 Y187.643
M204 S5
G1 F600 X119.995 Y192.12 E13.49376
M204 S25
G0 F3000 X120.033 Y191.451
M204 S5
G1 F600 X116.225 Y187.643 E13.71765
M204 S25
G0 F3000 X116.932 Y187.643
M204 S5
G1 F600 X120.066 Y190.776 E13.90189
M204 S25
G0 F3000 X120.09 Y190.093
M204 S5
G1 F600 X117.639 Y187.643 E14.04597
M204 S25
G0 F3000 X118.347 Y187.643
M204 S5
G1 F600 X120.109 Y189.405 E14.14957
M204 S25
G0 F3000 X120.124 Y188.713
M204 S5
G1 F600 X119.054 Y187.643 E14.21248
M204 S25
G0 F3000 X119.761 Y187.643
M204 S5
G1 F600 X120.136 Y188.018 E14.23453
M204 S25
G0 F3000 X120.664 Y188.027
G0 X120.612 Y187.02
G0 X120.633 Y187.101
M204 S5
;TYPE:SKIN
G1 F600 X120.565 Y187.033 E14.23653
M204 S25
G0 F3000 X120.612 Y187.02
G0 X121.073 Y180.681
G0 X121.403 Y180.681
M204 S5
;TYPE:SKIN
G1 F600 X121.402 Y178.528 E14.32604
G1 X120.567 Y177.693 E14.37514
G1 X114.433 Y177.693 E14.63016
G1 X113.598 Y178.528 E14.67925
G1 X113.598 Y180.697 E14.76943
G1 X113.587 Y180.431 E14.7805
G1 X113.57 Y180.15 E14.7922
G1 X113.563 Y179.845 E14.80489
G1 X113.551 Y179.539 E14.81762
G1 X113.545 Y179.19 E14.83213
G1 X113.536 Y178.888 E14.84469
G1 X113.521 Y177.555 E14.90011
G1 X113.518 Y175.929 E14.96772
G1 X121.483 Y175.929 E15.29886
G1 X121.483 Y176.532 E15.32393
G1 X121.477 Y177.814 E15.37723
G1 X121.463 Y178.898 E15.4223
G1 X121.448 Y179.551 E15.44946
G1 X121.429 Y180.153 E15.4745
G1 X121.403 Y180.681 E15.49648
M204 S25
G0 F3000 X121.073 Y180.681
G0 X121.151 Y181.444
G0 X121.621 Y181.295
G0 X121.813 Y176.437
G0 X121.283 Y176.437
M204 S5
G1 F600 X120.973 Y176.128 E15.51468
M204 S25
G0 F3000 X120.266 Y176.128
M204 S5
G1 F600 X121.28 Y177.142 E15.57429
M204 S25
G0 F3000 X121.277 Y177.845
M204 S5
G1 F600 X119.559 Y176.128 E15.67528
M204 S25
G0 F3000 X118.852 Y176.128
M204 S5
G1 F600 X120.216 Y177.492 E15.75547
M204 S25
G0 F3000 X119.509 Y177.492
M204 S5
G1 F600 X118.145 Y176.128 E15.83567
M204 S25
G0 F3000 X117.438 Y176.128
M204 S5
G1 F600 X118.802 Y177.492 E15.91587
M204 S25
G0 F3000 X118.095 Y177.492
M204 S5
G1 F600 X116.731 Y176.128 E15.99607
M204 S25
G0 F3000 X116.024 Y176.128
M204 S5
G1 F600 X117.388 Y177.492 E16.07627
M204 S25
G0 F3000 X116.681 Y177.492
M204 S5
G1 F600 X115.317 Y176.128 E16.15646
M204 S25
G0 F3000 X114.609 Y176.128
M204 S5
G1 F600 X115.973 Y177.492 E16.23666
M204 S25
G0 F3000 X115.266 Y177.492
M204 S5
G1 F600 X113.902 Y176.128 E16.31686
M204 S25
G0 F3000 X113.718 Y176.65
M204 S5
G1 F600 X114.559 Y177.492 E16.36634
M204 S25
G0 F3000 X114.101 Y177.741
M204 S5
G1 F600 X113.719 Y177.359 E16.3888
M204 S25
G0 F3000 X113.19 Y177.359
G0 X113.377 Y181.303
G0 X113.845 Y181.461
G0 X113.928 Y180.908
G0 X113.733 Y180.908
M204 S5
;TYPE:SKIN
G1 F600 X113.888 Y181.063 E16.39335
M204 S25
G0 F3000 X113.888 Y181.416
M204 S5
G1 F600 X113.387 Y180.916 E16.40807
M204 S25
G0 F3000 X113.341 Y181.223
M204 S5
G1 F600 X113.462 Y181.344 E16.41163
M204 S25
G0 F3000 X113.455 Y181.383
G0 X113.845 Y181.461
G0 X114.302 Y178.819
G0 X114.724 Y178.397
G0 X120.276 Y178.397
G0 X120.655 Y178.776
G0 X121.073 Y181.217
G0 X121.113 Y181.218
M204 S5
G1 F600 X121.319 Y181.423 E16.41767
M204 S25
G0 F3000 X121.581 Y181.331
M204 S5
G1 F600 X121.14 Y180.89 E16.43063
M204 S25
G0 F3000 X121.501 Y180.898
M204 S5
G1 F600 X121.674 Y181.071 E16.43572
M204 S25
G0 F3000 X121.712 Y181.075
G0 X121.048 Y182.223
G0 X121.115 Y182.28
M204 S5
G1 F600 X120.927 Y182.445 E16.44638
G1 X120.877 Y184.163 E16.51964
G1 X120.876 Y185.93 E16.59496
G1 X120.745 Y186.153 E16.60598
M204 S25
G0 F3000 X120.865 Y186.272
G0 X120.276 Y186.74
G0 X114.724 Y186.74
G0 X114.383 Y186.399
G0 X114.238 Y186.144
G0 X114.123 Y185.894
M204 S5
G1 F600 X114.008 Y186.133 E16.61718
G1 X114.122 Y184.832 E16.67232
G1 X114.11 Y182.699 E16.76238
G1 X114.258 Y182.494 E16.77305
M204 S25
G0 F3000 X114.238 Y182.608
G0 X114.302 Y186.318
G0 X114.724 Y186.74
G0 X120.589 Y187.076
G0 X120.555 Y189.305
G0 X120.392 Y194.652
G0 X120.42 Y194.666
M204 S5
G1 F600 X120.496 Y194.742 E16.77529
M204 S25
G0 F3000 X120.136 Y194.923
G1 F2700 E8.77529
G0 F3000 X120.11 Y194.848
G0 X120.402 Y192.576
G0 X121.055 Y183.219
G0 X122.26 Y183.23
G0 X118.944 Y124.417
G0 X119.509 Y124.351
G0 X119.509 Y118.386
G0 X118.6 Y118.318
G0 X115.491 Y63.151
G0 X114.636 Y64.794
G0 X114.636 Y64.554
M204 S5
;TYPE:WALL-INNER
G1 F2700 E16.77529
G1 F600 X120.364 Y64.554 E17.01343
G1 X120.912 Y64.006 E17.04565
G1 X120.912 Y56.331 E17.36474
G1 X120.364 Y55.783 E17.39696
G1 X114.636 Y55.783 E17.6351
G1 X114.088 Y56.331 E17.66732
G1 X114.088 Y64.006 E17.98641
G1 X114.636 Y64.554 E18.01863
M204 S25
G0 F3000 X114.843 Y64.054
M204 S5
;TYPE:WALL-OUTER
G1 F600 X120.157 Y64.054 E18.23956
G1 X120.412 Y63.799 E18.25456
G1 X120.412 Y56.538 E18.55644
G1 X120.157 Y56.283 E18.57143
G1 X114.843 Y56.283 E18.79236
G1 X114.588 Y56.538 E18.80735
G1 X114.588 Y63.799 E19.10923
G1 X114.843 Y64.054 E19.12422
M204 S25
G0 F3000 X114.633 Y64.562
G1 F2700 E11.12422
G0 F3000 X115.491 Y63.151
G0 X115.491 Y118.386
G0 X114.636 Y116.723
G0 X114.636 Y117.296
G0 X114.302 Y117.619
G0 X114.302 Y125.118
G0 X114.636 Y125.754
M204 S5
;TYPE:WALL-INNER
G1 F2700 E19.12422
G1 F600 X120.364 Y125.754 E19.36236
G1 X120.912 Y125.206 E19.39458
G1 X120.912 Y117.531 E19.71367
G1 X120.364 Y116.983 E19.74589
G1 X114.636 Y116.983 E19.98404
G1 X114.088 Y117.531 E20.01626
G1 X114.088 Y118.141 E20.04162
G1 X114.088 Y119.389 E20.0935
G1 X114.088 Y122.323 E20.21549
G1 X114.088 Y125.206 E20.33535
G1 X114.636 Y125.754 E20.36757
M204 S25
G0 F3000 X114.843 Y125.254
M204 S5
;TYPE:WALL-OUTER
G1 F600 X120.157 Y125.254 E20.5885
G1 X120.412 Y124.999 E20.60349
G1 X120.412 Y117.738 E20.90537
G1 X120.157 Y117.483 E20.92036
G1 X114.843 Y117.483 E21.14129
G1 X114.588 Y117.738 E21.15628
G1 X114.588 Y124.999 E21.45816
G1 X114.843 Y125.254 E21.47315
M204 S25
G0 F3000 X114.633 Y125.762
G1 F2700 E13.47315
G0 F3000 X120.457 Y125.978
G0 X121.13 Y125.335
G0 X121.494 Y170.842
G0 X122.252 Y173.839
M204 S5
;TYPE:WALL-INNER
G1 F2700 E21.47315
G1 F600 X112.749 Y173.838 E21.86824
G1 X112.748 Y172.828 E21.91023
G1 X113.703 Y170.919 E21.99898
G1 X113.747 Y170.725 E22.00725
G1 X113.729 Y165.408 E22.22831
G1 X113.667 Y141.512 E23.22179
G1 X113.664 Y140.917 E23.24653
