;FLAVOR:Marlin
;TIME:2535
;Filament used: 2.43008m
;Layer height: 0.2
;MINX:99.69
;MINY:79.893
;MINZ:0.2
;MAXX:135.025
;MAXY:153.452
;MAXZ:9.9
;Generated with Cura_SteamEngine 4.12.1
M140 S60
M105
M190 S60
M104 S200
M105
M109 S200
M82 ;absolute extrusion mode
; Ender 3 Custom Start G-code
G92 E0 ; Reset Extruder
G28 ; Home all axes
G1 Z2.0 F3000 ; Move Z Axis up little to prevent scratching of Heat Bed
G1 X0.1 Y20 Z0.3 F5000.0 ; Move to start position
G1 X0.1 Y200.0 Z0.3 F1500.0 E15 ; Draw the first line
G1 X0.4 Y200.0 Z0.3 F5000.0 ; Move to side a little
G1 X0.4 Y20 Z0.3 F1500.0 E30 ; Draw the second line
G92 E0 ; Reset Extruder
G1 Z2.0 F3000 ; Move Z Axis up little to prevent scratching of Heat Bed
G1 X5 Y20 Z0.3 F5000.0 ; Move over to prevent blob squish
G92 E0
G92 E0
G1 F2700 E-8
;LAYER_COUNT:37
;LAYER:0
M107
M204 S25
G0 F3000 X105.684 Y87.82 Z0.2
M204 S500
;TYPE:SKIRT
G1 F2700 E0
G1 F600 X105.82 Y87.702 E0.00749
G1 X105.836 Y87.795 E0.01141
G1 X105.684 Y87.82 E0.01781
M204 S25
G0 F3000 X105.7 Y88.307
M204 S500
G1 F600 X105.492 Y88.354 E0.02668
G1 X104.213 Y88.762 E0.08249
G1 X103.927 Y88.895 E0.09561
G1 X103.683 Y89.096 E0.10875
G1 X103.498 Y89.351 E0.12185
G1 X103.382 Y89.644 E0.13495
G1 X103.344 Y89.998 E0.14975
G1 X103.39 Y91.277 E0.20296
G1 X103.291 Y92.384 E0.24917
G1 X103.329 Y92.82 E0.26736
G1 X103.465 Y93.325 E0.28911
G1 X103.427 Y93.424 E0.29352
G1 X103.225 Y93.408 E0.30194
G1 X103.147 Y93.357 E0.30581
G1 X103.054 Y92.887 E0.32573
G1 X102.914 Y91.64 E0.3779
G1 X102.974 Y90.779 E0.41379
G1 X103.13 Y89.7 E0.45911
G1 X103.272 Y88.576 E0.50621
G1 X103.257 Y88.171 E0.52306
G1 X103.053 Y87.166 E0.5657
G1 X103.106 Y86.552 E0.59132
G1 X103.272 Y86.709 E0.60082
G1 X103.447 Y87.055 E0.61694
G1 X103.624 Y87.316 E0.63005
G1 X103.861 Y87.525 E0.64319
G1 X104.142 Y87.667 E0.65628
G1 X104.45 Y87.735 E0.66939
G1 X104.766 Y87.723 E0.68254
G1 X105.068 Y87.633 E0.69564
G1 X105.338 Y87.47 E0.70875
G1 X105.559 Y87.244 E0.7219
G1 X105.76 Y86.845 E0.74047
G1 X106.032 Y85.927 E0.78028
G1 X106.432 Y84.717 E0.83326
G1 X107.101 Y84.074 E0.87184
G1 X108.086 Y83.622 E0.91689
G1 X109.493 Y83.41 E0.97605
G1 X110.757 Y83.382 E1.02862
G1 X111.508 Y83.848 E1.06536
G1 X111.999 Y84.607 E1.10294
G1 X112.066 Y84.701 E1.10774
G1 X112.657 Y85.452 E1.14747
G1 X112.958 Y86.43 E1.19002
G1 X113.088 Y86.718 E1.20315
G1 X113.282 Y86.96 E1.21605
G1 X113.982 Y87.64 E1.25662
G1 X114.273 Y87.85 E1.27154
G1 X115.158 Y88.314 E1.31309
G1 X115.364 Y88.4 E1.32237
G1 X116.419 Y88.731 E1.36834
G1 X116.729 Y88.786 E1.38143
G1 X117.044 Y88.763 E1.39456
G1 X117.455 Y88.598 E1.41297
G1 X118.336 Y88.048 E1.45615
G1 X118.378 Y88.818 E1.48821
G1 X118.434 Y89.129 E1.50135
G1 X118.567 Y89.415 E1.51446
G1 X118.767 Y89.659 E1.52758
G1 X119.022 Y89.845 E1.5407
G1 X119.207 Y89.929 E1.54915
G1 X120.12 Y90.254 E1.58944
G1 X120.526 Y90.326 E1.60658
G1 X121.531 Y90.336 E1.64837
G1 X122.552 Y90.332 E1.69082
G1 X123.651 Y90.369 E1.73653
G1 X123.729 Y90.369 E1.73978
G1 X124.146 Y90.357 E1.75712
G1 X124.458 Y90.309 E1.77024
G1 X124.747 Y90.183 E1.78335
G1 X124.996 Y89.989 E1.79647
G1 X125.189 Y89.739 E1.80961
G1 X125.313 Y89.449 E1.82272
G1 X125.36 Y89.137 E1.83584
G1 X125.327 Y88.823 E1.84896
G1 X125.221 Y88.536 E1.86168
G1 X124.78 Y87.68 E1.90172
G1 X124.608 Y86.818 E1.93826
G1 X124.507 Y86.519 E1.95138
G1 X124.335 Y86.254 E1.96452
G1 X124.102 Y86.041 E1.97764
G1 X123.823 Y85.894 E1.99075
G1 X123.635 Y85.839 E1.9989
G1 X122.503 Y85.605 E2.04695
G1 X122.402 Y85.588 E2.05121
G1 X121.546 Y85.483 E2.08707
G1 X121.229 Y85.485 E2.10025
G1 X120.234 Y85.617 E2.14198
G1 X118.917 Y85.604 E2.19673
G1 X118.704 Y85.544 E2.20593
G1 X117.841 Y85.311 E2.2431
G1 X117.297 Y85.024 E2.26867
G1 X116.984 Y84.501 E2.29401
G1 X116.737 Y84.003 E2.31712
G1 X116.946 Y83.37 E2.34483
G1 X117.457 Y82.888 E2.37404
G1 X117.784 Y82.639 E2.39113
G1 X117.869 Y82.665 E2.39482
G1 X117.723 Y82.972 E2.40896
G1 X117.655 Y83.038 E2.4129
G1 X117.458 Y83.284 E2.426
G1 X117.33 Y83.573 E2.43914
G1 X117.278 Y83.884 E2.45225
G1 X117.306 Y84.198 E2.46536
G1 X117.411 Y84.496 E2.47849
G1 X117.587 Y84.758 E2.49161
G1 X117.824 Y84.967 E2.50475
G1 X118.105 Y85.11 E2.51786
G1 X118.404 Y85.177 E2.5306
G1 X119.859 Y85.321 E2.59139
G1 X120.059 Y85.325 E2.5997
G1 X121.083 Y85.262 E2.64236
G1 X121.956 Y85.225 E2.67868
G1 X123.75 Y85.529 E2.75433
G1 X124.065 Y85.541 E2.76744
G1 X124.374 Y85.474 E2.78058
G1 X124.656 Y85.332 E2.79371
G1 X124.796 Y85.223 E2.80109
G1 X125.328 Y84.741 E2.83093
G1 X125.348 Y84.854 E2.8357
G1 X124.917 Y85.677 E2.87433
G1 X124.807 Y85.973 E2.88746
G1 X124.774 Y86.287 E2.90058
G1 X124.847 Y86.677 E2.91708
G1 X125.213 Y87.702 E2.96233
G1 X125.356 Y87.984 E2.97547
G1 X125.564 Y88.22 E2.98855
G1 X125.826 Y88.397 E3.0017
G1 X126.123 Y88.503 E3.01481
G1 X126.437 Y88.531 E3.02792
G1 X126.719 Y88.488 E3.03978
G1 X127.678 Y88.226 E3.08111
G1 X128.865 Y87.883 E3.13248
G1 X129.784 Y87.956 E3.1708
G1 X130.099 Y87.941 E3.18392
G1 X130.401 Y87.848 E3.19705
G1 X130.669 Y87.682 E3.21016
G1 X130.888 Y87.454 E3.2233
G1 X131.082 Y87.062 E3.24149
G1 X131.378 Y86.054 E3.28516
G1 X131.428 Y85.743 E3.29826
G1 X131.399 Y85.428 E3.31141
G1 X131.291 Y85.132 E3.32451
G1 X131.113 Y84.871 E3.33765
G1 X130.865 Y84.657 E3.35126
G1 X129.88 Y84.01 E3.40026
G1 X129.918 Y83.892 E3.40541
G1 X130.431 Y84.022 E3.42742
G1 X131.254 Y84.584 E3.46885
G1 X131.745 Y85.453 E3.51035
G1 X131.677 Y86.302 E3.54576
G1 X131.505 Y87.083 E3.57901
G1 X131.183 Y87.782 E3.611
G1 X130.728 Y88.316 E3.64017
G1 X129.985 Y88.424 E3.67138
G1 X129.963 Y88.416 E3.67236
G1 X129.657 Y88.34 E3.68547
G1 X129.341 Y88.343 E3.6986
G1 X129.036 Y88.425 E3.71173
G1 X128.762 Y88.58 E3.72482
G1 X128.535 Y88.8 E3.73797
G1 X128.371 Y89.069 E3.75106
G1 X128.279 Y89.371 E3.76419
G1 X128.265 Y89.686 E3.7773
G1 X128.332 Y89.995 E3.79044
G1 X128.473 Y90.277 E3.80355
G1 X128.627 Y90.464 E3.81362
G1 X129.356 Y91.194 E3.85651
G1 X130.046 Y92.16 E3.90587
G1 X130.371 Y92.842 E3.93728
G1 X130.438 Y93.523 E3.96573
G1 X130.375 Y93.86 E3.97998
G1 X130.194 Y93.824 E3.98765
G1 X130.108 Y93.213 E4.01331
G1 X130.025 Y92.908 E4.02645
G1 X129.943 Y92.745 E4.03403
G1 X129.305 Y91.676 E4.08579
G1 X129.104 Y91.421 E4.09929
G1 X128.476 Y90.81 E4.13572
G1 X128.224 Y90.62 E4.14884
G1 X128.023 Y90.528 E4.15803
G1 X127.193 Y90.233 E4.19465
G1 X126.884 Y90.166 E4.2078
G1 X126.569 Y90.178 E4.2209
G1 X126.267 Y90.269 E4.23402
G1 X126.038 Y90.4 E4.24498
G1 X125.562 Y90.747 E4.26948
G1 X124.97 Y90.851 E4.29446
G1 X124.075 Y90.721 E4.33206
G1 X123.889 Y90.708 E4.33982
G1 X122.095 Y90.716 E4.4144
G1 X121.223 Y90.763 E4.45071
G1 X120.253 Y90.565 E4.49187
G1 X119.298 Y90.22 E4.53408
G1 X119.22 Y90.195 E4.53749
G1 X118.022 Y89.849 E4.58933
G1 X116.677 Y89.177 E4.65184
G1 X116.506 Y89.106 E4.65954
G1 X115.478 Y88.771 E4.70449
G1 X114.61 Y88.356 E4.74449
G1 X113.389 Y87.505 E4.80637
G1 X112.947 Y86.898 E4.83759
G1 X112.479 Y86.004 E4.87954
G1 X112.049 Y84.989 E4.92537
G1 X111.89 Y84.717 E4.93847
G1 X111.612 Y84.451 E4.95446
G1 X110.825 Y83.903 E4.99433
G1 X110.546 Y83.757 E5.00743
G1 X110.238 Y83.685 E5.02058
G1 X109.865 Y83.703 E5.0361
G1 X108.798 Y83.917 E5.08135
G1 X108.728 Y83.933 E5.08433
G1 X107.624 Y84.221 E5.13177
G1 X107.332 Y84.339 E5.14486
G1 X107.078 Y84.526 E5.15797
G1 X106.878 Y84.771 E5.17112
G1 X106.789 Y84.942 E5.17914
G1 X106.225 Y86.27 E5.23912
G1 X106.14 Y86.574 E5.25224
G1 X106.133 Y86.89 E5.26539
G1 X106.17 Y87.089 E5.2738
G1 X106.337 Y87.7 E5.30013
G1 X106.458 Y87.991 E5.31324
G1 X106.648 Y88.243 E5.32636
G1 X106.785 Y88.364 E5.33396
G1 X108.04 Y89.321 E5.39957
G1 X108.875 Y90.076 E5.44638
G1 X109.594 Y90.759 E5.48761
G1 X109.841 Y90.942 E5.50039
G1 X111.016 Y91.605 E5.55648
G1 X111.08 Y91.736 E5.56254
G1 X110.739 Y91.692 E5.57683
G1 X110.026 Y91.389 E5.60904
G1 X109.281 Y91.017 E5.64366
G1 X108.67 Y90.273 E5.68369
G1 X108.561 Y90.156 E5.69034
G1 X107.63 Y89.28 E5.74348
G1 X107.501 Y89.174 E5.75042
G1 X106.6 Y88.529 E5.79649
G1 X106.322 Y88.379 E5.80963
G1 X106.015 Y88.303 E5.82277
G1 X105.7 Y88.307 E5.83587
M204 S25
G0 F3000 X105.848 Y88.795
M204 S500
G1 F600 X105.644 Y88.83 E5.84448
G1 X104.365 Y89.238 E5.90029
G1 X104.148 Y89.35 E5.91044
G1 X103.977 Y89.525 E5.92062
G1 X103.872 Y89.745 E5.93075
G1 X103.843 Y89.98 E5.9406
G1 X103.89 Y91.295 E5.9953
G1 X103.789 Y92.428 E6.04259
G1 X103.812 Y92.69 E6.05353
G1 X103.987 Y93.339 E6.08147
G1 X103.86 Y93.728 E6.09849
G1 X103.573 Y93.937 E6.11325
G1 X103.056 Y93.895 E6.13481
G1 X102.698 Y93.659 E6.15264
G1 X102.559 Y92.957 E6.18239
G1 X102.412 Y91.65 E6.23707
G1 X102.476 Y90.726 E6.27558
G1 X102.634 Y89.637 E6.32133
G1 X102.776 Y88.513 E6.36843
G1 X102.767 Y88.27 E6.37854
G1 X102.549 Y87.196 E6.4241
G1 X102.64 Y86.131 E6.46854
G1 X102.874 Y85.961 E6.48057
G1 X103.209 Y85.961 E6.4945
G1 X103.679 Y86.406 E6.52141
G1 X103.893 Y86.829 E6.54111
G1 X104.037 Y87.026 E6.55126
G1 X104.237 Y87.166 E6.56141
G1 X104.471 Y87.235 E6.57155
G1 X104.715 Y87.224 E6.58171
G1 X104.943 Y87.136 E6.59187
G1 X105.13 Y86.979 E6.60202
G1 X105.281 Y86.703 E6.6151
G1 X105.557 Y85.77 E6.65555
G1 X105.995 Y84.444 E6.71361
G1 X106.818 Y83.653 E6.76107
G1 X107.938 Y83.139 E6.8123
G1 X109.454 Y82.911 E6.87604
G1 X110.894 Y82.879 E6.93592
G1 X111.864 Y83.48 E6.98336
G1 X112.418 Y84.336 E7.02575
G1 X112.459 Y84.392 E7.02864
G1 X113.108 Y85.217 E7.07228
G1 X113.436 Y86.283 E7.11865
G1 X113.63 Y86.601 E7.13413
G1 X114.33 Y87.281 E7.17471
G1 X114.505 Y87.407 E7.18367
G1 X115.39 Y87.871 E7.22522
G1 X115.513 Y87.923 E7.23077
G1 X116.568 Y88.254 E7.27674
G1 X116.81 Y88.288 E7.2869
G1 X117.05 Y88.243 E7.29705
G1 X117.19 Y88.174 E7.30354
G1 X118.224 Y87.528 E7.35423
G1 X118.479 Y87.494 E7.36493
G1 X118.501 Y87.487 E7.36589
G1 X118.819 Y87.719 E7.38225
G1 X118.877 Y88.791 E7.42688
G1 X118.93 Y89.03 E7.43706
G1 X119.056 Y89.239 E7.44721
G1 X119.374 Y89.458 E7.46326
G1 X120.287 Y89.783 E7.50355
G1 X120.531 Y89.826 E7.51385
G1 X121.529 Y89.836 E7.55535
G1 X122.54 Y89.832 E7.59738
G1 X123.668 Y89.87 E7.6443
G1 X124.132 Y89.858 E7.6636
G1 X124.371 Y89.811 E7.67373
G1 X124.583 Y89.69 E7.68388
G1 X124.745 Y89.507 E7.69404
G1 X124.84 Y89.282 E7.70419
G1 X124.857 Y89.039 E7.71432
G1 X124.777 Y88.765 E7.72619
G1 X124.302 Y87.843 E7.76931
G1 X124.117 Y86.916 E7.80861
G1 X124.031 Y86.688 E7.81874
G1 X123.876 Y86.499 E7.8289
G1 X123.534 Y86.329 E7.84478
G1 X122.402 Y86.095 E7.89284
G1 X122.341 Y86.085 E7.89541
G1 X121.485 Y85.98 E7.93126
G1 X121.295 Y85.981 E7.93916
G1 X120.267 Y86.118 E7.98228
G1 X118.912 Y86.104 E8.03861
G1 X118.762 Y86.127 E8.04492
G1 X118.574 Y86.027 E8.05378
G1 X117.657 Y85.779 E8.09327
G1 X116.94 Y85.401 E8.12697
G1 X116.546 Y84.742 E8.15889
G1 X116.197 Y84.04 E8.19148
G1 X116.511 Y83.094 E8.23292
G1 X117.129 Y82.509 E8.2683
G1 X117.617 Y82.139 E8.29376
G1 X117.997 Y82.139 E8.30956
G1 X118.311 Y82.368 E8.32572
G1 X118.414 Y82.684 E8.33954
G1 X118.137 Y83.267 E8.36637
G1 X117.859 Y83.592 E8.38415
G1 X117.785 Y83.825 E8.39432
G1 X117.789 Y84.069 E8.40446
G1 X117.872 Y84.299 E8.41463
G1 X118.024 Y84.49 E8.42478
G1 X118.23 Y84.622 E8.43495
G1 X118.453 Y84.679 E8.44452
G1 X119.908 Y84.823 E8.50531
G1 X120.028 Y84.826 E8.5103
G1 X121.052 Y84.762 E8.55295
G1 X121.986 Y84.723 E8.59182
G1 X123.833 Y85.036 E8.6697
G1 X124.077 Y85.036 E8.67985
G1 X124.308 Y84.959 E8.68997
G1 X124.46 Y84.852 E8.6977
G1 X125.166 Y84.213 E8.73729
G1 X125.51 Y84.213 E8.75159
G1 X125.777 Y84.407 E8.76531
G1 X125.871 Y84.933 E8.78753
G1 X125.36 Y85.909 E8.83333
G1 X125.283 Y86.141 E8.84349
G1 X125.318 Y86.509 E8.85886
G1 X125.684 Y87.534 E8.90411
G1 X125.802 Y87.748 E8.91427
G1 X125.983 Y87.912 E8.92443
G1 X126.207 Y88.009 E8.93457
G1 X126.588 Y88.006 E8.95041
G1 X127.539 Y87.746 E8.9914
G1 X128.813 Y87.378 E9.04654
G1 X129.824 Y87.458 E9.0887
G1 X130.067 Y87.437 E9.09884
G1 X130.291 Y87.339 E9.109
G1 X130.471 Y87.175 E9.11913
G1 X130.603 Y86.921 E9.13103
G1 X130.899 Y85.913 E9.17471
G1 X130.928 Y85.671 E9.18484
G1 X130.879 Y85.432 E9.19498
G1 X130.755 Y85.222 E9.20512
G1 X130.591 Y85.075 E9.21428
G1 X129.458 Y84.331 E9.27063
G1 X129.349 Y83.995 E9.28532
G1 X129.525 Y83.509 E9.30681
G1 X129.763 Y83.337 E9.31902
G1 X130.64 Y83.56 E9.35664
G1 X131.633 Y84.237 E9.4066
G1 X132.256 Y85.34 E9.45927
G1 X132.172 Y86.384 E9.50281
G1 X131.982 Y87.244 E9.53943
G1 X131.61 Y88.053 E9.57645
G1 X130.986 Y88.784 E9.61641
G1 X129.927 Y88.938 E9.6609
G1 X129.543 Y88.832 E9.67746
G1 X129.301 Y88.861 E9.6876
G1 X129.081 Y88.967 E9.69775
G1 X128.906 Y89.137 E9.70789
G1 X128.796 Y89.355 E9.71804
G1 X128.761 Y89.597 E9.72821
G1 X128.806 Y89.837 E9.73836
G1 X128.98 Y90.111 E9.75186
G1 X129.74 Y90.872 E9.79657
G1 X130.48 Y91.909 E9.84954
G1 X130.86 Y92.706 E9.88625
G1 X130.943 Y93.546 E9.92134
G1 X130.82 Y94.205 E9.94921
G1 X130.579 Y94.38 E9.96159
G1 X130.057 Y94.335 E9.98337
G1 X129.73 Y94.114 E9.99978
G1 X129.613 Y93.282 E10.03471
G1 X129.514 Y93.002 E10.04706
G1 X128.876 Y91.933 E10.09882
G1 X128.755 Y91.779 E10.10696
G1 X128.127 Y91.168 E10.14339
G1 X127.855 Y90.999 E10.1567
G1 X127.025 Y90.704 E10.19332
G1 X126.785 Y90.661 E10.20346
G1 X126.543 Y90.697 E10.21363
G1 X126.333 Y90.805 E10.22345
G1 X125.766 Y91.218 E10.25262
G1 X124.976 Y91.357 E10.28596
G1 X124.003 Y91.216 E10.32684
G1 X123.892 Y91.208 E10.33147
G1 X122.059 Y91.217 E10.40767
G1 X121.185 Y91.266 E10.44407
G1 X120.113 Y91.047 E10.48956
G1 X119.128 Y90.691 E10.5331
G1 X117.846 Y90.319 E10.5886
G1 X116.454 Y89.624 E10.65328
G1 X116.351 Y89.582 E10.65791
G1 X115.298 Y89.239 E10.70395
G1 X114.352 Y88.786 E10.74756
G1 X113.034 Y87.868 E10.81434
G1 X112.522 Y87.165 E10.85049
G1 X112.029 Y86.223 E10.8947
G1 X111.589 Y85.184 E10.94161
G1 X111.458 Y84.978 E10.95176
G1 X111.327 Y84.862 E10.95903
G1 X110.54 Y84.314 E10.9989
G1 X110.319 Y84.208 E11.00909
G1 X109.964 Y84.194 E11.02386
G1 X108.855 Y84.417 E11.07089
G1 X107.751 Y84.705 E11.11833
G1 X107.528 Y84.805 E11.12849
G1 X107.348 Y84.97 E11.13864
G1 X107.25 Y85.138 E11.14673
G1 X106.686 Y86.466 E11.20671
G1 X106.628 Y86.703 E11.21685
G1 X106.653 Y86.957 E11.22747
G1 X106.82 Y87.568 E11.2538
G1 X106.921 Y87.79 E11.26394
G1 X107.088 Y87.966 E11.27403
G1 X108.357 Y88.934 E11.34038
G1 X109.219 Y89.714 E11.38872
G1 X109.938 Y90.397 E11.42994
G1 X110.086 Y90.506 E11.43759
G1 X111.396 Y91.246 E11.50014
G1 X111.645 Y91.755 E11.5237
G1 X111.543 Y92.068 E11.53738
G1 X111.273 Y92.265 E11.55128
G1 X110.604 Y92.179 E11.57932
G1 X109.837 Y91.853 E11.61397
G1 X108.963 Y91.417 E11.65458
G1 X108.284 Y90.59 E11.69906
G1 X108.218 Y90.52 E11.70306
G1 X107.287 Y89.644 E11.75621
G1 X107.21 Y89.58 E11.76037
G1 X106.309 Y88.935 E11.80644
G1 X106.09 Y88.827 E11.81659
G1 X105.848 Y88.795 E11.82674
M204 S25
G0 F3000 X105.885 Y89.295
M204 S500
G1 F600 X105.796 Y89.307 E11.83048
G1 X104.517 Y89.715 E11.88629
G1 X104.401 Y89.793 E11.8921
G1 X104.343 Y89.962 E11.89953
G1 X104.391 Y91.306 E11.95544
G1 X104.287 Y92.473 E12.00415
G1 X104.295 Y92.56 E12.00779
G1 X104.508 Y93.351 E12.04184
G1 X104.285 Y94.037 E12.07183
G1 X103.717 Y94.451 E12.10106
G1 X102.889 Y94.384 E12.13559
G1 X102.248 Y93.96 E12.16755
G1 X102.064 Y93.037 E12.20667
G1 X101.91 Y91.661 E12.26424
G1 X101.978 Y90.675 E12.30533
G1 X102.138 Y89.574 E12.35158
G1 X102.28 Y88.45 E12.39869
G1 X102.277 Y88.369 E12.40206
G1 X102.045 Y87.225 E12.45059
G1 X102.161 Y85.862 E12.50746
G1 X102.712 Y85.461 E12.53579
G1 X103.407 Y85.461 E12.56468
G1 X104.086 Y86.104 E12.60356
G1 X104.339 Y86.603 E12.62682
G1 X104.435 Y86.705 E12.63265
G1 X104.57 Y86.74 E12.63845
G1 X104.703 Y86.696 E12.64427
G1 X104.802 Y86.561 E12.65123
G1 X105.084 Y85.606 E12.69263
G1 X105.559 Y84.168 E12.75559
G1 X106.53 Y83.235 E12.81158
G1 X107.796 Y82.654 E12.86949
G1 X109.408 Y82.412 E12.93726
G1 X111.031 Y82.376 E13.00475
G1 X112.224 Y83.115 E13.0631
G1 X112.852 Y84.083 E13.11107
G1 X113.559 Y84.981 E13.15859
G1 X113.914 Y86.136 E13.20882
G1 X113.979 Y86.242 E13.21399
G1 X114.679 Y86.922 E13.25456
G1 X114.737 Y86.964 E13.25754
G1 X115.622 Y87.428 E13.29909
G1 X115.663 Y87.446 E13.30095
G1 X116.718 Y87.777 E13.34692
G1 X116.925 Y87.75 E13.3556
G1 X118.049 Y87.048 E13.41069
G1 X118.412 Y86.999 E13.42592
