;FLAVOR:Marlin
;TIME:381
;Filament used: 0.268083m
;Layer height: 0.2
;MINX:113.277
;MINY:105.765
;MINZ:0.2
;MAXX:122.627
;MAXY:129.235
;MAXZ:4.95
;Generated with Cura_SteamEngine 4.12.1
M140 S60
M105
M190 S60
M104 S200
M105
M109 S200
M82 ;absolute extrusion mode
; Ender 3 Custom Start G-code
G92 E0 ; Reset Extruder
G28 ; Home all axes
G1 Z2.0 F3000 ; Move Z Axis up little to prevent scratching of Heat Bed
G1 X0.1 Y20 Z0.3 F5000.0 ; Move to start position
G1 X0.1 Y200.0 Z0.3 F1500.0 E15 ; Draw the first line
G1 X0.4 Y200.0 Z0.3 F5000.0 ; Move to side a little
G1 X0.4 Y20 Z0.3 F1500.0 E30 ; Draw the second line
G92 E0 ; Reset Extruder
G1 Z2.0 F3000 ; Move Z Axis up little to prevent scratching of Heat Bed
G1 X5 Y20 Z0.3 F5000.0 ; Move over to prevent blob squish
G92 E0
G92 E0
G1 F2700 E-8
;LAYER_COUNT:18
;LAYER:0
M107
M204 S25
;MESH:Handle_inserts.stl(1)
G0 F3000 X118.9 Y111.685 Z0.2
M204 S5
;TYPE:WALL-INNER
G1 F2700 E0
G1 F600 X116.1 Y111.685 E0.11641
G1 X116.099 Y106.315 E0.33967
G1 X118.9 Y106.315 E0.45612
G1 X118.9 Y111.685 E0.67938
M204 S25
G0 F3000 X119.4 Y112.185
M204 S5
;TYPE:WALL-OUTER
G1 F600 X115.6 Y112.185 E0.83737
G1 X115.599 Y105.815 E1.1022
G1 X119.4 Y105.815 E1.26023
G1 X119.4 Y112.185 E1.52506
M204 S25
G0 F3000 X119.08 Y111.865
G0 X118.74 Y111.195
G0 X118.41 Y111.195
M204 S5
;TYPE:SKIN
G1 F600 X116.59 Y111.195 E1.60073
G1 X116.589 Y106.805 E1.78324
G1 X118.41 Y106.805 E1.85895
G1 X118.41 Y111.195 E2.04147
M204 S25
G0 F3000 X118.74 Y111.195
G0 X117.359 Y111.525
G0 X117.359 Y110.995
M204 S5
G1 F600 X116.788 Y110.424 E2.07504
M204 S25
G0 F3000 X116.788 Y109.717
M204 S5
G1 F600 X118.066 Y110.995 E2.15018
M204 S25
G0 F3000 X118.209 Y110.431
M204 S5
G1 F600 X116.788 Y109.01 E2.23373
M204 S25
G0 F3000 X116.788 Y108.303
M204 S5
G1 F600 X118.209 Y109.724 E2.31728
M204 S25
G0 F3000 X118.209 Y109.017
M204 S5
G1 F600 X116.788 Y107.596 E2.40083
M204 S25
G0 F3000 X116.904 Y107.005
M204 S5
G1 F600 X118.209 Y108.31 E2.47756
M204 S25
G0 F3000 X118.209 Y107.603
M204 S5
G1 F600 X117.611 Y107.005 E2.51272
M204 S25
G0 F3000 X117.611 Y106.565
G1 F2700 E-5.48728
;MESH:Handle_inserts.stl
G0 F3000 X117.611 Y106.475
G0 X118.668 Y106.547
G0 X118.9 Y111.915
G0 X118.9 Y114.585
G0 X118.9 Y120.185
M204 S5
;TYPE:WALL-INNER
G1 F2700 E2.51272
G1 F600 X116.1 Y120.185 E2.62913
G1 X116.099 Y114.815 E2.85239
G1 X118.9 Y114.815 E2.96884
G1 X118.9 Y120.185 E3.1921
M204 S25
G0 F3000 X119.4 Y120.685
M204 S5
;TYPE:WALL-OUTER
G1 F600 X115.6 Y120.685 E3.35008
G1 X115.599 Y114.315 E3.61492
G1 X119.4 Y114.315 E3.77294
G1 X119.4 Y120.685 E4.03778
M204 S25
G0 F3000 X119.08 Y120.365
G0 X118.74 Y119.695
G0 X118.41 Y119.695
M204 S5
;TYPE:SKIN
G1 F600 X116.59 Y119.695 E4.11344
G1 X116.589 Y115.305 E4.29596
G1 X118.41 Y115.305 E4.37167
G1 X118.41 Y119.695 E4.55418
M204 S25
G0 F3000 X118.74 Y119.695
G0 X117.372 Y120.025
G0 X117.372 Y119.493
M204 S5
G1 F600 X116.789 Y118.91 E4.58846
M204 S25
G0 F3000 X116.789 Y118.203
M204 S5
G1 F600 X118.079 Y119.493 E4.66431
M204 S25
G0 F3000 X118.209 Y118.916
M204 S5
G1 F600 X116.788 Y117.495 E4.74786
M204 S25
G0 F3000 X116.787 Y116.787
M204 S5
G1 F600 X118.209 Y118.209 E4.83147
M204 S25
G0 F3000 X118.209 Y117.502
M204 S5
G1 F600 X116.787 Y116.08 E4.91507
M204 S25
G0 F3000 X116.919 Y115.505
M204 S5
G1 F600 X118.209 Y116.795 E4.99092
M204 S25
G0 F3000 X118.209 Y116.088
M204 S5
G1 F600 X117.626 Y115.505 E5.0252
M204 S25
G0 F3000 X117.626 Y115.065
G1 F2700 E-2.9748
;MESH:Handle_inserts.stl(2)
G0 F3000 X117.626 Y114.975
G0 X118.668 Y115.047
G0 X118.9 Y120.415
G0 X118.9 Y123.085
G0 X118.9 Y128.685
M204 S5
;TYPE:WALL-INNER
G1 F2700 E5.0252
G1 F600 X116.1 Y128.685 E5.14161
G1 X116.099 Y123.315 E5.36487
G1 X118.9 Y123.315 E5.48132
G1 X118.9 Y128.685 E5.70458
M204 S25
G0 F3000 X119.4 Y129.185
M204 S5
;TYPE:WALL-OUTER
G1 F600 X115.6 Y129.185 E5.86256
G1 X115.599 Y122.815 E6.1274
G1 X119.4 Y122.815 E6.28542
G1 X119.4 Y129.185 E6.55026
M204 S25
G0 F3000 X119.08 Y128.865
G0 X118.74 Y128.195
G0 X118.41 Y128.195
M204 S5
;TYPE:SKIN
G1 F600 X116.59 Y128.195 E6.62593
G1 X116.589 Y123.805 E6.80844
G1 X118.41 Y123.805 E6.88415
G1 X118.41 Y128.195 E7.06666
M204 S25
G0 F3000 X118.74 Y128.195
G0 X117.388 Y128.525
G0 X117.388 Y127.994
M204 S5
G1 F600 X116.789 Y127.395 E7.10188
M204 S25
G0 F3000 X116.789 Y126.688
M204 S5
G1 F600 X118.095 Y127.994 E7.17867
M204 S25
G0 F3000 X118.209 Y127.402
M204 S5
G1 F600 X116.789 Y125.981 E7.26219
M204 S25
G0 F3000 X116.789 Y125.274
M204 S5
G1 F600 X118.209 Y126.695 E7.34571
M204 S25
G0 F3000 X118.209 Y125.988
M204 S5
G1 F600 X116.789 Y124.567 E7.42923
M204 S25
G0 F3000 X116.933 Y124.004
M204 S5
G1 F600 X118.209 Y125.28 E7.50425
M204 S25
G0 F3000 X118.209 Y124.573
M204 S5
G1 F600 X117.64 Y124.004 E7.53771
M204 S25
G0 F3000 X117.64 Y123.565
G1 F2700 E-0.46229
;MESH:NONMESH
G0 F300 X117.64 Y123.565 Z0.45
G0 F3000 X117.64 Y123.475
G0 X119.05 Y123.085
G0 X119.05 Y121.9
G0 X120.303 Y121.588
G0 X120.303 Y113.412
G0 X119.05 Y113.1
G0 X119.05 Y111.915
G1 F2700 E7.53771
G0 F3000 X119.2 Y111.735
;TIME_ELAPSED:59.222233
;LAYER:1
M106 S85
M204 S252
;TYPE:WALL-INNER
;MESH:Handle_inserts.stl(1)
G1 F900 X115.8 Y111.735 E7.7144
G1 X115.799 Y106.265 E7.99867
G1 X119.2 Y106.265 E8.17542
G1 X119.2 Y111.735 E8.45969
M204 S138
G0 F9000 X119.7 Y112.235
M204 S252
;TYPE:WALL-OUTER
G1 F900 X115.3 Y112.235 E8.68835
G1 X115.299 Y105.765 E9.02459
G1 X119.7 Y105.765 E9.25331
G1 X119.7 Y112.235 E9.58955
M204 S138
G0 F9000 X119.38 Y111.915
G0 X119.04 Y111.245
G0 X118.71 Y111.245
M204 S252
;TYPE:SKIN
G1 F1800 X116.29 Y111.245 E9.71531
G1 X116.289 Y106.755 E9.94865
G1 X118.71 Y106.755 E10.07447
G1 X118.71 Y111.245 E10.30781
M204 S138
G0 F9000 X118.508 Y110.593
M204 S252
G1 F1800 X118.057 Y111.044 E10.34096
M204 S138
G0 F9000 X117.35 Y111.044
M204 S252
G1 F1800 X118.508 Y109.886 E10.42606
M204 S138
G0 F9000 X118.508 Y109.179
M204 S252
G1 F1800 X116.643 Y111.044 E10.56313
M204 S138
G0 F9000 X116.489 Y110.491
M204 S252
G1 F1800 X118.508 Y108.472 E10.71152
M204 S138
G0 F9000 X118.508 Y107.765
M204 S252
G1 F1800 X116.489 Y109.784 E10.85991
M204 S138
G0 F9000 X116.489 Y109.077
M204 S252
G1 F1800 X118.508 Y107.058 E11.00829
M204 S138
G0 F9000 X117.905 Y106.954
M204 S252
G1 F1800 X116.488 Y108.371 E11.11244
M204 S138
G0 F9000 X116.488 Y107.664
M204 S252
G1 F1800 X117.197 Y106.954 E11.16458
M204 S138
G0 F9000 X117.197 Y106.515
G1 F2700 E3.16458
;MESH:Handle_inserts.stl
G0 F9000 X117.197 Y106.425
G0 X118.968 Y106.497
G0 X119.2 Y111.965
G0 X119.2 Y114.535
G0 X119.2 Y120.235
M204 S252
;TYPE:WALL-INNER
G1 F2700 E11.16458
G1 F900 X115.8 Y120.235 E11.34128
G1 X115.799 Y114.765 E11.62555
G1 X119.2 Y114.765 E11.80229
G1 X119.2 Y120.235 E12.08656
M204 S138
G0 F9000 X119.7 Y120.735
M204 S252
;TYPE:WALL-OUTER
G1 F900 X115.3 Y120.735 E12.31523
G1 X115.299 Y114.265 E12.65147
G1 X119.7 Y114.265 E12.88018
G1 X119.7 Y120.735 E13.21642
M204 S138
G0 F9000 X119.38 Y120.415
G0 X119.04 Y119.745
G0 X118.71 Y119.745
M204 S252
;TYPE:SKIN
G1 F1800 X116.29 Y119.745 E13.34218
G1 X116.289 Y115.255 E13.57553
G1 X118.71 Y115.255 E13.70134
G1 X118.71 Y119.745 E13.93468
M204 S138
G0 F9000 X118.043 Y119.544
M204 S252
G1 F1800 X118.509 Y119.078 E13.96893
M204 S138
G0 F9000 X118.509 Y118.371
M204 S252
G1 F1800 X117.336 Y119.544 E14.05514
M204 S138
G0 F9000 X116.629 Y119.544
M204 S252
G1 F1800 X118.509 Y117.663 E14.19335
M204 S138
G0 F9000 X118.509 Y116.956
M204 S252
G1 F1800 X116.489 Y118.977 E14.34185
M204 S138
G0 F9000 X116.489 Y118.269
M204 S252
G1 F1800 X118.509 Y116.249 E14.49031
M204 S138
G0 F9000 X118.509 Y115.542
M204 S252
G1 F1800 X116.489 Y117.562 E14.63877
M204 S138
G0 F9000 X116.489 Y116.855
M204 S252
G1 F1800 X117.89 Y115.454 E14.74173
M204 S138
G0 F9000 X117.183 Y115.454
M204 S252
G1 F1800 X116.489 Y116.148 E14.79274
M204 S138
G0 F9000 X116.05 Y116.149
G1 F2700 E6.79274
;MESH:Handle_inserts.stl(2)
G0 F9000 X115.959 Y116.148
G0 X116.032 Y120.003
G0 X119.2 Y120.465
G0 X119.2 Y123.035
G0 X119.2 Y128.735
M204 S252
;TYPE:WALL-INNER
G1 F2700 E14.79274
G1 F900 X115.8 Y128.735 E14.96943
G1 X115.799 Y123.265 E15.2537
G1 X119.2 Y123.265 E15.43045
G1 X119.2 Y128.735 E15.71472
M204 S138
G0 F9000 X119.7 Y129.235
M204 S252
;TYPE:WALL-OUTER
G1 F900 X115.3 Y129.235 E15.94338
G1 X115.299 Y122.765 E16.27962
G1 X119.7 Y122.765 E16.50834
G1 X119.7 Y129.235 E16.84458
M204 S138
G0 F9000 X119.38 Y128.915
G0 X119.04 Y128.245
G0 X118.71 Y128.245
M204 S252
;TYPE:SKIN
G1 F1800 X116.29 Y128.245 E16.97034
G1 X116.289 Y123.755 E17.20368
G1 X118.71 Y123.755 E17.3295
G1 X118.71 Y128.245 E17.56284
M204 S138
G0 F9000 X118.028 Y128.044
M204 S252
G1 F1800 X118.509 Y127.563 E17.59819
M204 S138
G0 F9000 X118.509 Y126.856
M204 S252
G1 F1800 X117.321 Y128.044 E17.6855
M204 S138
G0 F9000 X116.614 Y128.044
M204 S252
G1 F1800 X118.509 Y126.149 E17.82478
M204 S138
G0 F9000 X118.509 Y125.442
M204 S252
G1 F1800 X116.49 Y127.461 E17.97316
M204 S138
G0 F9000 X116.49 Y126.754
M204 S252
G1 F1800 X118.509 Y124.735 E18.12155
M204 S138
G0 F9000 X118.509 Y124.027
M204 S252
G1 F1800 X116.49 Y126.047 E18.26998
M204 S138
G0 F9000 X116.489 Y125.341
M204 S252
G1 F1800 X117.876 Y123.954 E18.37191
M204 S138
G0 F9000 X117.169 Y123.954
M204 S252
G1 F1800 X116.489 Y124.633 E18.42185
M204 S138
G0 F9000 X116.05 Y124.634
G1 F2700 E10.42185
;MESH:NONMESH
G0 F300 X116.05 Y124.634 Z0.75
G0 F9000 X115.959 Y124.633
G0 X116.031 Y123.497
G0 X119.35 Y123.035
G0 X119.35 Y121.85
G0 X120.603 Y121.638
G0 X120.603 Y113.362
G0 X119.35 Y113.15
G0 X119.35 Y111.965
G1 F2700 E18.42185
G0 F9000 X119.5 Y111.735
;TIME_ELAPSED:81.483215
;LAYER:2
M106 S170
M204 S500
;TYPE:WALL-INNER
;MESH:Handle_inserts.stl(1)
G1 F1090.5 X115.5 Y111.735 E18.6713
G1 X115.499 Y106.265 E19.01243
G1 X119.5 Y106.265 E19.26194
G1 X119.5 Y111.735 E19.60307
M204 S250
G0 F15000 X120 Y112.235
M204 S500
;TYPE:WALL-OUTER
G1 F1090.5 X115 Y112.235 E19.91488
G1 X114.999 Y105.765 E20.31837
G1 X120 Y105.765 E20.63024
G1 X120 Y112.235 E21.03373
M204 S250
G0 F15000 X119.68 Y111.915
G0 X119.34 Y111.245
G0 X119.01 Y111.245
M204 S500
;TYPE:SKIN
G1 F2726.3 X115.99 Y111.245 E21.22207
G1 X115.989 Y106.755 E21.50207
G1 X119.01 Y106.755 E21.69047
G1 X119.01 Y111.245 E21.97048
M204 S250
G0 F15000 X119.34 Y111.245
G0 X116.701 Y111.575
G0 X116.701 Y111.044
M204 S500
G1 F2726.3 X116.188 Y110.532 E22.01568
M204 S250
G0 F15000 X116.188 Y109.824
M204 S500
G1 F2726.3 X117.408 Y111.044 E22.12328
M204 S250
G0 F15000 X118.115 Y111.044
M204 S500
G1 F2726.3 X116.188 Y109.117 E22.29323
M204 S250
G0 F15000 X116.188 Y108.41
M204 S500
G1 F2726.3 X118.809 Y111.031 E22.52438
M204 S250
G0 F15000 X118.809 Y110.324
M204 S500
G1 F2726.3 X116.188 Y107.702 E22.75559
M204 S250
G0 F15000 X116.188 Y106.995
M204 S500
G1 F2726.3 X118.809 Y109.617 E22.98679
M204 S250
G0 F15000 X118.809 Y108.91
M204 S500
G1 F2726.3 X116.854 Y106.954 E23.15925
M204 S250
G0 F15000 X117.561 Y106.954
M204 S500
G1 F2726.3 X118.809 Y108.202 E23.26932
M204 S250
G0 F15000 X118.809 Y107.495
M204 S500
G1 F2726.3 X118.268 Y106.954 E23.31703
M204 S250
G0 F15000 X118.268 Y106.515
G1 F2700 E15.31703
;MESH:Handle_inserts.stl
G0 F15000 X118.268 Y106.425
G0 X119.268 Y106.497
G0 X119.5 Y111.965
G0 X119.5 Y114.535
G0 X119.5 Y120.235
M204 S500
;TYPE:WALL-INNER
G1 F2700 E23.31703
G1 F1090.5 X115.5 Y120.235 E23.56648
G1 X115.499 Y114.765 E23.90761
G1 X119.5 Y114.765 E24.15712
G1 X119.5 Y120.235 E24.49824
M204 S250
G0 F15000 X120 Y120.735
M204 S500
;TYPE:WALL-OUTER
G1 F1090.5 X115 Y120.735 E24.81006
G1 X114.999 Y114.265 E25.21354
G1 X120 Y114.265 E25.52542
G1 X120 Y120.735 E25.92891
M204 S250
G0 F15000 X119.68 Y120.415
G0 X119.34 Y119.745
G0 X119.01 Y119.745
M204 S500
;TYPE:SKIN
G1 F2726.3 X115.99 Y119.745 E26.11724
G1 X115.989 Y115.255 E26.39725
G1 X119.01 Y115.255 E26.58565
G1 X119.01 Y119.745 E26.86566
M204 S250
G0 F15000 X119.34 Y119.745
G0 X116.715 Y120.075
G0 X116.715 Y119.544
M204 S500
G1 F2726.3 X116.188 Y119.017 E26.91214
M204 S250
G0 F15000 X116.188 Y118.31
M204 S500
G1 F2726.3 X117.422 Y119.544 E27.02097
M204 S250
G0 F15000 X118.129 Y119.544
M204 S500
G1 F2726.3 X116.188 Y117.603 E27.19215
M204 S250
G0 F15000 X116.188 Y116.896
M204 S500
G1 F2726.3 X118.81 Y119.517 E27.42335
M204 S250
G0 F15000 X118.81 Y118.81
M204 S500
G1 F2726.3 X116.188 Y116.188 E27.6546
M204 S250
G0 F15000 X116.188 Y115.481
M204 S500
G1 F2726.3 X118.81 Y118.103 E27.88585
M204 S250
G0 F15000 X118.81 Y117.395
M204 S500
G1 F2726.3 X116.869 Y115.454 E28.05703
M204 S250
G0 F15000 X117.576 Y115.454
M204 S500
G1 F2726.3 X118.81 Y116.688 E28.16586
M204 S250
G0 F15000 X118.81 Y115.981
M204 S500
G1 F2726.3 X118.283 Y115.454 E28.21234
M204 S250
G0 F15000 X118.283 Y115.015
G1 F2700 E20.21234
;MESH:Handle_inserts.stl(2)
G0 F15000 X118.283 Y114.925
G0 X119.268 Y114.997
G0 X119.5 Y120.465
G0 X119.5 Y123.035
G0 X119.5 Y128.735
M204 S500
;TYPE:WALL-INNER
G1 F2700 E28.21234
G1 F1090.5 X115.5 Y128.735 E28.46179
G1 X115.499 Y123.265 E28.80292
G1 X119.5 Y123.265 E29.05243
G1 X119.5 Y128.735 E29.39355
M204 S250
G0 F15000 X120 Y129.235
M204 S500
;TYPE:WALL-OUTER
G1 F1090.5 X115 Y129.235 E29.70537
G1 X114.999 Y122.765 E30.10885
G1 X120 Y122.765 E30.42073
G1 X120 Y129.235 E30.82422
M204 S250
G0 F15000 X119.68 Y128.915
G0 X119.34 Y128.245
G0 X119.01 Y128.245
M204 S500
;TYPE:SKIN
G1 F2726.3 X115.99 Y128.245 E31.01255
G1 X115.989 Y123.755 E31.29256
G1 X119.01 Y123.755 E31.48096
G1 X119.01 Y128.245 E31.76097
M204 S250
G0 F15000 X119.34 Y128.245
G0 X116.73 Y128.575
G0 X116.73 Y128.044
M204 S500
G1 F2726.3 X116.189 Y127.503 E31.80868
M204 S250
G0 F15000 X116.189 Y126.796
M204 S500
G1 F2726.3 X117.437 Y128.044 E31.91875
M204 S250
G0 F15000 X118.144 Y128.044
M204 S500
G1 F2726.3 X116.189 Y126.089 E32.09117
M204 S250
G0 F15000 X116.188 Y125.381
M204 S500
G1 F2726.3 X118.809 Y128.001 E32.32228
M204 S250
G0 F15000 X118.809 Y127.294
M204 S500
G1 F2726.3 X116.188 Y124.674 E32.55339
M204 S250
G0 F15000 X116.188 Y123.967
M204 S500
G1 F2726.3 X118.809 Y126.587 E32.78451
M204 S250
G0 F15000 X118.809 Y125.88
M204 S500
G1 F2726.3 X116.883 Y123.954 E32.95437
M204 S250
G0 F15000 X117.59 Y123.954
M204 S500
G1 F2726.3 X118.809 Y125.173 E33.06188
M204 S250
G0 F15000 X118.809 Y124.466
M204 S500
G1 F2726.3 X118.297 Y123.954 E33.10703
M204 S250
G0 F15000 X118.297 Y123.515
G1 F2700 E25.10703
;MESH:NONMESH
G0 F300 X118.297 Y123.515 Z1.05
G0 F15000 X118.297 Y123.425
G0 X119.65 Y123.035
G0 X119.65 Y121.85
G0 X120.903 Y121.638
G0 X120.903 Y113.362
G0 X119.65 Y113.15
G0 X119.65 Y111.965
G1 F2700 E33.10703
G0 F15000 X119.8 Y111.735
;TIME_ELAPSED:100.715169
;LAYER:3
M106 S255
M204 S500
;TYPE:WALL-INNER
;MESH:Handle_inserts.stl(1)
G1 F1181.1 X115.2 Y111.735 E33.3939
G1 X115.199 Y106.265 E33.73503
G1 X119.8 Y106.265 E34.02196
G1 X119.8 Y111.735 E34.36308
M204 S250
G0 F15000 X120.3 Y112.235
M204 S500
;TYPE:WALL-OUTER
G1 F1181.1 X114.7 Y112.235 E34.71231
G1 X114.699 Y105.765 E35.1158
G1 X120.3 Y105.765 E35.46509
G1 X120.3 Y112.235 E35.86858
M204 S250
G0 F15000 X119.98 Y111.915
G0 X119.64 Y111.245
G0 X119.31 Y111.245
M204 S500
;TYPE:SKIN
G1 F2952.8 X115.69 Y111.245 E36.09433
G1 X115.689 Y106.755 E36.37434
G1 X119.31 Y106.755 E36.60016
G1 X119.31 Y111.245 E36.88017
M204 S250
G0 F15000 X119.109 Y110.7
M204 S500
G1 F2952.8 X118.764 Y111.045 E36.91059
M204 S250
G0 F15000 X118.057 Y111.045
M204 S500
G1 F2952.8 X119.109 Y109.993 E37.00337
M204 S250
G0 F15000 X119.109 Y109.286
M204 S500
G1 F2952.8 X117.35 Y111.045 E37.15851
M204 S250
G0 F15000 X116.642 Y111.045
M204 S500
G1 F2952.8 X119.109 Y108.579 E37.37604
M204 S250
G0 F15000 X119.109 Y107.871
M204 S500
G1 F2952.8 X115.935 Y111.045 E37.65597
M204 S250
G0 F15000 X115.889 Y110.385
M204 S500
G1 F2952.8 X119.109 Y107.164 E37.94
M204 S250
G0 F15000 X118.612 Y106.954
M204 S500
G1 F2952.8 X115.889 Y109.677 E38.18015
M204 S250
G0 F15000 X115.889 Y108.97
M204 S500
G1 F2952.8 X117.905 Y106.954 E38.35795
M204 S250
G0 F15000 X117.197 Y106.954
M204 S500
G1 F2952.8 X115.889 Y108.263 E38.47335
M204 S250
G0 F15000 X115.889 Y107.556
M204 S500
G1 F2952.8 X116.49 Y106.954 E38.5264
M204 S250
G0 F15000 X116.49 Y106.515
G1 F2700 E30.5264
;MESH:Handle_inserts.stl
G0 F15000 X116.49 Y106.425
