;FLAVOR:Marlin
;TIME:2598
;Filament used: 1.87501m
;Layer height: 0.2
;MINX:112.21
;MINY:85.986
;MINZ:0.2
;MAXX:122.791
;MAXY:152.864
;MAXZ:31.7
;Generated with Cura_SteamEngine 4.12.1
M140 S60
M105
M190 S60
M104 S200
M105
M109 S200
M82 ;absolute extrusion mode
; Ender 3 Custom Start G-code
G92 E0 ; Reset Extruder
G28 ; Home all axes
G1 Z2.0 F3000 ; Move Z Axis up little to prevent scratching of Heat Bed
G1 X0.1 Y20 Z0.3 F5000.0 ; Move to start position
G1 X0.1 Y200.0 Z0.3 F1500.0 E15 ; Draw the first line
G1 X0.4 Y200.0 Z0.3 F5000.0 ; Move to side a little
G1 X0.4 Y20 Z0.3 F1500.0 E30 ; Draw the second line
G92 E0 ; Reset Extruder
G1 Z2.0 F3000 ; Move Z Axis up little to prevent scratching of Heat Bed
G1 X5 Y20 Z0.3 F5000.0 ; Move over to prevent blob squish
G92 E0
G92 E0
G1 F2700 E-8
;LAYER_COUNT:107
;LAYER:0
M107
M204 S25
G0 F3000 X113.167 Y90.584 Z0.2
M204 S500
;TYPE:SKIRT
G1 F2700 E0
G1 F600 X113.561 Y90.204 E0.02276
G1 X114.006 Y89.885 E0.04552
G1 X114.493 Y89.635 E0.06828
G1 X115.011 Y89.458 E0.09104
G1 X115.549 Y89.359 E0.11378
G1 X115.959 Y89.336 E0.13085
G1 X119.04 Y89.335 E0.25895
G1 X119.586 Y89.375 E0.28171
G1 X120.12 Y89.494 E0.30445
G1 X120.631 Y89.689 E0.32719
G1 X121.109 Y89.957 E0.34998
G1 X121.542 Y90.291 E0.37271
G1 X121.922 Y90.685 E0.39547
G1 X122.241 Y91.13 E0.41823
G1 X122.491 Y91.616 E0.44096
G1 X122.669 Y92.134 E0.46373
G1 X122.768 Y92.673 E0.48651
G1 X122.791 Y93.085 E0.50367
G1 X122.791 Y101.713 E0.86238
G1 X122.751 Y102.259 E0.88514
G1 X122.632 Y102.793 E0.90788
G1 X122.437 Y103.304 E0.93062
G1 X122.177 Y103.768 E0.95274
G1 X122.242 Y103.859 E0.95739
G1 X122.492 Y104.346 E0.98014
G1 X122.669 Y104.864 E1.0029
G1 X122.768 Y105.402 E1.02565
G1 X122.791 Y105.813 E1.04276
G1 X122.791 Y112.24 E1.30996
G1 X122.751 Y112.786 E1.33273
G1 X122.632 Y113.32 E1.35547
G1 X122.437 Y113.831 E1.37821
G1 X122.177 Y114.295 E1.40032
G1 X122.242 Y114.386 E1.40497
G1 X122.492 Y114.873 E1.42773
G1 X122.669 Y115.391 E1.45049
G1 X122.768 Y115.929 E1.47323
G1 X122.791 Y116.34 E1.49035
G1 X122.79 Y148.036 E2.80811
G1 X122.75 Y148.582 E2.83087
G1 X122.631 Y149.116 E2.85362
G1 X122.436 Y149.628 E2.8764
G1 X122.168 Y150.105 E2.89915
G1 X121.824 Y150.548 E2.92246
G1 X120.854 Y151.623 E2.98266
G1 X120.459 Y152.002 E3.00542
G1 X120.013 Y152.319 E3.02817
G1 X119.525 Y152.567 E3.05093
G1 X119.006 Y152.742 E3.0737
G1 X118.468 Y152.84 E3.09644
G1 X118.075 Y152.861 E3.1128
G1 X115.965 Y152.864 E3.20052
G1 X115.419 Y152.825 E3.22328
G1 X114.885 Y152.707 E3.24602
G1 X114.373 Y152.512 E3.26879
G1 X113.896 Y152.245 E3.29152
G1 X113.462 Y151.911 E3.31429
G1 X113.081 Y151.517 E3.33708
G1 X112.762 Y151.073 E3.35981
G1 X112.511 Y150.586 E3.38258
G1 X112.334 Y150.069 E3.4053
G1 X112.233 Y149.531 E3.42806
G1 X112.21 Y149.114 E3.44542
G1 X112.21 Y144.58 E3.63393
G1 X112.25 Y144.034 E3.65669
G1 X112.369 Y143.5 E3.67943
G1 X112.564 Y142.989 E3.70217
G1 X112.832 Y142.511 E3.72496
G1 X113.167 Y142.078 E3.74772
G1 X113.561 Y141.698 E3.77047
G1 X114.006 Y141.379 E3.79324
G1 X114.036 Y141.364 E3.79463
G1 X114.036 Y127.977 E4.3512
G1 X113.891 Y127.896 E4.3581
G1 X113.458 Y127.561 E4.38086
G1 X113.078 Y127.167 E4.40362
G1 X112.759 Y126.722 E4.42639
G1 X112.509 Y126.235 E4.44915
G1 X112.332 Y125.717 E4.4719
G1 X112.233 Y125.179 E4.49465
G1 X112.21 Y124.768 E4.51176
G1 X112.21 Y116.08 E4.87297
G1 X112.25 Y115.534 E4.89573
G1 X112.369 Y115 E4.91847
G1 X112.564 Y114.489 E4.94121
G1 X112.675 Y114.291 E4.95065
G1 X112.509 Y113.967 E4.96578
G1 X112.332 Y113.449 E4.98854
G1 X112.233 Y112.911 E5.01129
G1 X112.21 Y112.5 E5.0284
G1 X112.21 Y105.553 E5.31722
G1 X112.25 Y105.007 E5.33998
G1 X112.369 Y104.473 E5.36273
G1 X112.564 Y103.962 E5.38547
G1 X112.675 Y103.764 E5.39491
G1 X112.509 Y103.44 E5.41004
G1 X112.332 Y102.922 E5.4328
G1 X112.233 Y102.384 E5.45554
G1 X112.21 Y101.973 E5.47266
G1 X112.21 Y93.086 E5.84213
G1 X112.25 Y92.54 E5.8649
G1 X112.369 Y92.006 E5.88764
G1 X112.564 Y91.495 E5.91038
G1 X112.832 Y91.017 E5.93316
G1 X113.167 Y90.584 E5.95592
M204 S25
G0 F3000 X113.66 Y90.79
M204 S500
G1 F600 X114.047 Y90.458 E5.97712
G1 X114.482 Y90.192 E5.99832
G1 X114.952 Y89.996 E6.01949
G1 X115.447 Y89.877 E6.04066
G1 X115.959 Y89.836 E6.06201
G1 X119.04 Y89.835 E6.19011
G1 X119.548 Y89.875 E6.21129
G1 X120.043 Y89.993 E6.23245
G1 X120.514 Y90.188 E6.25364
G1 X120.949 Y90.454 E6.27484
G1 X121.337 Y90.784 E6.29602
G1 X121.668 Y91.172 E6.31722
G1 X121.935 Y91.606 E6.33841
G1 X122.13 Y92.076 E6.35956
G1 X122.25 Y92.571 E6.38074
G1 X122.291 Y93.085 E6.40218
G1 X122.291 Y101.713 E6.76089
G1 X122.251 Y102.221 E6.78207
G1 X122.132 Y102.716 E6.80324
G1 X121.937 Y103.187 E6.82443
G1 X121.671 Y103.622 E6.84563
G1 X121.551 Y103.763 E6.85333
G1 X121.669 Y103.9 E6.86084
G1 X121.935 Y104.335 E6.88204
G1 X122.131 Y104.805 E6.90321
G1 X122.25 Y105.3 E6.92438
G1 X122.291 Y105.813 E6.94578
G1 X122.291 Y112.24 E7.21298
G1 X122.251 Y112.748 E7.23417
G1 X122.132 Y113.243 E7.25533
G1 X121.937 Y113.714 E7.27653
G1 X121.671 Y114.149 E7.29772
G1 X121.551 Y114.29 E7.30542
G1 X121.669 Y114.427 E7.31294
G1 X121.935 Y114.862 E7.33414
G1 X122.131 Y115.332 E7.35531
G1 X122.25 Y115.827 E7.37648
G1 X122.291 Y116.34 E7.39787
G1 X122.29 Y148.036 E8.71564
G1 X122.25 Y148.544 E8.73682
G1 X122.131 Y149.039 E8.75799
G1 X121.936 Y149.51 E8.77918
G1 X121.67 Y149.945 E8.80038
G1 X121.453 Y150.213 E8.81472
G1 X120.483 Y151.288 E8.87492
G1 X120.113 Y151.639 E8.89612
G1 X119.693 Y151.927 E8.91729
G1 X119.233 Y152.146 E8.93847
G1 X118.744 Y152.29 E8.95967
G1 X118.075 Y152.361 E8.98764
G1 X115.965 Y152.364 E9.07536
G1 X115.457 Y152.325 E9.09654
G1 X114.961 Y152.207 E9.11774
G1 X114.49 Y152.013 E9.13892
G1 X114.055 Y151.747 E9.16012
G1 X113.667 Y151.417 E9.18129
G1 X113.335 Y151.03 E9.20249
G1 X113.068 Y150.597 E9.22364
G1 X112.872 Y150.126 E9.24485
G1 X112.751 Y149.631 E9.26604
G1 X112.71 Y149.114 E9.2876
G1 X112.71 Y144.58 E9.4761
G1 X112.75 Y144.072 E9.49729
G1 X112.869 Y143.577 E9.51845
G1 X113.064 Y143.106 E9.53965
G1 X113.33 Y142.671 E9.56084
G1 X113.66 Y142.284 E9.58199
G1 X114.047 Y141.952 E9.60319
G1 X114.482 Y141.686 E9.62439
G1 X114.536 Y141.663 E9.62683
G1 X114.536 Y127.685 E10.20796
G1 X114.486 Y127.664 E10.21022
G1 X114.051 Y127.398 E10.23142
G1 X113.664 Y127.068 E10.25256
G1 X113.332 Y126.681 E10.27376
G1 X113.066 Y126.246 E10.29496
G1 X112.87 Y125.776 E10.31613
G1 X112.751 Y125.281 E10.3373
G1 X112.71 Y124.768 E10.35869
G1 X112.71 Y116.08 E10.7199
G1 X112.75 Y115.572 E10.74108
G1 X112.869 Y115.077 E10.76225
G1 X113.064 Y114.606 E10.78344
G1 X113.257 Y114.29 E10.79884
G1 X113.066 Y113.978 E10.81405
G1 X112.87 Y113.508 E10.83522
G1 X112.751 Y113.013 E10.85638
G1 X112.71 Y112.5 E10.87778
G1 X112.71 Y105.553 E11.1666
G1 X112.75 Y105.045 E11.18779
G1 X112.869 Y104.55 E11.20896
G1 X113.064 Y104.079 E11.23015
G1 X113.257 Y103.763 E11.24554
G1 X113.066 Y103.451 E11.26075
G1 X112.87 Y102.981 E11.28192
G1 X112.751 Y102.486 E11.30309
G1 X112.71 Y101.973 E11.32449
G1 X112.71 Y93.086 E11.69396
G1 X112.75 Y92.578 E11.71515
G1 X112.869 Y92.083 E11.73632
G1 X113.064 Y91.612 E11.75751
G1 X113.33 Y91.177 E11.77871
G1 X113.66 Y90.79 E11.79985
M204 S25
G0 F3000 X113.826 Y91.352
M204 S500
G1 F600 X114.151 Y91.014 E11.81935
G1 X114.529 Y90.737 E11.83883
G1 X114.949 Y90.529 E11.85832
G1 X115.398 Y90.394 E11.87781
G1 X115.959 Y90.336 E11.90126
G1 X119.04 Y90.335 E12.02935
G1 X119.507 Y90.375 E12.04884
G1 X119.96 Y90.493 E12.0683
G1 X120.387 Y90.687 E12.0878
G1 X120.775 Y90.95 E12.10729
G1 X121.112 Y91.276 E12.12678
G1 X121.389 Y91.654 E12.14626
G1 X121.598 Y92.073 E12.16573
G1 X121.733 Y92.522 E12.18522
G1 X121.791 Y93.085 E12.20875
G1 X121.791 Y101.713 E12.56746
G1 X121.751 Y102.18 E12.58695
G1 X121.632 Y102.633 E12.60642
G1 X121.439 Y103.06 E12.62591
G1 X121.175 Y103.447 E12.64538
G1 X120.867 Y103.767 E12.66385
G1 X121.113 Y104.004 E12.67805
G1 X121.39 Y104.382 E12.69753
G1 X121.598 Y104.802 E12.71702
G1 X121.733 Y105.251 E12.73651
G1 X121.791 Y105.813 E12.76
G1 X121.791 Y112.24 E13.0272
G1 X121.751 Y112.707 E13.04669
G1 X121.632 Y113.16 E13.06616
G1 X121.439 Y113.587 E13.08564
G1 X121.175 Y113.974 E13.10512
G1 X120.867 Y114.294 E13.12359
G1 X121.113 Y114.531 E13.13779
G1 X121.39 Y114.909 E13.15727
G1 X121.598 Y115.329 E13.17676
G1 X121.733 Y115.778 E13.19625
G1 X121.791 Y116.34 E13.21974
G1 X121.79 Y148.036 E14.53751
G1 X121.75 Y148.503 E14.55699
G1 X121.631 Y148.956 E14.57647
G1 X121.438 Y149.383 E14.59595
G1 X121.082 Y149.878 E14.6213
G1 X120.112 Y150.953 E14.68149
G1 X119.769 Y151.273 E14.701
G1 X119.377 Y151.53 E14.72048
G1 X118.948 Y151.717 E14.73994
G1 X118.493 Y151.828 E14.75941
G1 X118.074 Y151.861 E14.77689
G1 X115.964 Y151.864 E14.86461
G1 X115.497 Y151.825 E14.88409
G1 X115.043 Y151.707 E14.9036
G1 X114.617 Y151.513 E14.92306
G1 X114.229 Y151.251 E14.94252
G1 X113.891 Y150.926 E14.96202
G1 X113.613 Y150.548 E14.98152
G1 X113.404 Y150.129 E15.00099
G1 X113.269 Y149.68 E15.02048
G1 X113.21 Y149.114 E15.04414
G1 X113.21 Y144.58 E15.23264
G1 X113.25 Y144.113 E15.25213
G1 X113.369 Y143.66 E15.2716
G1 X113.562 Y143.233 E15.29109
G1 X113.826 Y142.846 E15.31056
G1 X114.151 Y142.508 E15.33006
G1 X114.529 Y142.231 E15.34954
G1 X114.949 Y142.023 E15.36903
G1 X115.036 Y141.997 E15.3728
G1 X115.036 Y127.357 E15.98146
G1 X114.613 Y127.166 E16.00076
G1 X114.226 Y126.902 E16.02023
G1 X113.888 Y126.577 E16.03973
G1 X113.611 Y126.199 E16.05921
G1 X113.403 Y125.779 E16.0787
G1 X113.268 Y125.33 E16.09819
G1 X113.21 Y124.768 E16.12168
G1 X113.21 Y116.08 E16.48289
G1 X113.25 Y115.613 E16.50237
G1 X113.369 Y115.16 E16.52184
G1 X113.562 Y114.733 E16.54133
G1 X113.826 Y114.346 E16.5608
G1 X113.877 Y114.293 E16.56386
G1 X113.611 Y113.931 E16.58254
G1 X113.403 Y113.511 E16.60202
G1 X113.268 Y113.062 E16.62152
G1 X113.21 Y112.5 E16.64501
G1 X113.21 Y105.553 E16.93383
G1 X113.25 Y105.086 E16.95331
G1 X113.369 Y104.633 E16.97279
G1 X113.562 Y104.206 E16.99227
G1 X113.826 Y103.819 E17.01175
G1 X113.877 Y103.766 E17.0148
G1 X113.611 Y103.404 E17.03348
G1 X113.403 Y102.984 E17.05297
G1 X113.268 Y102.535 E17.07246
G1 X113.21 Y101.973 E17.09595
G1 X113.21 Y93.086 E17.46543
G1 X113.25 Y92.619 E17.48491
G1 X113.369 Y92.166 E17.50439
G1 X113.562 Y91.739 E17.52387
G1 X113.826 Y91.352 E17.54334
M204 S25
G0 F3000 X114.321 Y91.545
M204 S500
G1 F600 X114.639 Y91.265 E17.56096
G1 X115.004 Y91.049 E17.57859
G1 X115.403 Y90.906 E17.59621
G1 X115.959 Y90.836 E17.61951
G1 X119.04 Y90.835 E17.74761
G1 X119.462 Y90.875 E17.76523
G1 X119.869 Y90.993 E17.78285
G1 X120.247 Y91.185 E17.80047
G1 X120.582 Y91.445 E17.8181
G1 X120.862 Y91.763 E17.83572
G1 X121.077 Y92.128 E17.85333
G1 X121.221 Y92.527 E17.87097
G1 X121.291 Y93.085 E17.89435
G1 X121.291 Y101.713 E18.25306
G1 X121.251 Y102.135 E18.27068
G1 X121.133 Y102.542 E18.2883
G1 X120.94 Y102.919 E18.30591
G1 X120.68 Y103.254 E18.32354
G1 X120.362 Y103.534 E18.34115
G1 X119.997 Y103.75 E18.35879
G1 X119.956 Y103.765 E18.3606
G1 X120.247 Y103.914 E18.37419
G1 X120.582 Y104.174 E18.39182
G1 X120.862 Y104.492 E18.40944
G1 X121.078 Y104.857 E18.42707
G1 X121.221 Y105.256 E18.44469
G1 X121.291 Y105.813 E18.46803
G1 X121.291 Y112.24 E18.73524
G1 X121.251 Y112.662 E18.75286
G1 X121.133 Y113.069 E18.77048
G1 X120.94 Y113.446 E18.78809
G1 X120.68 Y113.781 E18.80572
G1 X120.362 Y114.061 E18.82333
G1 X119.997 Y114.277 E18.84097
G1 X119.956 Y114.292 E18.84278
G1 X120.247 Y114.441 E18.85637
G1 X120.582 Y114.701 E18.874
G1 X120.862 Y115.019 E18.89162
G1 X121.078 Y115.384 E18.90925
G1 X121.221 Y115.783 E18.92687
G1 X121.291 Y116.34 E18.95021
G1 X121.29 Y148.036 E20.26798
G1 X121.25 Y148.458 E20.2856
G1 X121.132 Y148.865 E20.30322
G1 X120.939 Y149.242 E20.32083
G1 X120.71 Y149.543 E20.33655
G1 X119.74 Y150.618 E20.39675
G1 X119.428 Y150.905 E20.41438
G1 X119.068 Y151.128 E20.43198
G1 X118.672 Y151.279 E20.4496
G1 X118.073 Y151.361 E20.47474
G1 X115.963 Y151.364 E20.56246
G1 X115.541 Y151.325 E20.58008
G1 X115.134 Y151.207 E20.5977
G1 X114.756 Y151.015 E20.61533
G1 X114.421 Y150.756 E20.63293
G1 X114.141 Y150.438 E20.65055
G1 X113.925 Y150.073 E20.66818
G1 X113.781 Y149.675 E20.68578
G1 X113.71 Y149.114 E20.70929
G1 X113.71 Y144.58 E20.89779
G1 X113.75 Y144.158 E20.91541
G1 X113.868 Y143.751 E20.93303
G1 X114.061 Y143.374 E20.95064
G1 X114.321 Y143.039 E20.96827
G1 X114.639 Y142.759 E20.98588
G1 X115.004 Y142.543 E21.00352
G1 X115.403 Y142.4 E21.02114
G1 X115.536 Y142.383 E21.02671
G1 X115.536 Y126.977 E21.66722
G1 X115.131 Y126.86 E21.68475
G1 X114.754 Y126.667 E21.70235
G1 X114.419 Y126.407 E21.71998
G1 X114.139 Y126.089 E21.7376
G1 X113.923 Y125.724 E21.75523
G1 X113.78 Y125.325 E21.77285
G1 X113.71 Y124.768 E21.79619
G1 X113.71 Y116.08 E22.1574
G1 X113.75 Y115.658 E22.17502
G1 X113.868 Y115.251 E22.19264
G1 X114.061 Y114.874 E22.21025
G1 X114.321 Y114.539 E22.22788
G1 X114.608 Y114.286 E22.24379
G1 X114.419 Y114.139 E22.25374
G1 X114.139 Y113.821 E22.27136
G1 X113.923 Y113.456 E22.28899
G1 X113.78 Y113.057 E22.30661
G1 X113.71 Y112.5 E22.32995
G1 X113.71 Y105.553 E22.61877
G1 X113.75 Y105.131 E22.6364
G1 X113.868 Y104.724 E22.65401
G1 X114.061 Y104.347 E22.67162
G1 X114.321 Y104.012 E22.68925
G1 X114.608 Y103.759 E22.70516
G1 X114.419 Y103.612 E22.71511
G1 X114.139 Y103.294 E22.73273
G1 X113.923 Y102.929 E22.75036
G1 X113.78 Y102.53 E22.76798
G1 X113.71 Y101.973 E22.79132
G1 X113.71 Y93.086 E23.1608
G1 X113.75 Y92.664 E23.17842
G1 X113.868 Y92.257 E23.19604
G1 X114.061 Y91.88 E23.21365
G1 X114.321 Y91.545 E23.23128
M204 S25
G0 F3000 X114.558 Y92.038
M204 S500
G1 F600 X114.812 Y91.765 E23.24678
G1 X115.119 Y91.551 E23.26234
G1 X115.464 Y91.408 E23.27787
G1 X115.959 Y91.336 E23.29867
G1 X119.04 Y91.335 E23.42676
G1 X119.412 Y91.375 E23.44231
G1 X119.767 Y91.492 E23.45785
G1 X120.088 Y91.683 E23.47338
G1 X120.362 Y91.937 E23.48892
G1 X120.575 Y92.244 E23.50445
G1 X120.719 Y92.589 E23.51999
G1 X120.791 Y93.085 E23.54083
G1 X120.791 Y101.713 E23.89954
G1 X120.751 Y102.084 E23.91506
G1 X120.633 Y102.439 E23.93061
G1 X120.443 Y102.761 E23.94615
G1 X120.189 Y103.034 E23.96166
G1 X119.882 Y103.248 E23.97721
G1 X119.537 Y103.391 E23.99274
G1 X119.041 Y103.463 E24.01358
G1 X118.447 Y103.463 E24.03827
G1 X118.382 Y103.508 E24.04156
G1 X118.037 Y103.651 E24.05709
G1 X117.541 Y103.723 E24.07793
G1 X115.96 Y103.723 E24.14366
G1 X115.589 Y103.683 E24.15917
G1 X115.234 Y103.565 E24.17472
G1 X114.912 Y103.375 E24.19027
G1 X114.639 Y103.121 E24.20577
G1 X114.425 Y102.814 E24.22133
G1 X114.282 Y102.469 E24.23685
G1 X114.21 Y101.973 E24.25769
G1 X114.21 Y93.086 E24.62717
G1 X114.25 Y92.715 E24.64268
G1 X114.368 Y92.36 E24.65824
G1 X114.558 Y92.038 E24.67378
M204 S25
G0 F3000 X115.053 Y92.225
M204 S500
G1 F600 X115.298 Y92.026 E24.6869
G1 X115.585 Y91.894 E24.70004
G1 X115.96 Y91.836 E24.71581
G1 X119.041 Y91.835 E24.84391
G1 X119.354 Y91.875 E24.85703
G1 X119.647 Y91.992 E24.87014
G1 X119.901 Y92.178 E24.88323
G1 X120.101 Y92.423 E24.89638
G1 X120.233 Y92.709 E24.90948
G1 X120.291 Y93.085 E24.92529
G1 X120.291 Y101.713 E25.284
G1 X120.251 Y102.026 E25.29712
G1 X120.134 Y102.319 E25.31024
G1 X119.948 Y102.574 E25.32336
G1 X119.703 Y102.773 E25.33648
G1 X119.416 Y102.905 E25.34962
G1 X119.041 Y102.963 E25.36539
G1 X118.289 Y102.963 E25.39666
G1 X118.203 Y103.033 E25.40127
G1 X117.916 Y103.165 E25.4144
G1 X117.541 Y103.223 E25.43018
G1 X115.96 Y103.223 E25.49591
G1 X115.647 Y103.183 E25.50903
G1 X115.354 Y103.066 E25.52214
G1 X115.099 Y102.88 E25.53527
G1 X114.9 Y102.635 E25.54839
G1 X114.768 Y102.348 E25.56152
G1 X114.71 Y101.973 E25.5773
G1 X114.71 Y93.086 E25.94678
G1 X114.75 Y92.773 E25.9599
G1 X114.867 Y92.48 E25.97301
G1 X115.053 Y92.225 E25.98614
M204 S25
G0 F3000 X115.365 Y92.63
M204 S500
G1 F600 X115.543 Y92.463 E25.99628
G1 X115.765 Y92.362 E26.00642
G1 X115.96 Y92.336 E26.0146
G1 X119.041 Y92.335 E26.14269
G1 X119.282 Y92.375 E26.15285
G1 X119.497 Y92.49 E26.16299
G1 X119.664 Y92.668 E26.17314
G1 X119.765 Y92.89 E26.18328
G1 X119.791 Y93.085 E26.19146
G1 X119.791 Y101.713 E26.55017
G1 X119.751 Y101.954 E26.56032
G1 X119.636 Y102.169 E26.57046
G1 X119.458 Y102.336 E26.58061
