;FLAVOR:Marlin
;TIME:5330
;Filament used: 6.04947m
;Layer height: 0.2
;MINX:97.8
;MINY:43.745
;MINZ:0.2
;MAXX:137.201
;MAXY:191.316
;MAXZ:3.95
;Generated with Cura_SteamEngine 4.12.1
M140 S60
M105
M190 S60
M104 S200
M105
M109 S200
M82 ;absolute extrusion mode
; Ender 3 Custom Start G-code
G92 E0 ; Reset Extruder
G28 ; Home all axes
G1 Z2.0 F3000 ; Move Z Axis up little to prevent scratching of Heat Bed
G1 X0.1 Y20 Z0.3 F5000.0 ; Move to start position
G1 X0.1 Y200.0 Z0.3 F1500.0 E15 ; Draw the first line
G1 X0.4 Y200.0 Z0.3 F5000.0 ; Move to side a little
G1 X0.4 Y20 Z0.3 F1500.0 E30 ; Draw the second line
G92 E0 ; Reset Extruder
G1 Z2.0 F3000 ; Move Z Axis up little to prevent scratching of Heat Bed
G1 X5 Y20 Z0.3 F5000.0 ; Move over to prevent blob squish
G92 E0
G92 E0
G1 F2700 E-8
;LAYER_COUNT:17
;LAYER:0
M107
M204 S25
;MESH:Blade_1.stl
G0 F3000 X117.723 Y82.487 Z0.2
M204 S5
;TYPE:WALL-INNER
G1 F2700 E0
G1 F600 X129.717 Y76.49 E0.55751
G1 X130 Y76.036 E0.57975
G1 X130 Y69.957 E0.83249
G1 X129.513 Y69.307 E0.86626
G1 X128.845 Y69.361 E0.89412
G1 X117.5 Y75.034 E1.42147
G1 X106.048 Y69.308 E1.95379
G1 X105.241 Y69.456 E1.9879
G1 X105 Y70.083 E2.01583
G1 X104.999 Y76.037 E2.26336
G1 X105.282 Y76.491 E2.28561
G1 X117.277 Y82.487 E2.84314
G1 X117.723 Y82.487 E2.86168
M204 S25
G0 F3000 X117.605 Y81.987
M204 S5
;TYPE:WALL-OUTER
G1 F600 X129.367 Y76.106 E3.4084
G1 X129.5 Y75.893 E3.41884
G1 X129.5 Y70.124 E3.65869
G1 X129.278 Y69.828 E3.67407
G1 X128.982 Y69.852 E3.68642
G1 X117.5 Y75.593 E4.22013
G1 X105.974 Y69.83 E4.75589
G1 X105.607 Y69.897 E4.7714
G1 X105.5 Y70.176 E4.78382
G1 X105.499 Y75.894 E5.02155
G1 X105.632 Y76.107 E5.03199
G1 X117.395 Y81.987 E5.57873
G1 X117.605 Y81.987 E5.58747
M204 S25
G0 F3000 X117.731 Y82.522
G1 F2700 E-2.41253
G0 F3000 X117.499 Y81.021
G0 X121.789 Y90.86
G0 X121.04 Y89.363
G0 X128.325 Y86.248
G0 X128.832 Y86.211
G0 X129.208 Y86.708
G0 X129.208 Y92.378
G0 X129.01 Y92.693
G0 X117.723 Y98.6
M204 S5
;TYPE:WALL-INNER
G1 F2700 E5.58747
G1 F600 X129.137 Y92.892 E6.11803
G1 X129.42 Y92.438 E6.14028
G1 X129.421 Y86.636 E6.3815
G1 X128.934 Y85.986 E6.41526
G1 X128.266 Y86.04 E6.44313
G1 X117.5 Y91.424 E6.94357
G1 X106.628 Y85.988 E7.44893
G1 X105.821 Y86.136 E7.48304
G1 X105.58 Y86.763 E7.51097
G1 X105.579 Y92.439 E7.74695
G1 X105.862 Y92.893 E7.76919
G1 X117.277 Y98.6 E8.29978
G1 X117.723 Y98.6 E8.31832
M204 S25
G0 F3000 X117.605 Y98.1
M204 S5
;TYPE:WALL-OUTER
G1 F600 X128.787 Y92.508 E8.83811
G1 X128.92 Y92.295 E8.84855
G1 X128.921 Y86.803 E9.07688
G1 X128.699 Y86.507 E9.09226
G1 X128.403 Y86.531 E9.10461
G1 X117.5 Y91.983 E9.61142
G1 X106.554 Y86.51 E10.12021
G1 X106.187 Y86.577 E10.13572
G1 X106.08 Y86.856 E10.14815
G1 X106.079 Y92.296 E10.37432
G1 X106.212 Y92.509 E10.38476
G1 X117.395 Y98.1 E10.90456
G1 X117.605 Y98.1 E10.91329
M204 S25
G0 F3000 X117.731 Y98.635
G1 F2700 E2.91329
G0 F3000 X117.499 Y97.134
G0 X121.572 Y106.54
G0 X120.823 Y105.043
G0 X127.775 Y102.095
G0 X128.282 Y102.058
G0 X128.658 Y102.555
G0 X128.658 Y107.961
G0 X128.46 Y108.276
G0 X117.723 Y113.906
M204 S5
;TYPE:WALL-INNER
G1 F2700 E10.91329
G1 F600 X128.587 Y108.475 E11.41826
G1 X128.87 Y108.021 E11.4405
G1 X128.871 Y102.483 E11.67074
G1 X128.384 Y101.833 E11.70451
G1 X127.716 Y101.887 E11.73237
G1 X117.5 Y106.995 E12.20724
G1 X107.178 Y101.835 E12.68701
G1 X106.371 Y101.983 E12.72112
G1 X106.13 Y102.61 E12.74905
G1 X106.129 Y108.022 E12.97405
G1 X106.412 Y108.476 E12.99629
G1 X117.277 Y113.906 E13.50128
G1 X117.723 Y113.906 E13.51982
M204 S25
G0 F3000 X117.605 Y113.406
M204 S5
;TYPE:WALL-OUTER
G1 F600 X128.237 Y108.091 E14.01401
G1 X128.37 Y107.878 E14.02445
G1 X128.371 Y102.65 E14.2418
G1 X128.149 Y102.354 E14.25718
G1 X127.853 Y102.378 E14.26953
G1 X117.5 Y107.554 E14.75075
G1 X107.104 Y102.357 E15.23397
G1 X106.737 Y102.424 E15.24948
G1 X106.63 Y102.703 E15.2619
G1 X106.629 Y107.879 E15.47709
G1 X106.762 Y108.092 E15.48753
G1 X117.395 Y113.406 E15.98173
G1 X117.605 Y113.406 E15.99047
M204 S25
G0 F3000 X117.731 Y113.941
G1 F2700 E7.99047
G0 F3000 X117.22 Y114.147
G0 X117.5 Y112.441
G0 X117.5 Y124.312
G0 X117.22 Y122.474
G0 X112.128 Y127.999
G0 X112.011 Y128.266
G0 X112.012 Y178.365
G0 X117.113 Y183.918
M204 S5
;TYPE:WALL-INNER
G1 F2700 E15.99047
G1 F600 X117.887 Y183.918 E16.02264
G1 X123.049 Y178.755 E16.32618
G1 X123.2 Y178.411 E16.3418
G1 X123.2 Y128.221 E18.42846
G1 X123.049 Y127.877 E18.44408
G1 X117.887 Y122.714 E18.74761
G1 X117.113 Y122.714 E18.77979
G1 X111.951 Y127.877 E19.08333
G1 X111.8 Y128.221 E19.09894
G1 X111.801 Y178.41 E21.18556
G1 X111.952 Y178.754 E21.20118
G1 X117.113 Y183.918 E21.50471
M204 S25
G0 F3000 X117.32 Y183.418
M204 S5
;TYPE:WALL-OUTER
G1 F600 X117.68 Y183.418 E21.51968
G1 X122.629 Y178.468 E21.81069
G1 X122.7 Y178.306 E21.81805
G1 X122.7 Y128.326 E23.89597
G1 X122.629 Y128.164 E23.90333
G1 X117.68 Y123.214 E24.19434
G1 X117.32 Y123.214 E24.20931
G1 X112.371 Y128.164 E24.50032
G1 X112.3 Y128.326 E24.50767
G1 X112.301 Y178.305 E26.58556
G1 X112.372 Y178.467 E26.59291
G1 X117.32 Y183.418 E26.88392
M204 S25
G0 F3000 X117.11 Y183.926
G1 F2700 E18.88392
G0 F3000 X117.5 Y184.158
G0 X117.5 Y182.32
G0 X114.796 Y189.064
G0 X115.595 Y187.613
G0 X117.5 Y188.938
M204 S5
;TYPE:WALL-INNER
G1 F2700 E26.88392
G1 F600 X108.592 Y184.028 E27.30681
G1 X108.384 Y183.977 E27.31571
G1 X102.718 Y183.977 E27.55128
G1 X102.72 Y181.139 E27.66927
G1 X102.713 Y174.395 E27.94965
G1 X102.699 Y169.337 E28.15994
G1 X102.678 Y164.28 E28.37018
G1 X102.648 Y159.221 E28.58052
G1 X102.61 Y154.162 E28.79085
G1 X102.564 Y149.104 E29.00115
G1 X102.508 Y144.045 E29.21149
G1 X102.442 Y138.985 E29.42188
G1 X102.364 Y133.924 E29.63231
G1 X102.336 Y132.237 E29.70246
G1 X102.241 Y127.177 E29.91287
G1 X102.17 Y123.801 E30.05326
G1 X102.092 Y120.426 E30.19361
G1 X102.007 Y117.051 E30.33397
G1 X101.913 Y113.675 E30.47438
G1 X101.811 Y110.298 E30.61485
G1 X101.699 Y106.923 E30.75524
G1 X101.64 Y105.233 E30.82555
G1 X101.513 Y101.857 E30.966
G1 X101.445 Y100.17 E31.0362
G1 X101.302 Y96.797 E31.17656
G1 X101.151 Y93.483 E31.31448
G1 X100.998 Y90.275 E31.448
G1 X100.929 Y88.888 E31.50574
G1 X100.923 Y88.731 E31.51227
G1 X100.773 Y85.776 E31.63528
G1 X100.632 Y83.064 E31.74819
G1 X100.571 Y81.944 E31.79482
G1 X100.299 Y76.877 E32.00579
G1 X100.264 Y76.268 E32.03115
G1 X100.262 Y76.194 E32.03423
G1 X100.098 Y73.203 E32.15876
G1 X100.1 Y45.511 E33.31006
G1 X117.301 Y54.111 E34.1096
G1 X117.699 Y54.111 E34.12615
G1 X134.901 Y45.51 E34.92574
G1 X134.903 Y73.194 E36.0767
G1 X134.887 Y73.508 E36.08977
G1 X134.883 Y73.528 E36.09062
G1 X134.491 Y80.757 E36.39161
G1 X134.22 Y85.919 E36.60652
G1 X133.995 Y90.432 E36.79438
G1 X133.842 Y93.645 E36.92811
G1 X133.69 Y96.963 E37.0662
G1 X133.548 Y100.331 E37.20635
G1 X133.48 Y102.021 E37.27667
G1 X133.425 Y103.541 E37.33991
G1 X133.416 Y103.707 E37.34682
G1 X133.354 Y105.399 E37.41721
G1 X133.238 Y108.778 E37.55778
G1 X133.183 Y110.463 E37.62787
G1 X133.082 Y113.843 E37.76845
G1 X132.988 Y117.218 E37.90883
G1 X132.951 Y118.73 E37.97171
G1 X132.945 Y118.902 E37.97886
G1 X132.864 Y122.281 E38.11938
G1 X132.79 Y125.656 E38.25973
G1 X132.76 Y127.168 E38.32261
G1 X132.755 Y127.339 E38.32972
G1 X132.661 Y132.403 E38.54029
G1 X132.58 Y137.464 E38.75073
G1 X132.559 Y138.976 E38.8136
G1 X132.555 Y139.147 E38.82071
G1 X132.49 Y144.212 E39.03131
G1 X132.434 Y149.269 E39.24156
G1 X132.402 Y152.643 E39.38185
G1 X132.391 Y154.155 E39.44471
G1 X132.388 Y154.327 E39.45186
G1 X132.351 Y159.387 E39.66224
G1 X132.321 Y164.445 E39.87253
G1 X132.3 Y169.504 E40.08286
G1 X132.286 Y174.562 E40.29315
G1 X132.28 Y181.305 E40.57349
G1 X132.282 Y183.977 E40.68458
G1 X126.616 Y183.978 E40.92014
G1 X126.408 Y184.029 E40.92905
G1 X117.5 Y188.938 E41.35191
M204 S25
G0 F3000 X117.5 Y189.509
M204 S5
;TYPE:WALL-OUTER
G1 F600 X108.408 Y184.498 E41.78352
G1 X108.323 Y184.477 E41.78716
G1 X102.218 Y184.477 E42.04098
G1 X102.22 Y181.139 E42.17976
G1 X102.213 Y174.396 E42.4601
G1 X102.199 Y169.338 E42.67038
G1 X102.178 Y164.282 E42.88059
G1 X102.148 Y159.224 E43.09088
G1 X102.11 Y154.166 E43.30117
G1 X102.064 Y149.109 E43.51143
G1 X102.008 Y144.051 E43.72173
G1 X101.942 Y138.992 E43.93208
G1 X101.864 Y133.932 E44.14247
G1 X101.836 Y132.246 E44.21258
G1 X101.741 Y127.187 E44.42294
G1 X101.67 Y123.812 E44.56329
G1 X101.592 Y120.438 E44.7036
G1 X101.507 Y117.064 E44.84392
G1 X101.413 Y113.69 E44.98425
G1 X101.311 Y110.314 E45.12467
G1 X101.199 Y106.94 E45.26502
G1 X101.14 Y105.251 E45.33529
G1 X101.013 Y101.876 E45.4757
G1 X100.945 Y100.191 E45.54581
G1 X100.802 Y96.819 E45.68613
G1 X100.652 Y93.506 E45.82401
G1 X100.499 Y90.299 E45.95749
G1 X100.429 Y88.907 E46.01544
G1 X100.423 Y88.753 E46.02185
G1 X100.274 Y85.801 E46.14473
G1 X100.133 Y83.09 E46.2576
G1 X100.071 Y81.964 E46.30448
G1 X100.066 Y81.84 E46.30964
G1 X99.8 Y76.905 E46.51511
G1 X99.764 Y76.283 E46.54101
G1 X99.762 Y76.215 E46.54384
G1 X99.701 Y75.113 E46.58973
G1 X99.598 Y73.213 E46.66884
G1 X99.6 Y44.702 E47.85419
G1 X117.419 Y53.611 E48.68245
G1 X117.581 Y53.611 E48.68918
G1 X135.401 Y44.701 E49.5175
G1 X135.403 Y73.194 E50.7021
G1 X135.384 Y73.565 E50.71755
G1 X135.381 Y73.583 E50.71831
G1 X134.99 Y80.784 E51.01813
G1 X134.719 Y85.945 E51.23299
G1 X134.494 Y90.456 E51.42077
G1 X134.341 Y93.668 E51.55446
G1 X134.19 Y96.985 E51.69251
G1 X134.048 Y100.352 E51.83262
G1 X133.98 Y102.041 E51.9029
G1 X133.924 Y103.559 E51.96605
G1 X133.916 Y103.728 E51.97308
G1 X133.854 Y105.417 E52.04335
G1 X133.738 Y108.794 E52.18383
G1 X133.69 Y110.312 E52.24698
G1 X133.683 Y110.481 E52.25401
G1 X133.582 Y113.857 E52.39443
G1 X133.488 Y117.231 E52.53476
G1 X133.451 Y118.748 E52.59785
G1 X133.445 Y118.917 E52.60488
G1 X133.364 Y122.292 E52.74523
G1 X133.29 Y125.666 E52.88554
G1 X133.26 Y127.183 E52.94863
G1 X133.255 Y127.351 E52.95561
G1 X133.161 Y132.412 E53.16606
G1 X133.08 Y137.471 E53.37642
G1 X133.059 Y138.988 E53.43949
G1 X133.055 Y139.156 E53.44648
G1 X132.99 Y144.218 E53.65695
G1 X132.934 Y149.275 E53.86721
G1 X132.902 Y152.647 E54.00741
G1 X132.891 Y154.164 E54.07048
G1 X132.888 Y154.333 E54.0775
G1 X132.851 Y159.391 E54.2878
G1 X132.821 Y164.448 E54.49805
G1 X132.8 Y169.506 E54.70834
G1 X132.786 Y174.563 E54.91858
G1 X132.78 Y181.305 E55.19888
G1 X132.782 Y184.477 E55.33076
G1 X126.677 Y184.478 E55.58457
G1 X126.592 Y184.499 E55.58822
G1 X117.5 Y189.509 E56.01981
M204 S25
G0 F3000 X117.468 Y188.899
G0 X117.5 Y188.378
M204 S5
;TYPE:SKIN
G1 F600 X108.772 Y183.567 E56.43415
G1 X108.443 Y183.487 E56.44823
G1 X103.208 Y183.487 E56.66587
G1 X103.21 Y181.139 E56.76349
G1 X103.203 Y174.395 E57.04387
G1 X103.189 Y169.337 E57.25416
G1 X103.168 Y164.278 E57.46449
G1 X103.138 Y159.219 E57.67482
G1 X103.1 Y154.158 E57.88524
G1 X103.054 Y149.1 E58.09554
G1 X102.998 Y144.041 E58.30588
G1 X102.932 Y138.979 E58.51635
G1 X102.854 Y133.916 E58.72687
G1 X102.826 Y132.229 E58.79702
G1 X102.731 Y127.168 E59.00747
G1 X102.66 Y123.791 E59.1479
G1 X102.582 Y120.415 E59.28829
G1 X102.497 Y117.039 E59.4287
G1 X102.403 Y113.661 E59.56919
G1 X102.301 Y110.283 E59.7097
G1 X102.189 Y106.907 E59.85013
G1 X102.13 Y105.216 E59.92048
G1 X102.003 Y101.839 E60.06098
G1 X101.935 Y100.15 E60.13125
G1 X101.792 Y96.776 E60.27165
G1 X101.641 Y93.461 E60.40962
G1 X101.488 Y90.252 E60.54318
G1 X101.419 Y88.865 E60.60092
G1 X101.413 Y88.709 E60.60741
G1 X101.263 Y85.751 E60.73055
G1 X101.122 Y83.039 E60.84345
G1 X100.752 Y76.174 E61.12928
G1 X100.588 Y73.176 E61.25411
G1 X100.59 Y46.304 E62.37132
G1 X117.185 Y54.601 E63.14268
G1 X117.815 Y54.601 E63.16888
G1 X134.411 Y46.303 E63.9403
G1 X134.413 Y73.169 E65.05726
G1 X134.399 Y73.448 E65.06887
G1 X134.395 Y73.464 E65.06956
G1 X134.001 Y80.73 E65.37209
G1 X133.73 Y85.894 E65.58708
G1 X133.505 Y90.408 E65.77498
G1 X133.352 Y93.621 E65.90871
G1 X133.2 Y96.941 E66.04689
G1 X133.058 Y100.31 E66.18708
G1 X132.99 Y102.002 E66.25748
G1 X132.935 Y103.514 E66.32038
G1 X132.926 Y103.685 E66.3275
G1 X132.864 Y105.381 E66.39806
G1 X132.748 Y108.76 E66.53862
G1 X132.693 Y110.447 E66.6088
G1 X132.592 Y113.829 E66.74947
G1 X132.498 Y117.204 E66.88984
G1 X132.461 Y118.713 E66.9526
G1 X132.455 Y118.888 E66.95988
G1 X132.374 Y122.269 E67.10048
G1 X132.3 Y125.645 E67.24087
G1 X132.265 Y127.327 E67.31082
G1 X132.171 Y132.394 E67.52152
G1 X132.09 Y137.456 E67.732
G1 X132.065 Y139.138 E67.80193
G1 X132 Y144.206 E68.01265
G1 X131.944 Y149.263 E68.22291
G1 X131.912 Y152.638 E68.36323
G1 X131.901 Y154.147 E68.42597
G1 X131.898 Y154.321 E68.43321
G1 X131.861 Y159.383 E68.64367
G1 X131.831 Y164.441 E68.85396
G1 X131.81 Y169.502 E69.06437
G1 X131.796 Y174.56 E69.27466
G1 X131.79 Y181.303 E69.555
G1 X131.792 Y183.487 E69.6458
G1 X126.557 Y183.488 E69.86345
G1 X126.228 Y183.568 E69.87752
G1 X117.5 Y188.378 E70.29185
M204 S25
G1 F2700 E62.29185
G0 F3000 X117.34 Y188.666
G0 X115.216 Y187.404
G0 X114.417 Y188.855
G0 X117.5 Y182.32
G0 X117.012 Y184.16
G1 F2700 E70.29185
G0 F3000 X116.91 Y184.408
M204 S5
G1 F600 X118.09 Y184.408 E70.34091
G1 X123.461 Y179.037 E70.6567
G1 X123.69 Y178.513 E70.68048
G1 X123.69 Y128.119 E72.77561
G1 X123.461 Y127.595 E72.79939
G1 X118.09 Y122.224 E73.11518
G1 X116.91 Y122.224 E73.16424
G1 X111.539 Y127.595 E73.48004
G1 X111.31 Y128.119 E73.50381
G1 X111.311 Y178.512 E75.59891
G1 X111.54 Y179.035 E75.62265
G1 X116.91 Y184.408 E75.93847
M204 S25
G1 F2700 E67.93847
G0 F3000 X117.048 Y184.081
G0 X112.129 Y178.632
G0 X112.012 Y178.365
G0 X112.011 Y128.266
G0 X117.238 Y122.474
G0 X117.5 Y124.312
G0 X117.5 Y112.441
G0 X117.238 Y114.146
G1 F2700 E75.93847
G0 F3000 X117.161 Y114.396
M204 S5
G1 F600 X117.839 Y114.396 E75.96666
G1 X128.93 Y108.851 E76.48219
G1 X129.36 Y108.162 E76.51595
G1 X129.361 Y102.32 E76.75883
G1 X128.614 Y101.323 E76.81063
G1 X127.582 Y101.407 E76.85368
G1 X117.5 Y106.447 E77.32229
G1 X107.251 Y101.323 E77.79868
G1 X106.012 Y101.55 E77.85105
G1 X105.64 Y102.519 E77.8942
G1 X105.639 Y108.163 E78.12885
G1 X106.069 Y108.852 E78.16262
G1 X117.161 Y114.396 E78.67817
M204 S25
G1 F2700 E70.67817
G0 F3000 X117.238 Y114.066
G0 X106.561 Y108.313
G0 X106.341 Y107.962
G0 X106.341 Y102.65
G0 X106.529 Y102.173
G0 X107.146 Y102.057
G0 X114.336 Y105.662
G0 X114.113 Y105.011
G0 X113.365 Y106.509
G0 X117.499 Y97.134
G0 X117.194 Y98.849
G1 F2700 E78.67817
G0 F3000 X117.161 Y99.09
M204 S5
G1 F600 X117.839 Y99.09 E78.70635
G1 X129.48 Y93.268 E79.24748
G1 X129.91 Y92.579 E79.28125
G1 X129.911 Y86.473 E79.53511
G1 X129.164 Y85.476 E79.5869
G1 X128.132 Y85.56 E79.62995
G1 X117.5 Y90.876 E80.12415
G1 X106.701 Y85.476 E80.62613
G1 X105.462 Y85.703 E80.67849
G1 X105.09 Y86.672 E80.72165
G1 X105.089 Y92.58 E80.96727
G1 X105.519 Y93.269 E81.00104
G1 X117.161 Y99.09 E81.54219
M204 S25
G1 F2700 E73.54219
G0 F3000 X117.238 Y98.76
G0 X106.011 Y92.73
G0 X105.791 Y92.379
G0 X105.791 Y86.803
G0 X105.979 Y86.326
G0 X106.534 Y86.222
G0 X113.887 Y89.348
G0 X113.148 Y90.829
G0 X117.499 Y81.021
G0 X117.202 Y82.719
G1 F2700 E81.54219
G0 F3000 X117.161 Y82.977
M204 S5
G1 F600 X117.839 Y82.977 E81.57038
G1 X130.06 Y76.866 E82.13845
G1 X130.49 Y76.177 E82.17221
G1 X130.49 Y69.794 E82.43759
G1 X129.743 Y68.797 E82.48938
G1 X128.711 Y68.881 E82.53243
G1 X117.5 Y74.486 E83.05354
G1 X106.121 Y68.796 E83.58247
G1 X104.882 Y69.023 E83.63484
G1 X104.51 Y69.992 E83.67799
G1 X104.509 Y76.178 E83.93517
G1 X104.939 Y76.867 E83.96894
G1 X117.161 Y82.977 E84.53703
M204 S25
G1 F2700 E76.53703
G0 F3000 X117.238 Y82.647
G0 X129.568 Y76.327
G0 X129.788 Y75.976
G0 X129.787 Y70.029
G0 X129.483 Y69.627
G0 X128.779 Y69.125
G0 X128.604 Y71.043
G0 X119.927 Y51.416
G0 X120.667 Y52.896
G0 X133.569 Y46.356
G1 F2700 E84.53703
G0 F3000 X133.804 Y46.83
M204 S5
G1 F600 X134.21 Y47.236 E84.5609
M204 S25
G0 F3000 X134.21 Y47.943
M204 S5
G1 F600 X133.332 Y47.065 E84.61252
M204 S25
G0 F3000 X132.861 Y47.301
M204 S5
G1 F600 X134.21 Y48.651 E84.69187
M204 S25
G0 F3000 X134.21 Y49.358
M204 S5
G1 F600 X132.39 Y47.537 E84.79891
M204 S25
G0 F3000 X131.918 Y47.772
M204 S5
G1 F600 X134.21 Y50.065 E84.9337
M204 S25
G0 F3000 X134.21 Y50.772
M204 S5
G1 F600 X131.447 Y48.009 E85.09615
M204 S25
G0 F3000 X130.975 Y48.244
M204 S5
