;FLAVOR:Marlin
;TIME:909
;Filament used: 0.737973m
;Layer height: 0.2
;MINX:106.407
;MINY:88.048
;MINZ:0.2
;MAXX:128.367
;MAXY:146.846
;MAXZ:8.9
;Generated with Cura_SteamEngine 4.12.1
M140 S60
M105
M190 S60
M104 S200
M105
M109 S200
M82 ;absolute extrusion mode
; Ender 3 Custom Start G-code
G92 E0 ; Reset Extruder
G28 ; Home all axes
G1 Z2.0 F3000 ; Move Z Axis up little to prevent scratching of Heat Bed
G1 X0.1 Y20 Z0.3 F5000.0 ; Move to start position
G1 X0.1 Y200.0 Z0.3 F1500.0 E15 ; Draw the first line
G1 X0.4 Y200.0 Z0.3 F5000.0 ; Move to side a little
G1 X0.4 Y20 Z0.3 F1500.0 E30 ; Draw the second line
G92 E0 ; Reset Extruder
G1 Z2.0 F3000 ; Move Z Axis up little to prevent scratching of Heat Bed
G1 X5 Y20 Z0.3 F5000.0 ; Move over to prevent blob squish
G92 E0
G92 E0
G1 F2700 E-8
;LAYER_COUNT:31
;LAYER:0
M107
M204 S25
;MESH:Holder_clamp.stl
G0 F3000 X127.663 Y146.078 Z0.2
M204 S5
;TYPE:WALL-INNER
G1 F2700 E0
G1 F600 X127.28 Y146.181 E0.01649
G1 X127.158 Y145.811 E0.03269
G1 X126.661 Y144.714 E0.08276
G1 X126.634 Y144.678 E0.08463
G1 X126.075 Y143.733 E0.13028
G1 X125.37 Y142.792 E0.17916
G1 X124.561 Y141.929 E0.22834
G1 X123.653 Y141.15 E0.27808
G1 X123.606 Y141.124 E0.28031
G1 X122.703 Y140.504 E0.32585
G1 X121.664 Y139.948 E0.37484
G1 X120.557 Y139.506 E0.4244
G1 X119.422 Y139.19 E0.47338
G1 X118.274 Y138.999 E0.52177
G1 X117.119 Y138.937 E0.56986
G1 X114.911 Y138.937 E0.66165
G1 X112.858 Y137.014 E0.7786
G1 X112.261 Y136.462 E0.81241
G1 X112.898 Y136.462 E0.82485
G1 X114.907 Y136.462 E0.90837
G1 X115.396 Y135.973 E0.93712
G1 X115.396 Y105.909 E2.18704
G1 X114.907 Y105.42 E2.21579
G1 X107.514 Y105.42 E2.52316
G1 X106.957 Y104.798 E2.55787
G1 X106.957 Y101.376 E2.70014
G1 X106.957 Y100.628 E2.73124
G1 X107.406 Y101.226 E2.74757
G1 X107.962 Y101.967 E2.78609
G1 X108.319 Y102.146 E2.80269
G1 X116.296 Y102.146 E3.13434
G1 X116.296 Y138.034 E4.62639
G1 X116.752 Y138.519 E4.65406
G1 X118.32 Y138.605 E4.7089
G1 X119.523 Y138.803 E4.74951
G1 X120.695 Y139.131 E4.79013
G1 X121.827 Y139.586 E4.83071
G1 X122.909 Y140.165 E4.87146
G1 X123.908 Y140.847 E4.91248
G1 X124.841 Y141.647 E4.95323
G1 X125.68 Y142.544 E4.99399
G1 X126.411 Y143.52 E5.03446
G1 X127.025 Y144.557 E5.07535
G1 X127.532 Y145.677 E5.11624
G1 X127.663 Y146.078 E5.1263
M204 S25
G0 F3000 X128.303 Y146.424
M204 S5
;TYPE:WALL-OUTER
G1 F600 X126.953 Y146.786 E5.18441
G1 X126.692 Y145.993 E5.21912
G1 X126.228 Y144.97 E5.26582
G1 X126.216 Y144.954 E5.26665
G1 X125.659 Y144.011 E5.31219
G1 X124.986 Y143.114 E5.35881
G1 X124.215 Y142.291 E5.40569
G1 X123.364 Y141.561 E5.45231
G1 X123.341 Y141.548 E5.45341
G1 X122.443 Y140.932 E5.49868
G1 X121.453 Y140.402 E5.54537
G1 X120.397 Y139.98 E5.59265
G1 X119.314 Y139.679 E5.63938
G1 X118.219 Y139.497 E5.68553
G1 X117.106 Y139.437 E5.73187
G1 X114.713 Y139.437 E5.83136
G1 X112.517 Y137.38 E5.95646
G1 X111.599 Y136.531 E6.00844
G1 X111.599 Y135.962 E6.0321
G1 X114.7 Y135.962 E6.16102
G1 X114.896 Y135.766 E6.17255
G1 X114.896 Y106.116 E7.40525
G1 X114.7 Y105.92 E7.41677
G1 X107.29 Y105.92 E7.72485
G1 X106.457 Y104.989 E7.77678
G1 X106.457 Y88.098 E8.47903
G1 X107.357 Y88.098 E8.51645
G1 X107.357 Y100.269 E9.02246
G1 X107.393 Y100.376 E9.02715
G1 X108.291 Y101.573 E9.08937
G1 X108.437 Y101.646 E9.09615
G1 X116.796 Y101.646 E9.44368
G1 X116.796 Y137.836 E10.94829
G1 X116.979 Y138.031 E10.9594
G1 X118.373 Y138.107 E11.01745
G1 X119.631 Y138.314 E11.07045
G1 X120.859 Y138.658 E11.12347
G1 X122.041 Y139.133 E11.17643
G1 X123.168 Y139.736 E11.22957
G1 X124.212 Y140.449 E11.28213
G1 X125.188 Y141.286 E11.33559
G1 X126.063 Y142.221 E11.38883
G1 X126.827 Y143.241 E11.44181
G1 X127.471 Y144.329 E11.49438
G1 X127.997 Y145.492 E11.54744
G1 X128.303 Y146.424 E11.58823
M204 S25
G0 F3000 X127.895 Y146.204
G0 X125.208 Y142.928
G0 X124.415 Y142.082
G0 X123.488 Y141.299
G0 X122.593 Y140.684
G0 X121.575 Y140.139
G0 X121.268 Y140.017
G0 X116.252 Y138.222
G0 X116.012 Y138.447
M204 S5
;TYPE:SKIN
G1 F600 X115.104 Y138.447 E11.62598
G1 X113.508 Y136.952 E11.71689
G1 X115.11 Y136.952 E11.7835
G1 X115.806 Y136.256 E11.82442
G1 X115.806 Y138.228 E11.90641
G1 X116.012 Y138.447 E11.91891
M204 S25
G1 F2700 E3.91891
G0 F3000 X116.252 Y138.222
G0 X116.58 Y138.692
G0 X115 Y138.714
G0 X112.888 Y136.708
G0 X115.346 Y136.131
G0 X115.573 Y105.858
G1 F2700 E11.91891
G0 F3000 X115.806 Y105.626
M204 S5
G1 F600 X115.11 Y104.93 E11.95983
G1 X107.733 Y104.93 E12.26653
G1 X107.447 Y104.61 E12.28437
G1 X107.447 Y102.097 E12.38885
G1 X107.639 Y102.353 E12.40215
G1 X108.203 Y102.636 E12.42839
G1 X115.806 Y102.636 E12.74448
G1 X115.806 Y105.626 E12.86879
M204 S25
G0 F3000 X115.573 Y105.858
G0 X115 Y105.196
G0 X107.614 Y105.196
G0 X107.18 Y104.713
G0 X107.205 Y101.37
G0 X108.266 Y102.368
G0 X116.064 Y102.378
G0 X116.136 Y103.584
G0 X115.604 Y103.584
M204 S5
G1 F600 X114.856 Y102.835 E12.9128
M204 S25
G0 F3000 X114.149 Y102.835
M204 S5
G1 F600 X115.604 Y104.291 E12.99838
M204 S25
G0 F3000 X115.604 Y104.998
M204 S5
G1 F600 X113.442 Y102.835 E13.12553
M204 S25
G0 F3000 X112.735 Y102.835
M204 S5
G1 F600 X114.629 Y104.729 E13.23689
M204 S25
G0 F3000 X113.921 Y104.729
M204 S5
G1 F600 X112.028 Y102.835 E13.34822
M204 S25
G0 F3000 X111.321 Y102.835
M204 S5
G1 F600 X113.214 Y104.729 E13.45955
M204 S25
G0 F3000 X112.507 Y104.729
M204 S5
G1 F600 X110.614 Y102.835 E13.57088
M204 S25
G0 F3000 X109.907 Y102.835
M204 S5
G1 F600 X111.8 Y104.729 E13.68221
M204 S25
G0 F3000 X111.093 Y104.729
M204 S5
G1 F600 X109.199 Y102.835 E13.79357
M204 S25
G0 F3000 X108.492 Y102.835
M204 S5
G1 F600 X110.386 Y104.729 E13.90493
M204 S25
G0 F3000 X109.679 Y104.729
M204 S5
G1 F600 X107.646 Y102.696 E14.02446
M204 S25
G0 F3000 X107.646 Y103.403
M204 S5
G1 F600 X108.972 Y104.729 E14.10243
M204 S25
G0 F3000 X108.265 Y104.729
M204 S5
G1 F600 X107.646 Y104.11 E14.13882
M204 S25
G1 F2700 E6.13882
G0 F3000 X107.117 Y104.11
G0 X107.18 Y104.713
G0 X107.463 Y105.631
G0 X114.819 Y105.634
G0 X115.182 Y105.997
G0 X115.182 Y135.885
G0 X114.523 Y136.622
G1 F2700 E14.13882
G0 F3000 X114.523 Y137.151
M204 S5
G1 F600 X115.606 Y138.233 E14.20247
M204 S25
G0 F3000 X115.606 Y137.526
M204 S5
G1 F600 X115.211 Y137.132 E14.22566
M204 S25
G0 F3000 X114.977 Y136.63
G0 X112.888 Y136.708
G0 X115 Y138.714
G0 X116.58 Y138.692
G0 X116.136 Y136.067
G0 X115.915 Y136.067
M204 S5
;TYPE:SKIN
G1 F600 X115.595 Y135.748 E14.23506
M204 S25
G0 F3000 X115.595 Y135.394
M204 S5
G1 F600 X116.095 Y135.894 E14.24975
M204 S25
G0 F3000 X116.095 Y135.541
M204 S5
G1 F600 X115.595 Y135.041 E14.26445
M204 S25
G0 F3000 X115.595 Y134.687
M204 S5
G1 F600 X116.095 Y135.187 E14.27915
M204 S25
G0 F3000 X116.095 Y134.833
M204 S5
G1 F600 X115.595 Y134.334 E14.29384
M204 S25
G0 F3000 X115.595 Y133.98
M204 S5
G1 F600 X116.095 Y134.48 E14.30854
M204 S25
G0 F3000 X116.095 Y134.126
M204 S5
G1 F600 X115.595 Y133.626 E14.32323
M204 S25
G0 F3000 X115.595 Y133.273
M204 S5
G1 F600 X116.095 Y133.773 E14.33793
M204 S25
G0 F3000 X116.095 Y133.419
M204 S5
G1 F600 X115.595 Y132.919 E14.35263
M204 S25
G0 F3000 X115.595 Y132.566
M204 S5
G1 F600 X116.095 Y133.066 E14.36733
M204 S25
G0 F3000 X116.095 Y132.712
M204 S5
G1 F600 X115.595 Y132.212 E14.38203
M204 S25
G0 F3000 X115.595 Y131.859
M204 S5
G1 F600 X116.095 Y132.359 E14.39673
M204 S25
G0 F3000 X116.095 Y132.005
M204 S5
G1 F600 X115.595 Y131.505 E14.41143
M204 S25
G0 F3000 X115.595 Y131.152
M204 S5
G1 F600 X116.095 Y131.651 E14.42611
M204 S25
G0 F3000 X116.095 Y131.298
M204 S5
G1 F600 X115.595 Y130.798 E14.44081
M204 S25
G0 F3000 X115.595 Y130.444
M204 S5
G1 F600 X116.095 Y130.944 E14.45551
M204 S25
G0 F3000 X116.095 Y130.591
M204 S5
G1 F600 X115.595 Y130.091 E14.47021
M204 S25
G0 F3000 X115.595 Y129.737
M204 S5
G1 F600 X116.095 Y130.237 E14.48491
M204 S25
G0 F3000 X116.095 Y129.884
M204 S5
G1 F600 X115.595 Y129.384 E14.49961
M204 S25
G0 F3000 X115.595 Y129.03
M204 S5
G1 F600 X116.095 Y129.53 E14.51431
M204 S25
G0 F3000 X116.095 Y129.177
M204 S5
G1 F600 X115.595 Y128.677 E14.52901
M204 S25
G0 F3000 X115.595 Y128.323
M204 S5
G1 F600 X116.095 Y128.823 E14.54371
M204 S25
G0 F3000 X116.095 Y128.469
M204 S5
G1 F600 X115.595 Y127.97 E14.55839
M204 S25
G0 F3000 X115.595 Y127.616
M204 S5
G1 F600 X116.095 Y128.116 E14.57309
M204 S25
G0 F3000 X116.095 Y127.762
M204 S5
G1 F600 X115.595 Y127.262 E14.58779
M204 S25
G0 F3000 X115.595 Y126.909
M204 S5
G1 F600 X116.095 Y127.409 E14.60249
M204 S25
G0 F3000 X116.095 Y127.055
M204 S5
G1 F600 X115.595 Y126.555 E14.61719
M204 S25
G0 F3000 X115.595 Y126.202
M204 S5
G1 F600 X116.095 Y126.702 E14.63189
M204 S25
G0 F3000 X116.095 Y126.348
M204 S5
G1 F600 X115.595 Y125.848 E14.64658
M204 S25
G0 F3000 X115.595 Y125.495
M204 S5
G1 F600 X116.095 Y125.995 E14.66128
M204 S25
G0 F3000 X116.095 Y125.641
M204 S5
G1 F600 X115.595 Y125.141 E14.67598
M204 S25
G0 F3000 X115.595 Y124.788
M204 S5
G1 F600 X116.095 Y125.288 E14.69068
M204 S25
G0 F3000 X116.095 Y124.934
M204 S5
G1 F600 X115.595 Y124.434 E14.70538
M204 S25
G0 F3000 X115.595 Y124.08
M204 S5
G1 F600 X116.095 Y124.58 E14.72008
M204 S25
G0 F3000 X116.095 Y124.227
M204 S5
G1 F600 X115.595 Y123.727 E14.73478
M204 S25
G0 F3000 X115.595 Y123.373
M204 S5
G1 F600 X116.095 Y123.873 E14.74948
M204 S25
G0 F3000 X116.095 Y123.52
M204 S5
G1 F600 X115.595 Y123.02 E14.76418
M204 S25
G0 F3000 X115.595 Y122.666
M204 S5
G1 F600 X116.095 Y123.166 E14.77888
M204 S25
G0 F3000 X116.095 Y122.813
M204 S5
G1 F600 X115.595 Y122.313 E14.79357
M204 S25
G0 F3000 X115.595 Y121.959
M204 S5
G1 F600 X116.095 Y122.459 E14.80827
M204 S25
G0 F3000 X116.095 Y122.106
M204 S5
G1 F600 X115.595 Y121.606 E14.82297
M204 S25
G0 F3000 X115.595 Y121.252
M204 S5
G1 F600 X116.095 Y121.752 E14.83767
M204 S25
G0 F3000 X116.095 Y121.398
M204 S5
G1 F600 X115.595 Y120.898 E14.85237
M204 S25
G0 F3000 X115.595 Y120.545
M204 S5
G1 F600 X116.095 Y121.045 E14.86707
M204 S25
G0 F3000 X116.095 Y120.691
M204 S5
G1 F600 X115.595 Y120.191 E14.88177
M204 S25
G0 F3000 X115.595 Y119.838
M204 S5
G1 F600 X116.095 Y120.338 E14.89647
M204 S25
G0 F3000 X116.095 Y119.984
M204 S5
G1 F600 X115.595 Y119.484 E14.91117
M204 S25
G0 F3000 X115.595 Y119.131
M204 S5
G1 F600 X116.095 Y119.631 E14.92587
M204 S25
G0 F3000 X116.095 Y119.277
M204 S5
G1 F600 X115.595 Y118.777 E14.94057
M204 S25
G0 F3000 X115.595 Y118.424
M204 S5
G1 F600 X116.095 Y118.924 E14.95526
M204 S25
G0 F3000 X116.095 Y118.57
M204 S5
G1 F600 X115.595 Y118.07 E14.96996
M204 S25
G0 F3000 X115.595 Y117.717
M204 S5
G1 F600 X116.095 Y118.216 E14.98465
M204 S25
G0 F3000 X116.095 Y117.863
M204 S5
G1 F600 X115.595 Y117.363 E14.99935
M204 S25
G0 F3000 X115.595 Y117.009
M204 S5
G1 F600 X116.095 Y117.509 E15.01405
M204 S25
G0 F3000 X116.095 Y117.156
M204 S5
G1 F600 X115.595 Y116.656 E15.02874
M204 S25
G0 F3000 X115.595 Y116.302
M204 S5
G1 F600 X116.095 Y116.802 E15.04344
M204 S25
G0 F3000 X116.095 Y116.449
M204 S5
G1 F600 X115.595 Y115.949 E15.05814
M204 S25
G0 F3000 X115.595 Y115.595
M204 S5
G1 F600 X116.095 Y116.095 E15.07284
M204 S25
G0 F3000 X116.095 Y115.742
M204 S5
G1 F600 X115.595 Y115.242 E15.08754
M204 S25
G0 F3000 X115.595 Y114.888
M204 S5
G1 F600 X116.095 Y115.388 E15.10224
M204 S25
G0 F3000 X116.095 Y115.034
M204 S5
G1 F600 X115.595 Y114.535 E15.11692
M204 S25
G0 F3000 X115.595 Y114.181
M204 S5
G1 F600 X116.095 Y114.681 E15.13162
M204 S25
G0 F3000 X116.095 Y114.327
M204 S5
G1 F600 X115.595 Y113.827 E15.14632
M204 S25
G0 F3000 X115.595 Y113.474
M204 S5
G1 F600 X116.095 Y113.974 E15.16102
M204 S25
G0 F3000 X116.095 Y113.62
M204 S5
G1 F600 X115.595 Y113.12 E15.17572
M204 S25
G0 F3000 X115.595 Y112.767
M204 S5
G1 F600 X116.095 Y113.267 E15.19042
M204 S25
G0 F3000 X116.095 Y112.913
M204 S5
G1 F600 X115.595 Y112.413 E15.20512
M204 S25
G0 F3000 X115.595 Y112.06
M204 S5
G1 F600 X116.095 Y112.56 E15.21982
M204 S25
G0 F3000 X116.095 Y112.206
M204 S5
G1 F600 X115.595 Y111.706 E15.23452
M204 S25
G0 F3000 X115.595 Y111.353
M204 S5
G1 F600 X116.095 Y111.852 E15.2492
M204 S25
G0 F3000 X116.095 Y111.499
M204 S5
G1 F600 X115.595 Y110.999 E15.2639
M204 S25
G0 F3000 X115.595 Y110.645
M204 S5
G1 F600 X116.095 Y111.145 E15.2786
M204 S25
G0 F3000 X116.095 Y110.792
M204 S5
G1 F600 X115.595 Y110.292 E15.2933
M204 S25
G0 F3000 X115.595 Y109.938
M204 S5
G1 F600 X116.095 Y110.438 E15.308
M204 S25
G0 F3000 X116.095 Y110.085
M204 S5
G1 F600 X115.595 Y109.585 E15.3227
M204 S25
G0 F3000 X115.595 Y109.231
M204 S5
G1 F600 X116.095 Y109.731 E15.3374
M204 S25
G0 F3000 X116.095 Y109.378
M204 S5
G1 F600 X115.595 Y108.878 E15.35209
M204 S25
G0 F3000 X115.595 Y108.524
M204 S5
G1 F600 X116.095 Y109.024 E15.36679
M204 S25
G0 F3000 X116.095 Y108.67
M204 S5
G1 F600 X115.595 Y108.171 E15.38148
M204 S25
G0 F3000 X115.595 Y107.817
M204 S5
G1 F600 X116.095 Y108.317 E15.39618
M204 S25
G0 F3000 X116.095 Y107.963
M204 S5
G1 F600 X115.595 Y107.463 E15.41088
M204 S25
G0 F3000 X115.595 Y107.11
M204 S5
G1 F600 X116.095 Y107.61 E15.42557
M204 S25
G0 F3000 X116.095 Y107.256
M204 S5
G1 F600 X115.595 Y106.756 E15.44027
M204 S25
G0 F3000 X115.595 Y106.403
M204 S5
G1 F600 X116.095 Y106.903 E15.45497
M204 S25
G0 F3000 X116.095 Y106.549
M204 S5
G1 F600 X115.595 Y106.049 E15.46967
M204 S25
G0 F3000 X115.772 Y105.872
M204 S5
G1 F600 X116.095 Y106.196 E15.47918
M204 S25
G0 F3000 X116.095 Y105.842
M204 S5
G1 F600 X116.022 Y105.769 E15.48133
M204 S25
G0 F3000 X116.136 Y105.769
G0 X116.064 Y102.378
G0 X110.289 Y102.386
G0 X107.613 Y101.768
G0 X107.505 Y101.848
M204 S5
G1 F600 X107.156 Y101.499 E15.49159
M204 S25
G0 F3000 X107.156 Y101.853
M204 S5
G1 F600 X107.241 Y101.938 E15.49409
M204 S25
G1 F2700 E7.49409
G0 F3000 X107.117 Y101.938
G0 X107.18 Y104.713
G0 X107.74 Y105.63
G0 X114.819 Y105.634
G0 X115.182 Y105.997
G0 X115.182 Y135.885
G0 X114.856 Y136.211
G0 X112.973 Y136.622
G1 F2700 E15.49409
G0 F3000 X112.973 Y136.661
M204 S5
G1 F600 X113.272 Y136.96 E15.50288
M204 S25
G0 F3000 X113.373 Y136.707
M204 S5
G1 F600 X113.326 Y136.661 E15.50424
M204 S25
G0 F3000 X113.326 Y136.622
G0 X112.888 Y136.708
G0 X115 Y138.714
G0 X116.58 Y138.692
G0 X116.375 Y138.353
G0 X116.222 Y138.496
M204 S5
G1 F600 X116.461 Y138.735 E15.51127
M204 S25
G0 F3000 X116.461 Y138.777
G0 X115 Y138.714
G0 X112.052 Y136.447
M204 S5
G1 F600 X111.813 Y136.208 E15.5183
M204 S25
G1 F2700 E7.5183
G0 F3000 X111.919 Y136.282
G0 X114.819 Y136.248
G0 X115.182 Y135.885
G0 X115.182 Y105.997
G0 X114.819 Y105.634
G0 X107.614 Y105.196
G0 X107.18 Y104.713
G0 X107.091 Y100.557
G1 F2700 E15.5183
G0 F3000 X106.934 Y100.216
M204 S5
G1 F600 X106.906 Y99.835 E15.53381
G1 X106.906 Y88.875 E15.97884
G1 X107.096 Y88.358 E16.0012
M204 S25
G0 F3000 X107.051 Y88.448
G0 X106.807 Y100.307
G0 X106.671 Y100.307
M204 S5
G1 F600 X106.824 Y100.46 E16.0057
M204 S25
;MESH:NONMESH
G0 F300 X106.824 Y100.46 Z0.5
G0 F3000 X107.18 Y104.713
G0 X107.614 Y105.196
G0 X115.19 Y105.475
G0 X115.346 Y105.32
;TIME_ELAPSED:120.059054
;LAYER:1
M106 S85
M204 S252
;TYPE:WALL-INNER
;MESH:Holder_clamp.stl
G1 F900 X107.492 Y105.32 E16.4955
G1 X106.907 Y104.666 E16.55022
G1 X106.907 Y101.076 E16.7741
G1 X106.907 Y100.328 E16.82075
G1 X107.356 Y100.926 E16.84525
G1 X108.121 Y101.946 E16.92477
G1 X116.346 Y101.946 E17.4377
G1 X116.346 Y138.448 E19.71407
G1 X117.143 Y138.491 E19.76384
G1 X118.323 Y138.555 E19.83754
G1 X119.525 Y138.753 E19.91351
G1 X120.72 Y139.087 E19.99089
G1 X121.851 Y139.542 E20.06691
G1 X122.933 Y140.121 E20.14344
G1 X123.941 Y140.809 E20.21955
G1 X124.874 Y141.609 E20.2962
G1 X125.717 Y142.51 E20.37314
G1 X126.451 Y143.49 E20.4495
G1 X127.071 Y144.536 E20.52533
G1 X127.58 Y145.66 E20.60228
G1 X127.728 Y146.112 E20.63194
G1 X127.248 Y146.241 E20.65184
G1 X127.116 Y145.839 E20.67811
G1 X126.632 Y144.772 E20.75096
G1 X126.035 Y143.764 E20.82387
G1 X125.333 Y142.826 E20.89671
G1 X124.531 Y141.97 E20.96956
G1 X123.641 Y141.207 E21.04244
G1 X122.674 Y140.545 E21.11522
G1 X121.641 Y139.992 E21.18784
G1 X120.552 Y139.556 E21.2607
G1 X119.423 Y139.241 E21.33364
G1 X118.267 Y139.049 E21.4065
G1 X117.117 Y138.987 E21.47796
G1 X114.892 Y138.987 E21.61671
G1 X114.343 Y138.473 E21.66361
G1 X112.601 Y136.862 E21.81158
G1 X112.134 Y136.43 E21.85126
G1 X112.771 Y136.43 E21.87251
