;FLAVOR:Marlin
;TIME:7296
;Filament used: 4.81783m
;Layer height: 0.2
;MINX:106.836
;MINY:38.974
;MINZ:0.2
;MAXX:128.164
;MAXY:195.458
;MAXZ:28
;Generated with Cura_SteamEngine 4.8.0
M140 S60
M105
M190 S60
M104 S200
M105
M109 S200
M82 ;absolute extrusion mode
; Ender 3 Custom Start G-code
G92 E0 ; Reset Extruder
G28 ; Home all axes
G1 Z2.0 F3000 ; Move Z Axis up little to prevent scratching of Heat Bed
G1 X0.1 Y20 Z0.3 F5000.0 ; Move to start position
G1 X0.1 Y200.0 Z0.3 F1500.0 E15 ; Draw the first line
G1 X0.4 Y200.0 Z0.3 F5000.0 ; Move to side a little
G1 X0.4 Y20 Z0.3 F1500.0 E30 ; Draw the second line
G92 E0 ; Reset Extruder
G1 Z2.0 F3000 ; Move Z Axis up little to prevent scratching of Heat Bed
G1 X5 Y20 Z0.3 F5000.0 ; Move over to prevent blob squish
G92 E0
G92 E0
G1 F2700 E-8
;LAYER_COUNT:140
;LAYER:0
M107
M204 S25
;MESH:Handle.stl
G0 F3000 X114.202 Y48.04 Z0.2
M204 S5
;TYPE:WALL-INNER
G1 F2700 E0
G1 F600 X114.165 Y48.04 E0.00154
G1 X114.168 Y47.614 E0.01925
G1 X114.168 Y47.577 E0.02071
G1 X114.185 Y46.408 E0.06932
G1 X114.212 Y45.204 E0.11938
G1 X114.252 Y44.041 E0.16777
G1 X114.308 Y42.992 E0.21144
G1 X114.38 Y42.11 E0.24823
G1 X114.473 Y41.394 E0.27825
G1 X114.573 Y40.899 E0.29924
G1 X114.679 Y40.557 E0.31413
G1 X114.806 Y40.345 E0.3244
G1 X114.957 Y40.293 E0.33104
G1 X115.248 Y40.228 E0.34344
G1 X115.573 Y40.165 E0.3572
G1 X115.863 Y40.118 E0.36942
G1 X116.218 Y40.071 E0.38431
G1 X116.547 Y40.036 E0.39806
G1 X116.856 Y40.012 E0.41095
G1 X117.177 Y39.997 E0.42431
G1 X117.504 Y39.992 E0.4379
G1 X117.759 Y39.995 E0.44851
G1 X118.093 Y40.009 E0.4624
G1 X118.41 Y40.033 E0.47562
G1 X118.747 Y40.066 E0.4897
G1 X119.095 Y40.111 E0.50429
G1 X119.383 Y40.157 E0.51641
G1 X119.713 Y40.219 E0.53037
G1 X119.991 Y40.28 E0.54221
G1 X120.24 Y40.392 E0.55356
G1 X120.323 Y40.562 E0.56142
G1 X120.425 Y40.895 E0.5759
G1 X120.526 Y41.393 E0.59703
G1 X120.588 Y41.882 E0.61752
G1 X120.619 Y42.104 E0.62684
G1 X120.691 Y42.976 E0.66322
G1 X120.747 Y44.036 E0.70735
G1 X120.788 Y45.193 E0.75548
G1 X120.815 Y46.401 E0.80572
G1 X120.832 Y47.574 E0.85449
G1 X120.832 Y47.606 E0.85582
G1 X120.835 Y48.04 E0.87386
G1 X120.803 Y48.04 E0.87513
G1 X114.202 Y48.04 E1.14957
M204 S25
G0 F3000 X114.088 Y53.146
M204 S5
G1 F600 X114.088 Y53.671 E1.1714
G1 X114.088 Y56.811 E1.30194
G1 X120.912 Y56.811 E1.58565
G1 X120.912 Y53.834 E1.70942
G1 X120.912 Y53.626 E1.71807
G1 X120.912 Y53.01 E1.74368
G1 X121.013 Y53.626 E1.74653
G1 X121.221 Y53.636 E1.75269
G1 X121.822 Y53.665 E1.77771
G1 X121.839 Y53.749 E1.78127
G1 X121.88 Y54.156 E1.79828
G1 X121.891 Y54.439 E1.81005
G1 X121.915 Y54.808 E1.82542
G1 X121.918 Y54.981 E1.83262
G1 X121.937 Y55.427 E1.85118
G1 X121.939 Y55.601 E1.85841
G1 X121.952 Y56.071 E1.87796
G1 X121.963 Y56.741 E1.90582
G1 X121.963 Y56.952 E1.91459
G1 X121.969 Y57.422 E1.93413
G1 X121.976 Y61.155 E2.08933
G1 X122.251 Y61.155 E2.10077
G1 X122.252 Y62.165 E2.14276
G1 X121.264 Y64.143 E2.23468
G1 X121.252 Y64.595 E2.25348
G1 X121.257 Y65.416 E2.28761
G1 X121.271 Y69.587 E2.46102
G1 X121.375 Y109.22 E4.10878
G1 X121.375 Y109.238 E4.10953
G1 X121.399 Y118.009 E4.47418
G1 X121.518 Y162.743 E6.33401
G1 X122.132 Y163.155 E6.36476
G1 X123.219 Y163.156 E6.40995
G1 X123.22 Y165.292 E6.49875
G1 X126.632 Y165.292 E6.64061
G1 X126.7 Y165.36 E6.64461
G1 X126.7 Y188.499 E7.60661
G1 X126.702 Y193.281 E7.80543
G1 X125.202 Y193.282 E7.86779
G1 X125.202 Y194.709 E7.92712
G1 X125.202 Y194.958 E7.93747
G1 X124.953 Y194.958 E7.94416
G1 X120.427 Y194.957 E8.13233
G1 X120.427 Y183.296 E8.61714
G1 X114.573 Y183.296 E8.86052
G1 X114.573 Y194.958 E9.34537
G1 X110.047 Y194.958 E9.53354
G1 X109.798 Y194.958 E9.54389
G1 X109.798 Y194.709 E9.55059
G1 X109.799 Y193.281 E9.60995
G1 X108.299 Y193.28 E9.67232
G1 X108.301 Y188.498 E9.87113
G1 X108.3 Y165.561 E10.82474
G1 X108.3 Y165.36 E10.8331
G1 X108.368 Y165.292 E10.83709
G1 X108.569 Y165.292 E10.84545
G1 X111.78 Y165.292 E10.97895
G1 X111.78 Y163.155 E11.06779
G1 X113.081 Y163.155 E11.12188
G1 X113.484 Y162.541 E11.15242
G1 X113.6 Y118.01 E13.00381
G1 X113.624 Y109.239 E13.36847
G1 X113.624 Y109.222 E13.36917
G1 X113.735 Y67.509 E15.1034
G1 X113.748 Y64.184 E15.24164
G1 X113.556 Y63.781 E15.2602
G1 X112.749 Y62.165 E15.3353
G1 X112.748 Y61.155 E15.37729
G1 X113.027 Y61.155 E15.38889
G1 X113.028 Y58.262 E15.50917
G1 X113.032 Y57.424 E15.54401
G1 X113.038 Y56.751 E15.57199
G1 X113.049 Y56.075 E15.6001
G1 X113.064 Y55.428 E15.627
G1 X113.086 Y54.828 E15.65196
G1 X113.108 Y54.438 E15.6682
G1 X113.12 Y54.158 E15.67986
G1 X113.159 Y53.762 E15.6964
G1 X113.172 Y53.671 E15.70022
G1 X113.644 Y53.671 E15.71984
G1 X114.088 Y53.146 E15.73526
M204 S25
G1 F2700 E7.73526
G0 F3000 X114.31 Y48.262
G0 X114.588 Y48.19
G0 X114.588 Y48.54
M204 S5
;TYPE:WALL-OUTER
G1 F2700 E15.73526
G1 F600 X114.588 Y56.311 E16.05835
G1 X120.412 Y56.311 E16.30048
G1 X120.412 Y48.54 E16.62356
G1 X114.588 Y48.54 E16.86569
M204 S25
G1 F2700 E8.86569
G0 F3000 X114.588 Y48.19
G0 X114.31 Y48.262
G0 X113.841 Y53.82
G0 X113.378 Y53.902
G0 X112.971 Y62.112
G0 X113.969 Y64.134
G0 X113.858 Y109.008
G0 X114.105 Y109.24
M204 S5
;TYPE:WALL-INNER
G1 F2700 E16.86569
G1 F600 X114.088 Y109.24 E16.8664
G1 X114.088 Y118.011 E17.21425
G1 X120.912 Y118.011 E17.49796
G1 X120.912 Y109.24 E17.84508
G1 X120.894 Y109.24 E17.84583
G1 X114.105 Y109.24 E18.12808
M204 S25
G0 F3000 X114.588 Y109.74
M204 S5
;TYPE:WALL-OUTER
G1 F600 X114.588 Y117.511 E18.45116
G1 X120.412 Y117.511 E18.69329
G1 X120.412 Y109.74 E19.01637
G1 X114.588 Y109.74 E19.25851
M204 S25
G1 F2700 E11.25851
G0 F3000 X114.588 Y109.39
G0 X114.31 Y109.462
G0 X114.335 Y113.868
G0 X114.088 Y118.271
G0 X112.185 Y118.267
G0 X115.491 Y171.843
G0 X114.088 Y170.2
G0 X114.088 Y170.44
M204 S5
;TYPE:WALL-INNER
G1 F2700 E19.25851
G1 F600 X114.088 Y179.211 E19.62316
G1 X120.912 Y179.211 E19.90687
G1 X120.912 Y170.44 E20.27153
G1 X114.088 Y170.44 E20.55524
M204 S25
G0 F3000 X114.588 Y170.94
M204 S5
;TYPE:WALL-OUTER
G1 F600 X114.588 Y178.711 E20.87832
G1 X120.412 Y178.711 E21.12045
G1 X120.412 Y170.94 E21.44353
G1 X114.588 Y170.94 E21.68567
M204 S25
G1 F2700 E13.68567
G0 F3000 X114.588 Y170.59
G0 X114.338 Y170.654
G0 X113.868 Y174.597
G0 X115.503 Y174.597
G0 X108.396 Y194.684
G0 X110.03 Y194.726
G0 X109.648 Y195.138
G0 X109.298 Y195.458
M204 S5
G1 F2700 E21.68567
G1 F600 X109.299 Y193.781 E21.75539
G1 X107.799 Y193.78 E21.81775
G1 X107.801 Y188.498 E22.03735
G1 X107.8 Y165.151 E23.00801
G1 X108.161 Y164.792 E23.02917
G1 X111.28 Y164.792 E23.15885
G1 X111.28 Y162.655 E23.24769
G1 X112.811 Y162.655 E23.31134
G1 X112.984 Y162.391 E23.32447
G1 X113.235 Y67.508 E27.26926
G1 X113.248 Y64.296 E27.4028
G1 X113.107 Y64 E27.41643
G1 X112.25 Y62.285 E27.49614
G1 X112.248 Y62.099 E27.50387
G1 X112.248 Y60.655 E27.56391
G1 X112.527 Y60.655 E27.5755
G1 X112.528 Y58.26 E27.67508
G1 X112.532 Y57.42 E27.71
G1 X112.538 Y56.743 E27.73815
G1 X112.549 Y56.064 E27.76638
G1 X112.564 Y55.41 E27.79358
G1 X112.586 Y54.81 E27.81854
G1 X112.609 Y54.413 E27.83507
G1 X112.621 Y54.123 E27.84714
G1 X112.661 Y53.713 E27.86427
G1 X112.7 Y53.454 E27.87516
G1 X112.799 Y53.18 E27.88727
G1 X112.831 Y53.171 E27.88865
G1 X113.412 Y53.171 E27.91281
G1 X113.614 Y52.932 E27.92582
G1 X113.646 Y52.532 E27.9425
G1 X113.652 Y52.222 E27.95539
G1 X113.655 Y51.786 E27.97352
G1 X113.658 Y49.111 E28.08473
G1 X113.668 Y47.607 E28.14726
G1 X113.685 Y46.397 E28.19757
G1 X113.712 Y45.186 E28.24793
G1 X113.753 Y44.023 E28.29631
G1 X113.81 Y42.951 E28.34095
G1 X113.884 Y42.046 E28.3787
G1 X113.979 Y41.315 E28.40934
G1 X114.089 Y40.77 E28.43246
G1 X114.211 Y40.377 E28.44957
G1 X114.335 Y40.123 E28.46132
G1 X114.44 Y39.989 E28.4684
G1 X114.582 Y39.893 E28.47552
G1 X114.822 Y39.811 E28.48607
G1 X115.148 Y39.738 E28.49996
G1 X115.478 Y39.674 E28.51393
G1 X115.797 Y39.622 E28.52737
G1 X116.152 Y39.575 E28.54226
G1 X116.495 Y39.539 E28.5566
G1 X116.825 Y39.513 E28.57036
G1 X117.169 Y39.497 E28.58468
G1 X117.501 Y39.492 E28.59848
G1 X117.779 Y39.495 E28.61004
G1 X118.123 Y39.509 E28.62435
G1 X118.452 Y39.534 E28.63807
G1 X118.796 Y39.568 E28.65244
G1 X119.174 Y39.617 E28.66829
G1 X119.462 Y39.663 E28.68041
G1 X119.806 Y39.728 E28.69497
G1 X120.125 Y39.798 E28.70855
G1 X120.42 Y39.893 E28.72143
G1 X120.559 Y39.988 E28.72843
G1 X120.668 Y40.127 E28.73578
G1 X120.789 Y40.376 E28.74729
G1 X120.91 Y40.77 E28.76442
G1 X121.02 Y41.313 E28.78745
G1 X121.084 Y41.816 E28.80854
G1 X121.116 Y42.047 E28.81823
G1 X121.19 Y42.949 E28.85586
G1 X121.247 Y44.018 E28.90037
G1 X121.288 Y45.182 E28.94879
G1 X121.315 Y46.394 E28.99919
G1 X121.332 Y47.603 E29.04946
G1 X121.341 Y49.107 E29.11199
G1 X121.345 Y51.964 E29.23077
G1 X121.349 Y52.352 E29.2469
G1 X121.357 Y52.632 E29.25855
G1 X121.441 Y53.146 E29.2802
G1 X121.971 Y53.171 E29.30226
G1 X122.203 Y53.176 E29.31191
G1 X122.252 Y53.27 E29.31632
G1 X122.329 Y53.65 E29.33243
G1 X122.337 Y53.699 E29.3345
G1 X122.379 Y54.119 E29.35205
G1 X122.39 Y54.413 E29.36428
G1 X122.415 Y54.799 E29.38036
G1 X122.418 Y54.966 E29.38731
G1 X122.437 Y55.405 E29.40557
G1 X122.439 Y55.591 E29.41331
G1 X122.452 Y56.063 E29.43294
G1 X122.463 Y56.741 E29.46113
G1 X122.463 Y56.949 E29.46978
G1 X122.469 Y57.421 E29.4894
G1 X122.475 Y60.655 E29.62386
G1 X122.751 Y60.655 E29.63533
G1 X122.752 Y62.282 E29.70297
G1 X121.761 Y64.267 E29.79521
G1 X121.752 Y64.6 E29.80906
G1 X121.757 Y65.414 E29.84291
G1 X121.771 Y69.585 E30.01632
G1 X122.017 Y162.476 E33.87829
G1 X122.284 Y162.655 E33.89165
G1 X123.719 Y162.656 E33.95131
G1 X123.72 Y164.792 E34.04012
G1 X126.84 Y164.792 E34.16983
G1 X127.2 Y165.152 E34.191
G1 X127.2 Y188.499 E35.16166
G1 X127.202 Y193.781 E35.38126
G1 X125.702 Y193.782 E35.44362
G1 X125.702 Y195.458 E35.5133
G1 X119.927 Y195.457 E35.7534
G1 X119.927 Y183.796 E36.2382
G1 X115.073 Y183.796 E36.44001
G1 X115.073 Y195.458 E36.92486
G1 X109.298 Y195.458 E37.16496
M204 S25
G0 F3000 X109.618 Y195.138
G0 X109.959 Y194.467
G0 X110.288 Y194.468
M204 S5
;TYPE:SKIN
G1 F600 X110.289 Y192.791 E37.23468
G1 X108.789 Y192.79 E37.29704
G1 X108.791 Y188.498 E37.47548
G1 X108.79 Y165.782 E38.4199
G1 X112.27 Y165.782 E38.56458
G1 X112.27 Y163.645 E38.65343
G1 X113.346 Y163.645 E38.69816
G1 X113.974 Y162.688 E38.74575
G1 X114.09 Y118.501 E40.58284
G1 X120.911 Y118.501 E40.86643
G1 X121.029 Y163.005 E42.71669
G1 X121.983 Y163.645 E42.76446
G1 X122.729 Y163.646 E42.79547
G1 X122.73 Y165.782 E42.88428
G1 X126.21 Y165.782 E43.02896
G1 X126.21 Y188.499 E43.97342
G1 X126.212 Y192.791 E44.15186
G1 X124.712 Y192.792 E44.21422
G1 X124.712 Y194.468 E44.2839
G1 X120.917 Y194.467 E44.44168
G1 X120.917 Y182.806 E44.92649
G1 X114.083 Y182.806 E45.21061
G1 X114.083 Y194.468 E45.69546
G1 X110.288 Y194.468 E45.85324
M204 S25
G1 F2700 E37.85324
G0 F3000 X109.959 Y194.467
G0 X110.03 Y194.726
G0 X114.341 Y194.726
G0 X114.353 Y187.387
G0 X115.988 Y187.387
G0 X116.298 Y177.796
G0 X116.298 Y179.431
G0 X113.928 Y179.401
G0 X113.598 Y179.701
M204 S5
G1 F2700 E45.85324
G1 F600 X121.402 Y179.701 E46.17769
G1 X121.402 Y169.95 E46.58309
G1 X113.598 Y169.95 E46.90755
G1 X113.598 Y179.701 E47.31295
M204 S25
G1 F2700 E39.31295
G0 F3000 X113.928 Y179.401
G0 X116.298 Y179.431
G0 X116.298 Y177.796
G0 X115.988 Y187.387
G0 X114.353 Y187.387
G0 X114.341 Y194.726
G0 X110.828 Y194.798
G0 X110.828 Y194.266
M204 S5
G1 F2700 E47.31295
G1 F600 X110.488 Y193.926 E47.33294
M204 S25
G0 F3000 X110.488 Y193.219
M204 S5
G1 F600 X111.535 Y194.266 E47.3945
M204 S25
G0 F3000 X112.242 Y194.266
M204 S5
G1 F600 X108.989 Y191.014 E47.58573
M204 S25
G0 F3000 X108.989 Y191.72
M204 S5
G1 F600 X109.857 Y192.589 E47.63679
M204 S25
G0 F3000 X109.15 Y192.589
M204 S5
G1 F600 X108.989 Y192.427 E47.64629
M204 S25
G0 F3000 X108.46 Y192.426
G0 X108.461 Y190.306
G0 X108.989 Y190.307
M204 S5
G1 F600 X112.949 Y194.266 E47.87909
M204 S25
G0 F3000 X113.656 Y194.266
M204 S5
G1 F600 X108.99 Y189.6 E48.15344
M204 S25
G0 F3000 X108.99 Y188.893
M204 S5
G1 F600 X113.883 Y193.786 E48.44113
M204 S25
G0 F3000 X113.883 Y193.079
M204 S5
G1 F600 X108.99 Y188.186 E48.72882
M204 S25
G0 F3000 X108.99 Y187.479
M204 S5
G1 F600 X113.883 Y192.371 E49.01648
M204 S25
G0 F3000 X113.883 Y191.664
M204 S5
G1 F600 X108.99 Y186.772 E49.30414
M204 S25
G0 F3000 X108.99 Y186.065
M204 S5
G1 F600 X113.883 Y190.957 E49.5918
M204 S25
G0 F3000 X113.883 Y190.25
M204 S5
G1 F600 X108.99 Y185.358 E49.87946
M204 S25
G0 F3000 X108.99 Y184.651
M204 S5
G1 F600 X113.883 Y189.543 E50.16712
M204 S25
G0 F3000 X113.883 Y188.836
M204 S5
G1 F600 X108.99 Y183.943 E50.45481
M204 S25
G0 F3000 X108.99 Y183.236
M204 S5
G1 F600 X113.883 Y188.129 E50.7425
M204 S25
G0 F3000 X113.883 Y187.422
M204 S5
G1 F600 X108.99 Y182.529 E51.03019
M204 S25
G0 F3000 X108.99 Y181.822
M204 S5
G1 F600 X113.883 Y186.715 E51.31788
M204 S25
G0 F3000 X113.883 Y186.007
M204 S5
G1 F600 X108.99 Y181.115 E51.60554
M204 S25
G0 F3000 X108.99 Y180.408
M204 S5
G1 F600 X113.883 Y185.3 E51.8932
M204 S25
G0 F3000 X113.883 Y184.593
M204 S5
G1 F600 X108.99 Y179.701 E52.18086
M204 S25
G0 F3000 X108.99 Y178.994
M204 S5
G1 F600 X113.883 Y183.886 E52.46852
M204 S25
G0 F3000 X113.883 Y183.179
M204 S5
G1 F600 X108.99 Y178.287 E52.75618
M204 S25
G0 F3000 X108.99 Y177.579
M204 S5
G1 F600 X114.016 Y182.605 E53.05169
M204 S25
G0 F3000 X114.723 Y182.605
M204 S5
G1 F600 X108.989 Y176.872 E53.38879
M204 S25
G0 F3000 X108.989 Y176.165
M204 S5
G1 F600 X115.43 Y182.605 E53.76747
M204 S25
G0 F3000 X116.137 Y182.605
M204 S5
G1 F600 X113.431 Y179.899 E53.92657
M204 S25
G0 F3000 X113.398 Y179.866
M204 S5
G1 F600 X108.989 Y175.457 E54.18581
M204 S25
G0 F3000 X108.989 Y174.75
M204 S5
G1 F600 X113.398 Y179.158 E54.44501
M204 S25
G0 F3000 X113.398 Y178.451
M204 S5
G1 F600 X108.989 Y174.043 E54.70421
M204 S25
G0 F3000 X108.989 Y173.336
M204 S5
G1 F600 X113.398 Y177.744 E54.96341
M204 S25
G0 F3000 X113.398 Y177.037
M204 S5
G1 F600 X108.989 Y172.629 E55.22262
M204 S25
G0 F3000 X108.989 Y171.922
M204 S5
G1 F600 X113.398 Y176.33 E55.48182
M204 S25
G0 F3000 X113.398 Y175.623
M204 S5
G1 F600 X108.989 Y171.215 E55.74102
M204 S25
G0 F3000 X108.989 Y170.508
M204 S5
G1 F600 X113.398 Y174.916 E56.00023
M204 S25
G0 F3000 X113.398 Y174.209
M204 S5
G1 F600 X108.989 Y169.801 E56.25943
M204 S25
G0 F3000 X108.989 Y169.093
M204 S5
G1 F600 X113.398 Y173.502 E56.51866
M204 S25
G0 F3000 X113.398 Y172.794
M204 S5
G1 F600 X108.989 Y168.386 E56.77786
M204 S25
G0 F3000 X108.989 Y167.679
M204 S5
G1 F600 X113.398 Y172.087 E57.03707
M204 S25
G0 F3000 X113.398 Y171.38
M204 S5
G1 F600 X108.989 Y166.972 E57.29627
M204 S25
G0 F3000 X108.989 Y166.265
M204 S5
G1 F600 X113.398 Y170.673 E57.55547
M204 S25
G0 F3000 X113.398 Y169.966
M204 S5
G1 F600 X109.412 Y165.981 E57.78981
M204 S25
G0 F3000 X110.119 Y165.981
M204 S5
G1 F600 X113.887 Y169.748 E58.01132
M204 S25
G0 F3000 X114.594 Y169.748
M204 S5
G1 F600 X110.826 Y165.981 E58.23283
M204 S25
G0 F3000 X111.534 Y165.981
M204 S5
G1 F600 X115.301 Y169.748 E58.45432
M204 S25
G0 F3000 X116.008 Y169.748
M204 S5
G1 F600 X112.241 Y165.981 E58.6758
M204 S25
G0 F3000 X112.47 Y165.503
M204 S5
G1 F600 X116.715 Y169.748 E58.92539
M204 S25
G0 F3000 X117.422 Y169.748
M204 S5
G1 F600 X112.47 Y164.796 E59.21655
M204 S25
G0 F3000 X112.47 Y164.089
M204 S5
G1 F600 X118.129 Y169.748 E59.54928
M204 S25
G0 F3000 X118.837 Y169.748
M204 S5
G1 F600 X112.932 Y163.844 E59.89644
M204 S25
G0 F3000 X113.527 Y163.731
M204 S5
G1 F600 X119.544 Y169.748 E60.25022
M204 S25
G0 F3000 X120.251 Y169.748
M204 S5
G1 F600 X113.807 Y163.304 E60.6291
M204 S25
G0 F3000 X114.087 Y162.877
M204 S5
G1 F600 X120.958 Y169.748 E61.03309
M204 S25
G0 F3000 X121.601 Y170.392
M204 S5
G1 F600 X126.009 Y174.8 E61.29226
M204 S25
G0 F3000 X126.009 Y175.507
M204 S5
G1 F600 X121.601 Y171.099 E61.55144
M204 S25
G0 F3000 X121.601 Y171.806
M204 S5
G1 F600 X126.009 Y176.214 E61.81061
M204 S25
G0 F3000 X126.009 Y176.921
M204 S5
G1 F600 X121.601 Y172.513 E62.06978
M204 S25
G0 F3000 X121.601 Y173.22
M204 S5
G1 F600 X126.009 Y177.628 E62.32896
M204 S25
G0 F3000 X126.009 Y178.335
M204 S5
G1 F600 X121.601 Y173.927 E62.58813
M204 S25
G0 F3000 X121.601 Y174.634
M204 S5
G1 F600 X126.009 Y179.042 E62.8473
M204 S25
