;FLAVOR:Marlin
;TIME:2592
;Filament used: 1.81962m
;Layer height: 0.2
;MINX:94.325
;MINY:111.344
;MINZ:0.2
;MAXX:140.675
;MAXY:123.656
;MAXZ:27.5
;Generated with Cura_SteamEngine 4.12.1
M140 S60
M105
M190 S60
M104 S200
M105
M109 S200
M82 ;absolute extrusion mode
; Ender 3 Custom Start G-code
G92 E0 ; Reset Extruder
G28 ; Home all axes
G1 Z2.0 F3000 ; Move Z Axis up little to prevent scratching of Heat Bed
G1 X0.1 Y20 Z0.3 F5000.0 ; Move to start position
G1 X0.1 Y200.0 Z0.3 F1500.0 E15 ; Draw the first line
G1 X0.4 Y200.0 Z0.3 F5000.0 ; Move to side a little
G1 X0.4 Y20 Z0.3 F1500.0 E30 ; Draw the second line
G92 E0 ; Reset Extruder
G1 Z2.0 F3000 ; Move Z Axis up little to prevent scratching of Heat Bed
G1 X5 Y20 Z0.3 F5000.0 ; Move over to prevent blob squish
G92 E0
G92 E0
G1 F2700 E-8
;LAYER_COUNT:94
;LAYER:0
M107
M204 S25
;MESH:Holder_mid.stl
G0 F3000 X122.993 Y114.29 Z0.2
M204 S5
;TYPE:WALL-INNER
G1 F2700 E0
G1 F600 X122.994 Y113.34 E0.0395
G1 X122.466 Y112.809 E0.07063
G1 X123.065 Y112.809 E0.08259
G1 X135.206 Y112.809 E0.58736
G1 X139.897 Y117.5 E0.86317
G1 X135.206 Y122.191 E1.13898
G1 X134.621 Y122.191 E1.1633
G1 X134.019 Y122.191 E1.18833
G1 X134.548 Y121.662 E1.20646
G1 X134.548 Y120.71 E1.24604
G1 X135.722 Y120.71 E1.29485
G1 X136.074 Y120.559 E1.31077
G1 X138.685 Y117.881 E1.46627
G1 X138.685 Y117.119 E1.49795
G1 X136.074 Y114.441 E1.65345
G1 X135.722 Y114.29 E1.66938
G1 X122.993 Y114.29 E2.19859
M204 S25
G0 F3000 X122.78 Y113.428
G0 X122.358 Y113.004
G0 X112.535 Y112.809
M204 S5
G1 F600 X112.006 Y113.338 E2.22969
G1 X112.006 Y114.29 E2.26927
G1 X99.278 Y114.29 E2.79844
G1 X98.926 Y114.441 E2.81436
G1 X96.315 Y117.119 E2.96986
G1 X96.315 Y117.881 E3.00154
G1 X98.926 Y120.559 E3.15704
G1 X99.278 Y120.71 E3.17297
G1 X100.452 Y120.71 E3.22177
G1 X100.452 Y121.662 E3.26135
G1 X100.981 Y122.191 E3.29246
G1 X100.379 Y122.191 E3.30451
G1 X99.794 Y122.191 E3.32884
G1 X95.103 Y117.5 E3.60465
G1 X99.794 Y112.809 E3.88046
G1 X111.933 Y112.809 E4.38514
G1 X112.535 Y112.809 E4.3972
M204 S25
G1 F2700 E-3.6028
G0 F3000 X111.774 Y114.058
G0 X99.321 Y114.501
G0 X99.048 Y114.619
G0 X96.528 Y117.205
G0 X96.528 Y117.795
G0 X99.048 Y120.381
G0 X99.321 Y120.499
G0 X100.087 Y120.494
G0 X100.602 Y121.455
G1 F2700 E4.3972
G0 F3000 X100.952 Y121.455
M204 S5
;TYPE:WALL-OUTER
G1 F600 X101.207 Y121.71 E4.41219
G1 X133.793 Y121.71 E5.76696
G1 X134.048 Y121.455 E5.78195
G1 X134.048 Y120.21 E5.83371
G1 X135.62 Y120.21 E5.89907
G1 X135.786 Y120.139 E5.90658
G1 X138.185 Y117.678 E6.04946
G1 X138.185 Y117.322 E6.06426
G1 X135.786 Y114.861 E6.20715
G1 X135.62 Y114.79 E6.21466
G1 X122.493 Y114.79 E6.76041
G1 X122.494 Y113.546 E6.81213
G1 X122.239 Y113.29 E6.82716
G1 X112.761 Y113.29 E7.22121
G1 X112.506 Y113.545 E7.2362
G1 X112.506 Y114.79 E7.28796
G1 X99.38 Y114.79 E7.83367
G1 X99.214 Y114.861 E7.84118
G1 X96.815 Y117.322 E7.98407
G1 X96.815 Y117.678 E7.99887
G1 X99.214 Y120.139 E8.14175
G1 X99.38 Y120.21 E8.14926
G1 X100.952 Y120.21 E8.21462
G1 X100.952 Y121.455 E8.26638
M204 S25
G0 F3000 X100.444 Y121.665
G1 F2700 E0.26638
G0 F3000 X101.088 Y121.996
G0 X135.113 Y121.967
G0 X140.151 Y117.5
G1 F2700 E8.26638
G0 F3000 X140.605 Y117.5
M204 S5
G1 F600 X135.414 Y122.691 E8.57159
G1 X99.586 Y122.691 E10.06114
G1 X94.395 Y117.5 E10.36635
G1 X99.586 Y112.309 E10.67157
G1 X135.414 Y112.309 E12.16112
G1 X140.605 Y117.5 E12.46633
M204 S25
G0 F3000 X140.151 Y117.5
G0 X139.436 Y117.267
G0 X139.203 Y117.5
M204 S5
;TYPE:SKIN
G1 F600 X139.175 Y117.528 E12.46798
G1 X139.175 Y117.472 E12.47031
G1 X139.203 Y117.5 E12.47195
M204 S25
G0 F3000 X139.436 Y117.267
G0 X139.569 Y117.5
G0 X135.113 Y121.967
G0 X134.61 Y121.946
G0 X134.78 Y120.942
G0 X135.503 Y120.87
G0 X135.503 Y121.2
M204 S5
G1 F600 X135.038 Y121.665 E12.49929
G1 X135.038 Y121.2 E12.51863
G1 X135.503 Y121.2 E12.53796
M204 S25
G0 F3000 X135.503 Y120.87
G0 X138.472 Y117.795
G0 X138.472 Y117.205
G0 X135.503 Y114.13
G0 X135.503 Y113.8
M204 S5
G1 F600 X123.483 Y113.8 E13.03769
G1 X123.484 Y113.299 E13.05852
G1 X135.002 Y113.299 E13.53738
G1 X135.503 Y113.8 E13.56684
M204 S25
G0 F3000 X134.812 Y113.599
M204 S5
G1 F600 X134.712 Y113.499 E13.57272
M204 S25
G0 F3000 X134.105 Y113.599
M204 S5
G1 F600 X134.005 Y113.499 E13.5786
M204 S25
G0 F3000 X133.398 Y113.599
M204 S5
G1 F600 X133.298 Y113.499 E13.58448
M204 S25
G0 F3000 X132.691 Y113.599
M204 S5
G1 F600 X132.591 Y113.499 E13.59036
M204 S25
G0 F3000 X131.984 Y113.599
M204 S5
G1 F600 X131.883 Y113.499 E13.59627
M204 S25
G0 F3000 X131.277 Y113.599
M204 S5
G1 F600 X131.176 Y113.499 E13.60218
M204 S25
G0 F3000 X130.57 Y113.599
M204 S5
G1 F600 X130.469 Y113.499 E13.60809
M204 S25
G0 F3000 X129.862 Y113.599
M204 S5
G1 F600 X129.762 Y113.499 E13.61397
M204 S25
G0 F3000 X129.155 Y113.599
M204 S5
G1 F600 X129.055 Y113.499 E13.61985
M204 S25
G0 F3000 X128.448 Y113.599
M204 S5
G1 F600 X128.348 Y113.499 E13.62572
M204 S25
G0 F3000 X127.741 Y113.599
M204 S5
G1 F600 X127.641 Y113.499 E13.6316
M204 S25
G0 F3000 X127.034 Y113.599
M204 S5
G1 F600 X126.934 Y113.499 E13.63748
M204 S25
G0 F3000 X126.327 Y113.599
M204 S5
G1 F600 X126.227 Y113.499 E13.64336
M204 S25
G0 F3000 X125.62 Y113.599
M204 S5
G1 F600 X125.519 Y113.499 E13.64927
M204 S25
G0 F3000 X124.913 Y113.599
M204 S5
G1 F600 X124.812 Y113.499 E13.65518
M204 S25
G0 F3000 X124.206 Y113.599
M204 S5
G1 F600 X124.105 Y113.499 E13.66109
M204 S25
G0 F3000 X124.105 Y112.969
G0 X135.113 Y113.033
G0 X135.855 Y113.686
G0 X135.73 Y113.81
M204 S5
;TYPE:SKIN
G1 F600 X139.162 Y117.242 E13.76199
M204 S25
G0 F3000 X138.884 Y117.671
M204 S5
G1 F600 X139.163 Y117.95 E13.77019
M204 S25
G0 F3000 X138.986 Y118.127
M204 S5
G1 F600 X138.853 Y117.993 E13.77411
M204 S25
G0 F3000 X138.678 Y118.172
M204 S5
G1 F600 X138.81 Y118.303 E13.77798
M204 S25
G0 F3000 X138.633 Y118.48
M204 S5
G1 F600 X138.503 Y118.351 E13.78178
M204 S25
G0 F3000 X138.329 Y118.53
M204 S5
G1 F600 X138.456 Y118.657 E13.78552
M204 S25
G0 F3000 X138.279 Y118.834
M204 S5
G1 F600 X138.155 Y118.709 E13.78918
M204 S25
G0 F3000 X137.98 Y118.888
M204 S5
G1 F600 X138.102 Y119.011 E13.79278
M204 S25
G0 F3000 X137.926 Y119.187
M204 S5
G1 F600 X137.805 Y119.067 E13.79632
M204 S25
G0 F3000 X137.631 Y119.246
M204 S5
G1 F600 X137.749 Y119.364 E13.79979
M204 S25
G0 F3000 X137.572 Y119.541
M204 S5
G1 F600 X137.456 Y119.425 E13.8032
M204 S25
G0 F3000 X137.282 Y119.604
M204 S5
G1 F600 X137.395 Y119.718 E13.80654
M204 S25
G0 F3000 X137.219 Y119.894
M204 S5
G1 F600 X137.108 Y119.783 E13.8098
M204 S25
G0 F3000 X136.933 Y119.962
M204 S5
G1 F600 X137.042 Y120.071 E13.81301
M204 S25
G0 F3000 X136.865 Y120.248
M204 S5
G1 F600 X136.758 Y120.141 E13.81615
M204 S25
G0 F3000 X136.584 Y120.32
M204 S5
G1 F600 X136.688 Y120.425 E13.81922
M204 S25
G0 F3000 X136.511 Y120.602
M204 S5
G1 F600 X136.409 Y120.499 E13.82224
M204 S25
G0 F3000 X136.235 Y120.679
M204 S5
G1 F600 X136.335 Y120.778 E13.82516
M204 S25
G0 F3000 X136.158 Y120.955
M204 S5
G1 F600 X136.007 Y120.804 E13.8296
M204 S25
G0 F3000 X135.759 Y120.91
M204 S5
G1 F600 X135.981 Y121.132 E13.83613
M204 S25
G0 F3000 X135.804 Y121.309
M204 S5
G1 F600 X135.764 Y121.268 E13.83732
M204 S25
G0 F3000 X135.055 Y121.973
M204 S5
G1 F600 X134.939 Y121.857 E13.84073
M204 S25
G0 F3000 X134.718 Y121.99
M204 S5
G1 F600 X134.609 Y121.881 E13.84393
M204 S25
G1 F2700 E5.84393
G0 F3000 X134.583 Y121.855
G0 X134.326 Y120.488
G0 X135.679 Y120.499
G0 X135.952 Y120.381
G0 X138.472 Y117.795
G0 X138.472 Y117.205
G0 X135.952 Y114.619
G0 X135.679 Y114.501
G0 X122.771 Y114.512
G0 X122.78 Y113.428
G0 X122.358 Y113.004
G0 X112.642 Y113.004
G0 X111.846 Y113.8
G1 F2700 E13.84393
G0 F3000 X111.516 Y113.8
M204 S5
;TYPE:SKIN
G1 F600 X99.497 Y113.8 E14.34362
G1 X99.998 Y113.299 E14.37308
G1 X111.516 Y113.299 E14.85194
G1 X111.516 Y113.8 E14.87277
M204 S25
G0 F3000 X111.846 Y113.8
G0 X111.774 Y114.058
G0 X99.321 Y114.501
G0 X99.048 Y114.619
G0 X96.528 Y117.205
G0 X96.528 Y117.795
G0 X99.048 Y120.381
G0 X99.321 Y120.499
G0 X100.416 Y120.491
G0 X100.292 Y121.665
G0 X99.962 Y121.665
M204 S5
G1 F600 X99.497 Y121.2 E14.90011
G1 X99.962 Y121.2 E14.91945
G1 X99.962 Y121.665 E14.93878
M204 S25
G0 F3000 X100.292 Y121.665
G0 X100.22 Y120.942
G0 X99.635 Y120.942
G0 X96.155 Y117.528
G0 X95.825 Y117.528
M204 S5
G1 F600 X95.797 Y117.5 E14.94042
G1 X95.825 Y117.472 E14.94207
G1 X95.825 Y117.528 E14.9444
M204 S25
G0 F3000 X96.155 Y117.528
G0 X99.233 Y120.931
G0 X100.22 Y120.942
G0 X100.39 Y121.946
G0 X99.887 Y121.967
G0 X95.431 Y117.5
G0 X99.698 Y113.133
G0 X100.071 Y113.506
M204 S5
G1 F600 X100.164 Y113.599 E14.94987
M204 S25
G0 F3000 X100.77 Y113.498
M204 S5
G1 F600 X100.871 Y113.599 E14.95581
M204 S25
G0 F3000 X101.477 Y113.498
M204 S5
G1 F600 X101.578 Y113.599 E14.96174
M204 S25
G0 F3000 X102.184 Y113.498
M204 S5
G1 F600 X102.285 Y113.599 E14.96768
M204 S25
G0 F3000 X102.891 Y113.498
M204 S5
G1 F600 X102.992 Y113.599 E14.97362
M204 S25
G0 F3000 X103.598 Y113.498
M204 S5
G1 F600 X103.7 Y113.599 E14.97959
M204 S25
G0 F3000 X104.306 Y113.498
M204 S5
G1 F600 X104.407 Y113.599 E14.98553
M204 S25
G0 F3000 X105.013 Y113.498
M204 S5
G1 F600 X105.114 Y113.599 E14.99147
M204 S25
G0 F3000 X105.72 Y113.498
M204 S5
G1 F600 X105.821 Y113.599 E14.9974
M204 S25
G0 F3000 X106.427 Y113.498
M204 S5
G1 F600 X106.528 Y113.599 E15.00334
M204 S25
G0 F3000 X107.134 Y113.498
M204 S5
G1 F600 X107.235 Y113.599 E15.00928
M204 S25
G0 F3000 X107.841 Y113.498
M204 S5
G1 F600 X107.942 Y113.599 E15.01522
M204 S25
G0 F3000 X108.548 Y113.498
M204 S5
G1 F600 X108.649 Y113.599 E15.02116
M204 S25
G0 F3000 X109.255 Y113.498
M204 S5
G1 F600 X109.356 Y113.599 E15.0271
M204 S25
G0 F3000 X109.962 Y113.498
M204 S5
G1 F600 X110.063 Y113.599 E15.03303
M204 S25
G0 F3000 X110.669 Y113.498
M204 S5
G1 F600 X110.771 Y113.599 E15.039
M204 S25
G0 F3000 X110.771 Y114.13
G0 X111.774 Y114.058
G0 X111.851 Y113.265
G0 X111.73 Y113.144
M204 S5
;TYPE:SKIN
G1 F600 X111.823 Y113.237 E15.04174
M204 S25
G0 F3000 X111.851 Y113.265
G0 X99.887 Y113.033
G0 X99.168 Y113.663
G0 X99.234 Y113.73
M204 S5
G1 F600 X99.195 Y113.69 E15.0429
M204 S25
G0 F3000 X99.018 Y113.867
M204 S5
G1 F600 X99.239 Y114.088 E15.04939
M204 S25
G0 F3000 X98.991 Y114.194
M204 S5
G1 F600 X98.841 Y114.044 E15.0538
M204 S25
G0 F3000 X98.664 Y114.221
M204 S5
G1 F600 X98.764 Y114.32 E15.05673
M204 S25
G0 F3000 X98.589 Y114.499
M204 S5
G1 F600 X98.487 Y114.397 E15.05973
M204 S25
G0 F3000 X98.311 Y114.574
M204 S5
G1 F600 X98.415 Y114.679 E15.0628
M204 S25
G0 F3000 X98.241 Y114.858
M204 S5
G1 F600 X98.134 Y114.751 E15.06595
M204 S25
G0 F3000 X97.957 Y114.928
M204 S5
G1 F600 X98.066 Y115.037 E15.06915
M204 S25
G0 F3000 X97.891 Y115.215
M204 S5
G1 F600 X97.78 Y115.104 E15.07241
M204 S25
G0 F3000 X97.604 Y115.281
M204 S5
G1 F600 X97.717 Y115.394 E15.07574
M204 S25
G0 F3000 X97.542 Y115.573
M204 S5
G1 F600 X97.427 Y115.458 E15.07912
M204 S25
G0 F3000 X97.25 Y115.635
M204 S5
G1 F600 X97.367 Y115.752 E15.08256
M204 S25
G0 F3000 X97.193 Y115.931
M204 S5
G1 F600 X97.073 Y115.812 E15.08607
M204 S25
G0 F3000 X96.896 Y115.988
M204 S5
G1 F600 X97.018 Y116.11 E15.08966
M204 S25
G0 F3000 X96.844 Y116.29
M204 S5
G1 F600 X96.72 Y116.165 E15.09332
M204 S25
G0 F3000 X96.543 Y116.342
M204 S5
G1 F600 X96.669 Y116.468 E15.09702
M204 S25
G0 F3000 X96.495 Y116.647
M204 S5
G1 F600 X96.366 Y116.519 E15.1008
M204 S25
G0 F3000 X96.189 Y116.695
M204 S5
G1 F600 X96.32 Y116.826 E15.10465
M204 S25
G0 F3000 X96.146 Y117.005
M204 S5
G1 F600 X96.013 Y116.872 E15.10856
M204 S25
G0 F3000 X95.836 Y117.049
M204 S5
G1 F600 X96.114 Y117.328 E15.11675
M204 S25
G0 F3000 X95.836 Y117.756
M204 S5
G1 F600 X99.268 Y121.188 E15.21764
M204 S25
G0 F3000 X99.972 Y121.893
M204 S5
G1 F600 X100.069 Y121.99 E15.22049
M204 S25
G0 F3000 X100.187 Y121.753
M204 S5
G1 F600 X100.414 Y121.98 E15.22717
M204 S25
G0 F3000 X101.347 Y122.207
M204 S5
G1 F600 X101.693 Y122.2 E15.24326
G1 X133.513 Y122.2 E16.72265
G1 X133.694 Y122.027 E16.73429
M204 S25
G0 F3000 X133.796 Y122.129
G0 X134.334 Y121.574
G0 X134.326 Y120.488
G0 X135.679 Y120.499
G0 X135.952 Y120.381
G0 X138.472 Y117.795
G0 X138.472 Y117.205
G0 X135.952 Y114.619
G0 X135.679 Y114.501
G0 X123.225 Y114.058
G0 X122.266 Y112.94
G0 X122.266 Y113.074
M204 S5
G1 F600 X121.716 Y112.524 E16.75046
M204 S25
G0 F3000 X122.174 Y112.629
M204 S5
G1 F600 X121.637 Y112.799 E16.77534
G1 X113.152 Y112.799 E17.15025
G1 X112.678 Y113.032 E17.17359
M204 S25
G0 F3000 X112.619 Y112.948
G0 X111.774 Y114.058
G0 X99.321 Y114.501
G0 X99.048 Y114.619
G0 X96.528 Y117.205
G0 X96.528 Y117.795
G0 X99.048 Y120.381
G0 X99.321 Y120.499
G0 X100.674 Y120.488
G0 X100.666 Y121.574
G0 X101.261 Y122.341
G0 X101.261 Y122.475
M204 S5
G1 F600 X101.132 Y122.345 E17.17739
M204 S25
;MESH:NONMESH
G0 F300 X101.132 Y122.345 Z0.5
G0 F3000 X101.132 Y122.341
G0 X100.22 Y120.942
G0 X99.048 Y120.381
G0 X96.155 Y117.5
G0 X96.014 Y117.5
;TIME_ELAPSED:104.566307
;LAYER:1
M106 S85
M204 S252
;TYPE:WALL-INNER
;MESH:Holder_mid.stl
G1 F900 X99.093 Y120.66 E17.45254
G1 X100.502 Y120.66 E17.54041
G1 X100.502 Y122.16 E17.63395
G1 X134.498 Y122.16 E19.75404
G1 X134.498 Y120.66 E19.84758
G1 X135.907 Y120.66 E19.93545
G1 X138.986 Y117.5 E20.21059
G1 X135.907 Y114.34 E20.48574
G1 X122.943 Y114.34 E21.29421
G1 X122.944 Y112.84 E21.38775
G1 X112.056 Y112.84 E22.06676
G1 X112.056 Y114.34 E22.1603
G1 X99.093 Y114.34 E22.96871
G1 X96.014 Y117.5 E23.24386
M204 S138
G0 F9000 X96.712 Y117.5
M204 S252
;TYPE:WALL-OUTER
G1 F900 X99.304 Y120.16 E23.47548
G1 X101.002 Y120.16 E23.58137
G1 X101.002 Y121.66 E23.67491
G1 X133.998 Y121.66 E25.73263
G1 X133.998 Y120.16 E25.82618
G1 X135.696 Y120.16 E25.93207
G1 X138.288 Y117.5 E26.16369
G1 X135.696 Y114.84 E26.3953
G1 X122.443 Y114.84 E27.2218
G1 X122.444 Y113.34 E27.31534
G1 X112.556 Y113.34 E27.93198
G1 X112.556 Y114.84 E28.02553
G1 X99.304 Y114.84 E28.85196
G1 X96.712 Y117.5 E29.08358
M204 S138
G1 F2700 E21.08358
G0 F9000 X96.463 Y117.256
G0 X99.184 Y114.554
G0 X112.278 Y114.562
G0 X112.278 Y113.062
G0 X122.722 Y113.062
G0 X122.721 Y114.562
G0 X135.816 Y114.554
G0 X139.309 Y117.5
G0 X136.002 Y120.884
G0 X134.73 Y120.892
G0 X134.73 Y122.009
G0 X135.092 Y122.016
G0 X139.967 Y117.5
M204 S252
;TYPE:WALL-INNER
G1 F2700 E29.08358
G1 F900 X135.226 Y122.241 E29.50171
G1 X134.498 Y122.241 E29.54711
G1 X100.502 Y122.241 E29.89125
G1 X99.774 Y122.241 E29.93665
G1 X95.033 Y117.5 E30.35478
G1 X99.774 Y112.759 E30.77291
G1 X112.056 Y112.759 E31.53885
G1 X122.944 Y112.759 E31.64907
G1 X135.226 Y112.759 E32.415
G1 X139.967 Y117.5 E32.83313
M204 S138
G0 F9000 X140.675 Y117.5
M204 S252
;TYPE:WALL-OUTER
G1 F900 X135.434 Y122.741 E33.29536
G1 X99.566 Y122.741 E35.53219
G1 X94.325 Y117.5 E35.99441
G1 X99.566 Y112.259 E36.45664
G1 X135.434 Y112.259 E38.69347
G1 X140.675 Y117.5 E39.15569
M204 S138
G0 F9000 X140.221 Y117.5
G0 X135.133 Y122.017
G0 X134.73 Y122.009
G0 X134.73 Y120.892
G0 X135.623 Y120.82
G0 X135.623 Y121.15
M204 S252
;TYPE:SKIN
G1 F1800 X135.022 Y121.751 E39.2087
G1 X134.988 Y121.751 E39.21082
G1 X134.988 Y121.15 E39.2483
G1 X135.623 Y121.15 E39.2879
M204 S138
G0 F9000 X135.623 Y120.82
G0 X138.677 Y117.5
G0 X135.623 Y114.18
G0 X135.623 Y113.85
M204 S252
G1 F1800 X123.433 Y113.85 E40.0481
G1 X123.434 Y113.249 E40.08558
G1 X135.022 Y113.249 E40.80824
G1 X135.623 Y113.85 E40.86124
M204 S138
G0 F9000 X134.745 Y113.448
M204 S252
G1 F1800 X134.544 Y113.649 E40.87897
M204 S138
G0 F9000 X134.038 Y113.448
M204 S252
G1 F1800 X133.837 Y113.649 E40.8967
M204 S138
G0 F9000 X133.331 Y113.448
M204 S252
G1 F1800 X133.13 Y113.649 E40.91443
M204 S138
G0 F9000 X132.624 Y113.448
M204 S252
G1 F1800 X132.423 Y113.649 E40.93215
M204 S138
G0 F9000 X131.917 Y113.448
M204 S252
G1 F1800 X131.716 Y113.649 E40.94988
M204 S138
G0 F9000 X131.21 Y113.448
M204 S252
G1 F1800 X131.009 Y113.649 E40.96761
M204 S138
G0 F9000 X130.502 Y113.448
M204 S252
G1 F1800 X130.302 Y113.649 E40.98529
M204 S138
G0 F9000 X129.795 Y113.448
M204 S252
G1 F1800 X129.594 Y113.649 E41.00302
M204 S138
G0 F9000 X129.088 Y113.448
M204 S252
G1 F1800 X128.887 Y113.649 E41.02074
M204 S138
G0 F9000 X128.381 Y113.448
M204 S252
G1 F1800 X128.18 Y113.649 E41.03847
M204 S138
