;FLAVOR:Marlin
;TIME:5118
;Filament used: 6.62737m
;Layer height: 0.2
;MINX:97.802
;MINY:24.796
;MINZ:0.2
;MAXX:137.198
;MAXY:208.941
;MAXZ:3.9
;Generated with Cura_SteamEngine 4.12.1
M140 S60
M105
M190 S60
M104 S200
M105
M109 S200
M82 ;absolute extrusion mode
; Ender 3 Custom Start G-code
G92 E0 ; Reset Extruder
G28 ; Home all axes
G1 Z2.0 F3000 ; Move Z Axis up little to prevent scratching of Heat Bed
G1 X0.1 Y20 Z0.3 F5000.0 ; Move to start position
G1 X0.1 Y200.0 Z0.3 F1500.0 E15 ; Draw the first line
G1 X0.4 Y200.0 Z0.3 F5000.0 ; Move to side a little
G1 X0.4 Y20 Z0.3 F1500.0 E30 ; Draw the second line
G92 E0 ; Reset Extruder
G1 Z2.0 F3000 ; Move Z Axis up little to prevent scratching of Heat Bed
G1 X5 Y20 Z0.3 F5000.0 ; Move over to prevent blob squish
G92 E0
G92 E0
G1 F2700 E-8
;LAYER_COUNT:15
;LAYER:0
M107
M204 S25
;MESH:Blade_2.stl
G0 F3000 X117.853 Y42.444 Z0.2
M204 S5
;TYPE:WALL-INNER
G1 F2700 E0
G1 F600 X118.165 Y42.398 E0.01311
G1 X118.475 Y42.322 E0.02638
G1 X118.786 Y42.217 E0.04003
G1 X119.087 Y42.09 E0.05361
G1 X119.416 Y41.898 E0.06945
G1 X119.713 Y41.692 E0.08448
G1 X119.965 Y41.475 E0.0983
G1 X120.173 Y41.253 E0.11095
G1 X120.454 Y40.891 E0.13
G1 X120.641 Y40.585 E0.14491
G1 X120.797 Y40.252 E0.1602
G1 X120.929 Y39.88 E0.17661
G1 X121.005 Y39.55 E0.19069
G1 X121.061 Y39.07 E0.21078
G1 X121.061 Y38.722 E0.22525
G1 X121.027 Y38.362 E0.24028
G1 X120.948 Y37.983 E0.25638
G1 X120.843 Y37.647 E0.27101
G1 X120.696 Y37.31 E0.2863
G1 X120.542 Y37.035 E0.2994
G1 X120.35 Y36.751 E0.31366
G1 X120.144 Y36.504 E0.32703
G1 X119.9 Y36.258 E0.34143
G1 X119.655 Y36.056 E0.35463
G1 X119.388 Y35.873 E0.36809
G1 X119.095 Y35.707 E0.38209
G1 X118.738 Y35.552 E0.39827
G1 X118.424 Y35.453 E0.41196
G1 X118.066 Y35.376 E0.42719
G1 X117.672 Y35.334 E0.44366
G1 X117.326 Y35.334 E0.45804
G1 X116.971 Y35.368 E0.47287
G1 X116.588 Y35.446 E0.48912
G1 X116.249 Y35.553 E0.5039
G1 X115.91 Y35.701 E0.51928
G1 X115.583 Y35.892 E0.53502
G1 X115.342 Y36.059 E0.54721
G1 X115.069 Y36.284 E0.56192
G1 X114.847 Y36.512 E0.57515
G1 X114.648 Y36.753 E0.58815
G1 X114.479 Y37.006 E0.6008
G1 X114.313 Y37.299 E0.6148
G1 X114.161 Y37.648 E0.63062
G1 X114.057 Y37.971 E0.64473
G1 X113.979 Y38.335 E0.66021
G1 X113.939 Y38.723 E0.67642
G1 X113.939 Y39.071 E0.69089
G1 X113.973 Y39.428 E0.7058
G1 X114.052 Y39.807 E0.7219
G1 X114.157 Y40.143 E0.73653
G1 X114.306 Y40.485 E0.75204
G1 X114.497 Y40.811 E0.76775
G1 X114.662 Y41.051 E0.77986
G1 X114.852 Y41.281 E0.79226
G1 X115.037 Y41.476 E0.80344
G1 X115.285 Y41.691 E0.81708
G1 X115.528 Y41.866 E0.82953
G1 X115.81 Y42.036 E0.84322
G1 X116.137 Y42.19 E0.85825
G1 X116.591 Y42.341 E0.87814
G1 X116.942 Y42.416 E0.89306
G1 X117.321 Y42.455 E0.9089
G1 X117.496 Y42.46 E0.91618
G1 X117.853 Y42.444 E0.93104
M204 S25
G0 F3000 X117.805 Y41.946
M204 S5
;TYPE:WALL-OUTER
G1 F600 X118.069 Y41.907 E0.94214
G1 X118.335 Y41.842 E0.95352
G1 X118.608 Y41.749 E0.96551
G1 X118.863 Y41.642 E0.97701
G1 X119.148 Y41.476 E0.99072
G1 X119.354 Y41.334 E1.00112
G1 X119.405 Y41.298 E1.00372
G1 X119.618 Y41.114 E1.01542
G1 X119.792 Y40.928 E1.02601
G1 X120.042 Y40.606 E1.04296
G1 X120.2 Y40.348 E1.05553
G1 X120.334 Y40.062 E1.06867
G1 X120.448 Y39.74 E1.08287
G1 X120.512 Y39.464 E1.09465
G1 X120.561 Y39.041 E1.11235
G1 X120.561 Y38.745 E1.12466
G1 X120.532 Y38.436 E1.13756
G1 X120.464 Y38.109 E1.15145
G1 X120.374 Y37.823 E1.16391
G1 X120.247 Y37.532 E1.17711
G1 X120.116 Y37.297 E1.1883
G1 X119.95 Y37.052 E1.2006
G1 X119.774 Y36.841 E1.21202
G1 X119.563 Y36.628 E1.22449
G1 X119.354 Y36.456 E1.23574
G1 X119.123 Y36.298 E1.24738
G1 X118.871 Y36.155 E1.25942
G1 X118.563 Y36.021 E1.27339
G1 X118.296 Y35.937 E1.28503
G1 X117.987 Y35.87 E1.29817
G1 X117.646 Y35.834 E1.31243
G1 X117.35 Y35.834 E1.32473
G1 X117.045 Y35.863 E1.33747
G1 X116.714 Y35.931 E1.35152
G1 X116.425 Y36.022 E1.36412
G1 X116.137 Y36.148 E1.37719
G1 X115.852 Y36.314 E1.3909
G1 X115.644 Y36.458 E1.40142
G1 X115.408 Y36.652 E1.41412
G1 X115.22 Y36.846 E1.42535
G1 X115.05 Y37.052 E1.43645
G1 X114.905 Y37.269 E1.4473
G1 X114.761 Y37.523 E1.45944
G1 X114.629 Y37.825 E1.47315
G1 X114.541 Y38.1 E1.48515
G1 X114.474 Y38.413 E1.49846
G1 X114.439 Y38.749 E1.5125
G1 X114.439 Y39.047 E1.52489
G1 X114.468 Y39.353 E1.53767
G1 X114.536 Y39.681 E1.5516
G1 X114.626 Y39.967 E1.56406
G1 X114.753 Y40.258 E1.57726
G1 X114.919 Y40.543 E1.59098
G1 X115.061 Y40.749 E1.60138
G1 X115.226 Y40.949 E1.61216
G1 X115.383 Y41.114 E1.62163
G1 X115.595 Y41.298 E1.6333
G1 X115.804 Y41.448 E1.64399
G1 X116.047 Y41.595 E1.6558
G1 X116.323 Y41.725 E1.66848
G1 X116.722 Y41.858 E1.68597
G1 X117.02 Y41.921 E1.69863
G1 X117.354 Y41.956 E1.71259
G1 X117.492 Y41.96 E1.71833
G1 X117.805 Y41.946 E1.73136
M204 S25
G0 F3000 X117.857 Y42.493
G1 F2700 E-6.26864
G0 F3000 X117.498 Y42.7
G0 X117.501 Y41.046
G0 X117.5 Y51.743
G0 X117.504 Y50.087
G0 X119.339 Y51.087
G0 X119.926 Y51.581
G0 X120.506 Y52.401
G0 X120.797 Y53.279
G0 X120.838 Y54.221
G0 X120.601 Y55.17
G0 X120.081 Y56.032
G0 X119.511 Y56.577
G0 X117.886 Y57.438
M204 S5
;TYPE:WALL-INNER
G1 F2700 E1.73136
G1 F600 X118.302 Y57.365 E1.74892
G1 X118.712 Y57.247 E1.76666
G1 X119.01 Y57.123 E1.78008
G1 X119.358 Y56.937 E1.79648
G1 X119.634 Y56.749 E1.81037
G1 X119.725 Y56.68 E1.81511
G1 X119.967 Y56.47 E1.82843
G1 X120.244 Y56.167 E1.8455
G1 X120.423 Y55.93 E1.85785
G1 X120.627 Y55.603 E1.87387
G1 X120.796 Y55.252 E1.89007
G1 X120.908 Y54.937 E1.90397
G1 X121.003 Y54.557 E1.92025
G1 X121.048 Y54.242 E1.93348
G1 X121.066 Y53.902 E1.94764
G1 X121.049 Y53.534 E1.96296
G1 X121.003 Y53.239 E1.97537
G1 X120.93 Y52.922 E1.98889
G1 X120.834 Y52.634 E2.00151
G1 X120.695 Y52.306 E2.01632
G1 X120.5 Y51.972 E2.0324
G1 X120.298 Y51.685 E2.047
G1 X120.083 Y51.44 E2.06055
G1 X119.965 Y51.313 E2.06775
G1 X119.721 Y51.101 E2.08119
G1 X119.455 Y50.91 E2.09481
G1 X119.188 Y50.751 E2.10773
G1 X118.889 Y50.611 E2.12145
G1 X118.486 Y50.465 E2.13927
G1 X118.163 Y50.388 E2.15308
G1 X117.846 Y50.344 E2.16638
G1 X117.504 Y50.327 E2.18062
G1 X117.114 Y50.347 E2.19686
G1 X116.7 Y50.42 E2.21433
G1 X116.313 Y50.529 E2.23105
G1 X116.012 Y50.655 E2.24462
G1 X115.645 Y50.846 E2.26182
G1 X115.366 Y51.036 E2.27585
G1 X115.275 Y51.104 E2.28057
G1 X115.033 Y51.314 E2.29389
G1 X114.755 Y51.619 E2.31105
G1 X114.576 Y51.856 E2.3234
G1 X114.373 Y52.182 E2.33937
G1 X114.204 Y52.533 E2.35556
G1 X114.071 Y52.906 E2.37203
G1 X113.996 Y53.231 E2.38589
G1 X113.954 Y53.524 E2.3982
G1 X113.934 Y53.881 E2.41307
G1 X113.951 Y54.251 E2.42846
G1 X113.997 Y54.558 E2.44137
G1 X114.081 Y54.9 E2.45601
G1 X114.183 Y55.191 E2.46883
G1 X114.305 Y55.479 E2.48184
G1 X114.496 Y55.808 E2.49765
G1 X114.661 Y56.048 E2.50976
G1 X114.852 Y56.279 E2.52222
G1 X115.037 Y56.474 E2.5334
G1 X115.279 Y56.684 E2.54672
G1 X115.544 Y56.874 E2.56028
G1 X115.811 Y57.034 E2.57322
G1 X116.108 Y57.173 E2.58685
G1 X116.512 Y57.32 E2.60472
G1 X116.838 Y57.397 E2.61865
G1 X117.154 Y57.441 E2.63191
G1 X117.496 Y57.458 E2.64615
G1 X117.886 Y57.438 E2.66239
M204 S25
G0 F3000 X117.83 Y56.94
M204 S5
;TYPE:WALL-OUTER
G1 F600 X118.189 Y56.877 E2.67754
G1 X118.547 Y56.774 E2.69303
G1 X118.796 Y56.671 E2.70423
G1 X119.098 Y56.509 E2.71848
G1 X119.343 Y56.342 E2.73081
G1 X119.411 Y56.291 E2.73434
G1 X119.617 Y56.112 E2.74569
G1 X119.859 Y55.847 E2.76061
G1 X120.011 Y55.646 E2.77108
G1 X120.188 Y55.362 E2.785
G1 X120.334 Y55.059 E2.79898
G1 X120.429 Y54.792 E2.81076
G1 X120.512 Y54.461 E2.82495
G1 X120.55 Y54.194 E2.83616
G1 X120.565 Y53.9 E2.8484
G1 X120.551 Y53.584 E2.86155
G1 X120.512 Y53.334 E2.87207
G1 X120.448 Y53.058 E2.88385
G1 X120.366 Y52.811 E2.89467
G1 X120.247 Y52.53 E2.90736
G1 X120.079 Y52.242 E2.92122
G1 X119.905 Y51.995 E2.93378
G1 X119.712 Y51.775 E2.94595
G1 X119.617 Y51.673 E2.95174
G1 X119.411 Y51.494 E2.96309
G1 X119.181 Y51.329 E2.97486
G1 X118.953 Y51.193 E2.98589
G1 X118.697 Y51.073 E2.99765
G1 X118.343 Y50.945 E3.0133
G1 X118.07 Y50.88 E3.02497
G1 X117.799 Y50.842 E3.03634
G1 X117.505 Y50.828 E3.04858
G1 X117.17 Y50.845 E3.06253
G1 X116.811 Y50.908 E3.07768
G1 X116.478 Y51.002 E3.09206
G1 X116.224 Y51.108 E3.10351
G1 X115.902 Y51.276 E3.11861
G1 X115.657 Y51.443 E3.13093
G1 X115.589 Y51.494 E3.13447
G1 X115.382 Y51.673 E3.14585
G1 X115.14 Y51.938 E3.16077
G1 X114.989 Y52.139 E3.17122
G1 X114.812 Y52.423 E3.18513
G1 X114.666 Y52.726 E3.19911
G1 X114.552 Y53.047 E3.21328
G1 X114.488 Y53.323 E3.22506
G1 X114.452 Y53.573 E3.23556
G1 X114.435 Y53.884 E3.24851
G1 X114.449 Y54.203 E3.26178
G1 X114.488 Y54.461 E3.27263
G1 X114.561 Y54.757 E3.2853
G1 X114.65 Y55.011 E3.29649
G1 X114.753 Y55.255 E3.3075
G1 X114.919 Y55.54 E3.32122
G1 X115.061 Y55.747 E3.33165
G1 X115.226 Y55.947 E3.34243
G1 X115.383 Y56.112 E3.3519
G1 X115.589 Y56.291 E3.36325
G1 X115.819 Y56.456 E3.37502
G1 X116.046 Y56.592 E3.38602
G1 X116.3 Y56.711 E3.39768
G1 X116.655 Y56.84 E3.41338
G1 X116.93 Y56.905 E3.42513
G1 X117.201 Y56.943 E3.43651
G1 X117.495 Y56.957 E3.44875
G1 X117.83 Y56.94 E3.46269
M204 S25
G0 F3000 X117.891 Y57.486
G1 F2700 E-4.53731
G0 F3000 X117.496 Y57.698
G0 X117.5 Y56.042
G0 X117.5 Y66.74
G0 X117.504 Y65.084
G0 X119.341 Y66.084
G0 X120.128 Y66.809
G0 X120.645 Y67.716
G0 X120.85 Y68.727
G0 X120.738 Y69.76
G0 X120.36 Y70.638
G0 X119.819 Y71.317
G0 X119.313 Y71.696
G0 X117.886 Y72.435
M204 S5
;TYPE:WALL-INNER
G1 F2700 E3.46269
G1 F600 X118.3 Y72.362 E3.48017
G1 X118.687 Y72.253 E3.49688
G1 X118.986 Y72.128 E3.51036
G1 X119.299 Y71.968 E3.52497
G1 X119.623 Y71.752 E3.54116
G1 X119.722 Y71.68 E3.54625
G1 X119.965 Y71.47 E3.5596
G1 X120.169 Y71.252 E3.57202
G1 X120.37 Y71.005 E3.58526
G1 X120.539 Y70.748 E3.59804
G1 X120.687 Y70.484 E3.61063
G1 X120.844 Y70.127 E3.62684
G1 X120.942 Y69.814 E3.64048
G1 X121.02 Y69.449 E3.656
G1 X121.061 Y69.062 E3.67217
G1 X121.061 Y68.717 E3.68652
G1 X121.027 Y68.357 E3.70155
G1 X120.948 Y67.978 E3.71765
G1 X120.843 Y67.642 E3.73228
G1 X120.694 Y67.3 E3.74779
G1 X120.499 Y66.966 E3.76387
G1 X120.293 Y66.677 E3.77863
G1 X120.047 Y66.397 E3.79412
G1 X119.759 Y66.13 E3.81045
G1 X119.458 Y65.909 E3.82598
G1 X119.188 Y65.748 E3.83904
G1 X118.893 Y65.609 E3.8526
G1 X118.487 Y65.462 E3.87055
G1 X118.161 Y65.386 E3.88447
G1 X117.847 Y65.341 E3.89766
G1 X117.504 Y65.324 E3.91194
G1 X117.112 Y65.344 E3.92826
G1 X116.593 Y65.44 E3.9502
G1 X116.282 Y65.538 E3.96376
G1 X115.99 Y65.659 E3.9769
G1 X115.642 Y65.845 E3.9933
G1 X115.356 Y66.04 E4.00769
G1 X115.06 Y66.286 E4.0237
G1 X114.999 Y66.354 E4.02749
G1 X114.76 Y66.61 E4.04205
G1 X114.524 Y66.924 E4.05838
G1 X114.359 Y67.203 E4.07186
G1 X114.203 Y67.532 E4.087
G1 X114.071 Y67.905 E4.10345
G1 X113.996 Y68.229 E4.11727
G1 X113.954 Y68.521 E4.12954
G1 X113.934 Y68.879 E4.14445
G1 X113.951 Y69.248 E4.1598
G1 X113.997 Y69.556 E4.17275
G1 X114.071 Y69.86 E4.18576
G1 X114.167 Y70.149 E4.19842
G1 X114.305 Y70.476 E4.21318
G1 X114.496 Y70.805 E4.22899
G1 X114.661 Y71.045 E4.2411
G1 X114.852 Y71.276 E4.25356
G1 X115.037 Y71.471 E4.26474
G1 X115.277 Y71.68 E4.27797
G1 X115.522 Y71.857 E4.29054
G1 X115.81 Y72.031 E4.30452
G1 X116.112 Y72.173 E4.3184
G1 X116.514 Y72.317 E4.33615
G1 X116.837 Y72.394 E4.34996
G1 X117.154 Y72.438 E4.36326
G1 X117.496 Y72.455 E4.3775
G1 X117.886 Y72.435 E4.39373
M204 S25
G0 F3000 X117.83 Y71.937
M204 S5
;TYPE:WALL-OUTER
G1 F600 X118.189 Y71.874 E4.40889
G1 X118.522 Y71.78 E4.42327
G1 X118.776 Y71.674 E4.43472
G1 X119.046 Y71.536 E4.44732
G1 X119.337 Y71.342 E4.46186
G1 X119.411 Y71.288 E4.46567
G1 X119.618 Y71.109 E4.47705
G1 X119.792 Y70.923 E4.48764
G1 X119.966 Y70.709 E4.49911
G1 X120.112 Y70.488 E4.51012
G1 X120.239 Y70.261 E4.52093
G1 X120.375 Y69.951 E4.53501
G1 X120.458 Y69.686 E4.54655
G1 X120.526 Y69.37 E4.55999
G1 X120.561 Y69.036 E4.57395
G1 X120.561 Y68.74 E4.58626
G1 X120.532 Y68.431 E4.59916
G1 X120.464 Y68.104 E4.61305
G1 X120.374 Y67.818 E4.62551
G1 X120.247 Y67.527 E4.63871
G1 X120.078 Y67.237 E4.65267
G1 X119.901 Y66.988 E4.66537
G1 X119.688 Y66.746 E4.67877
G1 X119.44 Y66.516 E4.69283
G1 X119.181 Y66.326 E4.70619
G1 X118.953 Y66.19 E4.71723
G1 X118.701 Y66.071 E4.72881
G1 X118.345 Y65.942 E4.74456
G1 X118.069 Y65.878 E4.75633
G1 X117.799 Y65.839 E4.76768
G1 X117.505 Y65.825 E4.77991
G1 X117.17 Y65.842 E4.79386
G1 X116.714 Y65.926 E4.81314
G1 X116.453 Y66.008 E4.82451
G1 X116.204 Y66.111 E4.83571
G1 X115.902 Y66.273 E4.84996
G1 X115.657 Y66.44 E4.86229
G1 X115.408 Y66.647 E4.87575
G1 X115.364 Y66.696 E4.87849
G1 X115.143 Y66.932 E4.89193
G1 X114.94 Y67.202 E4.90597
G1 X114.801 Y67.437 E4.91733
G1 X114.666 Y67.723 E4.93047
G1 X114.552 Y68.045 E4.94468
G1 X114.488 Y68.321 E4.95646
G1 X114.452 Y68.57 E4.96692
G1 X114.435 Y68.882 E4.97991
G1 X114.449 Y69.2 E4.99314
G1 X114.488 Y69.459 E5.00403
G1 X114.552 Y69.722 E5.01528
G1 X114.635 Y69.973 E5.02627
G1 X114.753 Y70.252 E5.03887
G1 X114.919 Y70.537 E5.05258
G1 X115.061 Y70.744 E5.06302
G1 X115.226 Y70.944 E5.0738
G1 X115.383 Y71.109 E5.08327
G1 X115.589 Y71.288 E5.09461
G1 X115.798 Y71.44 E5.10536
G1 X116.046 Y71.589 E5.11738
G1 X116.303 Y71.71 E5.12919
G1 X116.657 Y71.837 E5.14483
G1 X116.93 Y71.902 E5.1565
G1 X117.201 Y71.94 E5.16787
G1 X117.495 Y71.954 E5.18011
G1 X117.83 Y71.937 E5.19406
M204 S25
G0 F3000 X117.891 Y72.483
G1 F2700 E-2.80594
G0 F3000 X117.496 Y72.695
G0 X117.5 Y71.039
G0 X117.5 Y81.738
G0 X117.496 Y80.086
G0 X115.489 Y81.201
G0 X114.917 Y81.748
G0 X114.399 Y82.609
G0 X114.164 Y83.54
G0 X114.203 Y84.511
G0 X114.494 Y85.378
G0 X115.055 Y86.182
G0 X115.642 Y86.656
G0 X116.941 Y87.407
M204 S5
;TYPE:WALL-INNER
G1 F2700 E5.19406
G1 F600 X117.321 Y87.447 E5.20994
G1 X117.496 Y87.452 E5.21722
G1 X117.853 Y87.436 E5.23208
G1 X118.165 Y87.39 E5.24519
G1 X118.465 Y87.317 E5.25803
G1 X118.745 Y87.231 E5.2702
G1 X119.03 Y87.109 E5.28309
G1 X119.33 Y86.947 E5.29727
G1 X119.642 Y86.738 E5.31288
G1 X119.933 Y86.497 E5.32859
G1 X120.153 Y86.268 E5.34179
G1 X120.367 Y86.007 E5.35582
G1 X120.539 Y85.746 E5.36882
G1 X120.687 Y85.482 E5.3814
G1 X120.839 Y85.137 E5.39708
G1 X120.93 Y84.857 E5.40932
G1 X121.004 Y84.55 E5.42245
G1 X121.048 Y84.237 E5.43559
G1 X121.066 Y83.897 E5.44974
G1 X121.049 Y83.531 E5.46498
G1 X121.003 Y83.222 E5.47796
G1 X120.929 Y82.917 E5.49101
G1 X120.834 Y82.63 E5.50358
G1 X120.695 Y82.301 E5.51843
G1 X120.503 Y81.97 E5.53434
G1 X120.337 Y81.731 E5.54644
G1 X120.149 Y81.501 E5.55879
G1 X119.963 Y81.306 E5.56999
G1 X119.715 Y81.091 E5.58364
G1 X119.471 Y80.916 E5.59612
G1 X119.188 Y80.746 E5.60985
G1 X118.896 Y80.609 E5.62326
G1 X118.684 Y80.524 E5.63275
G1 X118.381 Y80.431 E5.64593
G1 X118.087 Y80.372 E5.6584
G1 X117.676 Y80.326 E5.67559
G1 X117.336 Y80.326 E5.68973
G1 X116.998 Y80.359 E5.70384
G1 X116.624 Y80.43 E5.71967
G1 X116.308 Y80.526 E5.7334
G1 X116.014 Y80.649 E5.74665
G1 X115.702 Y80.808 E5.76121
G1 X115.368 Y81.029 E5.77786
G1 X115.28 Y81.095 E5.78243
G1 X115.033 Y81.309 E5.79602
G1 X114.755 Y81.614 E5.81318
G1 X114.577 Y81.85 E5.82547
G1 X114.396 Y82.138 E5.83961
G1 X114.205 Y82.526 E5.85759
G1 X114.071 Y82.901 E5.87415
G1 X113.996 Y83.226 E5.88801
G1 X113.954 Y83.519 E5.90032
G1 X113.934 Y83.876 E5.91519
G1 X113.951 Y84.246 E5.93058
G1 X113.997 Y84.552 E5.94345
G1 X114.071 Y84.86 E5.95662
G1 X114.169 Y85.15 E5.96935
G1 X114.304 Y85.473 E5.9839
G1 X114.491 Y85.795 E5.99938
G1 X114.704 Y86.096 E6.01471
G1 X114.901 Y86.326 E6.0273
G1 X115.116 Y86.538 E6.03985
G1 X115.345 Y86.726 E6.05217
G1 X115.671 Y86.948 E6.06857
G1 X115.99 Y87.12 E6.08364
G1 X116.285 Y87.241 E6.09689
G1 X116.579 Y87.329 E6.10965
G1 X116.941 Y87.407 E6.12505
M204 S25
G0 F3000 X117.02 Y86.913
M204 S5
;TYPE:WALL-OUTER
G1 F600 X117.354 Y86.948 E6.13901
G1 X117.492 Y86.952 E6.14475
G1 X117.805 Y86.938 E6.15778
G1 X118.069 Y86.899 E6.16887
G1 X118.332 Y86.835 E6.18013
G1 X118.572 Y86.761 E6.19057
G1 X118.812 Y86.658 E6.20143
G1 X119.072 Y86.518 E6.2137
G1 X119.343 Y86.337 E6.22725
G1 X119.592 Y86.13 E6.24071
G1 X119.779 Y85.936 E6.25192
G1 X119.964 Y85.71 E6.26406
G1 X120.112 Y85.486 E6.27522
G1 X120.239 Y85.259 E6.28603
G1 X120.371 Y84.959 E6.29966
G1 X120.448 Y84.721 E6.31006
G1 X120.512 Y84.456 E6.32139
G1 X120.55 Y84.189 E6.33261
G1 X120.565 Y83.895 E6.34485
G1 X120.551 Y83.579 E6.358
