;FLAVOR:Marlin
;TIME:5036
;Filament used: 4.13341m
;Layer height: 0.2
;MINX:97.85
;MINY:45.035
;MINZ:0.2
;MAXX:137.151
;MAXY:192.53
;MAXZ:4
;Generated with Cura_SteamEngine 4.8.0
M140 S60
M105
M190 S60
M104 S200
M105
M109 S200
M82 ;absolute extrusion mode
; Ender 3 Custom Start G-code
G92 E0 ; Reset Extruder
G28 ; Home all axes
G1 Z2.0 F3000 ; Move Z Axis up little to prevent scratching of Heat Bed
G1 X0.1 Y20 Z0.3 F5000.0 ; Move to start position
G1 X0.1 Y200.0 Z0.3 F1500.0 E15 ; Draw the first line
G1 X0.4 Y200.0 Z0.3 F5000.0 ; Move to side a little
G1 X0.4 Y20 Z0.3 F1500.0 E30 ; Draw the second line
G92 E0 ; Reset Extruder
G1 Z2.0 F3000 ; Move Z Axis up little to prevent scratching of Heat Bed
G1 X5 Y20 Z0.3 F5000.0 ; Move over to prevent blob squish
G92 E0
G92 E0
G1 F2700 E-8
;LAYER_COUNT:20
;LAYER:0
M107
M204 S25
;MESH:Blade_1.stl
G0 F3000 X117.324 Y185.537 Z0.2
M204 S5
;TYPE:WALL-INNER
G1 F2700 E0
G1 F600 X117.5 Y185.713 E0.01035
G1 X117.676 Y185.537 E0.01702
G1 X123.3 Y179.913 E0.34769
G1 X123.3 Y129.249 E2.45406
G1 X117.5 Y123.449 E2.79508
G1 X111.7 Y129.249 E3.13609
G1 X111.701 Y179.912 E5.24242
G1 X117.324 Y185.537 E5.57309
M204 S25
G0 F3000 X117.5 Y185.006
M204 S5
;TYPE:WALL-OUTER
G1 F600 X122.8 Y179.706 E5.88471
G1 X122.8 Y129.456 E7.97386
G1 X117.5 Y124.156 E8.28548
G1 X112.2 Y129.456 E8.5971
G1 X112.201 Y179.705 E10.68621
G1 X117.5 Y185.006 E10.99783
M204 S25
G1 F2700 E2.99783
G0 F3000 X117.252 Y185.252
G0 X117.5 Y185.4
G0 X123.086 Y179.825
G0 X123.542 Y129.148
G0 X121.889 Y129.834
G0 X117.499 Y113.805
G0 X117.5 Y115.654
G0 X128.744 Y109.52
G0 X128.961 Y102.83
M204 S5
;TYPE:WALL-INNER
G1 F2700 E10.99783
G1 F600 X128.961 Y102.829 E10.99787
G1 X128.961 Y102.427 E11.01458
G1 X128.601 Y102.607 E11.0242
G1 X117.5 Y108.158 E11.54021
G1 X106.4 Y102.609 E12.05615
G1 X106.04 Y102.429 E12.07288
G1 X106.04 Y102.831 E12.08248
G1 X106.04 Y102.832 E12.08253
G1 X106.039 Y109.654 E12.36615
G1 X117.5 Y115.383 E12.89886
G1 X128.96 Y109.653 E13.43155
G1 X128.961 Y102.83 E13.71521
M204 S25
G0 F3000 X128.461 Y103.236
M204 S5
;TYPE:WALL-OUTER
G1 F600 X117.5 Y108.717 E14.22472
G1 X106.54 Y103.238 E14.73415
G1 X106.539 Y109.345 E14.98805
G1 X117.5 Y114.824 E15.49751
G1 X128.46 Y109.344 E16.00696
G1 X128.461 Y103.236 E16.2609
M204 S25
G1 F2700 E8.2609
G0 F3000 X128.81 Y103.237
G0 X128.732 Y102.797
G0 X126.236 Y103.543
G0 X126.968 Y105.005
G0 X125.46 Y94.52
G0 X126.209 Y96.018
G0 X129.299 Y93.941
G0 X129.516 Y86.976
M204 S5
;TYPE:WALL-INNER
G1 F2700 E16.2609
G1 F600 X129.516 Y86.975 E16.26094
G1 X129.516 Y86.573 E16.27766
G1 X129.156 Y86.753 E16.28727
G1 X117.5 Y92.582 E16.82909
G1 X105.845 Y86.755 E17.37083
G1 X105.485 Y86.575 E17.38757
G1 X105.485 Y86.977 E17.39717
G1 X105.485 Y86.978 E17.39721
G1 X105.484 Y94.075 E17.69227
G1 X117.5 Y100.082 E18.25079
G1 X129.515 Y94.074 E18.80928
G1 X129.516 Y86.976 E19.10438
M204 S25
G0 F3000 X129.016 Y87.382
M204 S5
;TYPE:WALL-OUTER
G1 F600 X117.5 Y93.141 E19.63969
G1 X105.985 Y87.384 E20.17493
G1 X105.984 Y93.766 E20.44026
G1 X117.5 Y99.523 E20.97554
G1 X129.015 Y93.765 E21.51079
G1 X129.016 Y87.382 E21.77616
M204 S25
G1 F2700 E13.77616
G0 F3000 X129.365 Y87.383
G0 X129.736 Y88.589
G0 X128.12 Y88.833
G0 X125.802 Y78.242
G0 X126.551 Y79.739
G0 X126.8 Y79.073
G0 X129.884 Y77.539
G0 X130.1 Y70.289
M204 S5
;TYPE:WALL-INNER
G1 F2700 E21.77616
G1 F600 X130.1 Y70.288 E21.77621
G1 X130.1 Y69.886 E21.79292
G1 X129.74 Y70.066 E21.80254
G1 X117.5 Y76.187 E22.3715
G1 X105.26 Y70.066 E22.94046
G1 X104.9 Y69.886 E22.9572
G1 X104.9 Y70.288 E22.9668
G1 X104.9 Y70.289 E22.96684
G1 X104.899 Y77.675 E23.27392
G1 X117.5 Y83.975 E23.85963
G1 X130.1 Y77.673 E24.44535
G1 X130.1 Y70.289 E24.75234
M204 S25
G0 F3000 X129.6 Y70.695
M204 S5
;TYPE:WALL-OUTER
G1 F600 X117.5 Y76.746 E25.3148
G1 X105.4 Y70.695 E25.87725
G1 X105.399 Y77.366 E26.1546
G1 X117.5 Y83.416 E26.71707
G1 X129.6 Y77.364 E27.27955
G1 X129.6 Y70.695 E27.55681
M204 S25
G1 F2700 E19.55681
G0 F3000 X129.95 Y70.695
G0 X130.32 Y71.902
G0 X128.704 Y72.146
G0 X136.217 Y69.481
G0 X134.543 Y69.482
G0 X134.801 Y46.825
M204 S5
;TYPE:WALL-INNER
G1 F2700 E27.55681
G1 F600 X134.801 Y47.227 E27.57353
G1 X134.801 Y47.228 E27.57357
G1 X134.803 Y74.458 E28.70566
G1 X134.782 Y74.818 E28.72065
G1 X134.761 Y75.232 E28.73789
G1 X134.722 Y75.916 E28.76637
G1 X134.674 Y76.843 E28.80496
G1 X134.599 Y78.175 E28.86043
G1 X134.271 Y84.308 E29.11577
G1 X134.265 Y84.379 E29.11874
G1 X134.203 Y85.626 E29.17064
G1 X134.196 Y85.703 E29.17386
G1 X134.05 Y88.558 E29.29271
G1 X133.822 Y93.2 E29.48594
G1 X133.594 Y98.14 E29.69154
G1 X133.451 Y101.508 E29.83169
G1 X133.384 Y103.192 E29.90176
G1 X133.257 Y106.576 E30.04254
G1 X133.141 Y109.952 E30.18299
G1 X133.086 Y111.642 E30.25328
G1 X132.984 Y115.019 E30.39375
G1 X132.941 Y116.62 E30.46033
G1 X132.936 Y116.703 E30.46379
G1 X132.848 Y120.084 E30.6044
G1 X132.766 Y123.459 E30.74476
G1 X132.692 Y126.834 E30.88511
G1 X132.624 Y130.208 E31.02541
G1 X132.562 Y133.582 E31.16571
G1 X132.537 Y135.173 E31.23187
G1 X132.534 Y135.265 E31.23569
G1 X132.51 Y136.859 E31.30197
G1 X132.507 Y136.951 E31.3058
G1 X132.434 Y142.016 E31.5164
G1 X132.371 Y147.075 E31.72674
G1 X132.335 Y150.449 E31.86703
G1 X132.303 Y153.823 E32.00731
G1 X132.275 Y157.196 E32.14755
G1 X132.24 Y162.254 E32.35784
G1 X132.232 Y163.843 E32.4239
G1 X132.23 Y163.934 E32.42769
G1 X132.223 Y165.53 E32.49404
G1 X132.221 Y165.621 E32.49783
G1 X132.215 Y167.215 E32.5641
G1 X132.213 Y167.306 E32.56788
G1 X132.208 Y168.9 E32.63415
G1 X132.206 Y168.992 E32.63798
G1 X132.202 Y170.586 E32.70425
G1 X132.2 Y170.678 E32.70807
G1 X132.187 Y175.742 E32.91861
G1 X132.181 Y180.8 E33.1289
G1 X132.182 Y184.892 E33.29902
G1 X132.182 Y185.141 E33.30938
G1 X131.933 Y185.141 E33.31607
G1 X126.502 Y185.142 E33.54187
G1 X117.5 Y190.102 E33.96918
G1 X108.498 Y185.141 E34.39651
G1 X103.067 Y185.141 E34.6223
G1 X102.818 Y185.141 E34.63265
G1 X102.818 Y184.892 E34.63935
G1 X102.82 Y182.403 E34.74283
G1 X102.816 Y177.346 E34.95307
G1 X102.805 Y172.288 E35.16336
G1 X102.786 Y167.229 E35.37369
G1 X102.759 Y162.17 E35.58402
G1 X102.724 Y157.113 E35.79427
G1 X102.68 Y152.054 E36.00461
G1 X102.628 Y146.994 E36.21499
G1 X102.565 Y141.935 E36.42534
G1 X102.517 Y138.561 E36.56563
G1 X102.436 Y133.5 E36.77606
G1 X102.341 Y128.438 E36.98655
G1 X102.27 Y125.064 E37.12686
G1 X102.192 Y121.688 E37.26726
G1 X102.107 Y118.313 E37.40762
G1 X102.013 Y114.936 E37.54807
G1 X101.911 Y111.559 E37.68853
G1 X101.799 Y108.183 E37.82897
G1 X101.74 Y106.493 E37.89927
G1 X101.613 Y103.118 E38.03969
G1 X101.545 Y101.426 E38.11009
G1 X101.402 Y98.057 E38.25028
G1 X101.25 Y94.743 E38.38821
G1 X101.097 Y91.536 E38.52169
G1 X100.946 Y88.485 E38.64869
G1 X100.731 Y84.323 E38.82196
G1 X100.198 Y74.474 E39.23203
G1 X100.2 Y47.229 E40.36475
G1 X100.2 Y47.228 E40.36479
G1 X100.2 Y46.826 E40.3815
G1 X100.56 Y47.006 E40.39112
G1 X117.5 Y55.476 E41.17853
G1 X134.441 Y47.005 E41.966
G1 X134.801 Y46.825 E41.97562
M204 S25
G0 F3000 X135.301 Y46.016
M204 S5
;TYPE:WALL-OUTER
G1 F600 X135.303 Y74.47 E43.15859
G1 X135.281 Y74.845 E43.17421
G1 X135.26 Y75.261 E43.19153
G1 X135.221 Y75.943 E43.21993
G1 X135.173 Y76.871 E43.25856
G1 X135.098 Y78.202 E43.31399
G1 X134.957 Y80.842 E43.4239
G1 X134.894 Y81.985 E43.4715
G1 X134.769 Y84.348 E43.56987
G1 X134.764 Y84.411 E43.5725
G1 X134.701 Y85.671 E43.62495
G1 X134.695 Y85.738 E43.62775
G1 X134.549 Y88.583 E43.74619
G1 X134.321 Y93.224 E43.93937
G1 X134.169 Y96.494 E44.07547
G1 X134.094 Y98.162 E44.14488
G1 X133.951 Y101.528 E44.28495
G1 X133.888 Y103.13 E44.35161
G1 X133.883 Y103.216 E44.35519
G1 X133.757 Y106.594 E44.49573
G1 X133.641 Y109.969 E44.63613
G1 X133.586 Y111.658 E44.70638
G1 X133.484 Y115.033 E44.84676
G1 X133.44 Y116.634 E44.91335
G1 X133.436 Y116.721 E44.91697
G1 X133.348 Y120.097 E45.05738
G1 X133.266 Y123.471 E45.19769
G1 X133.192 Y126.845 E45.338
G1 X133.124 Y130.218 E45.47826
G1 X133.096 Y131.818 E45.54479
G1 X133.093 Y131.903 E45.54833
G1 X133.062 Y133.59 E45.61848
G1 X133.037 Y135.19 E45.68501
G1 X133.034 Y135.277 E45.68863
G1 X133.01 Y136.876 E45.75511
G1 X133.007 Y136.963 E45.75873
G1 X132.934 Y142.023 E45.96912
G1 X132.871 Y147.081 E46.17943
G1 X132.835 Y150.454 E46.31967
G1 X132.803 Y153.828 E46.45995
G1 X132.775 Y157.2 E46.60015
G1 X132.74 Y162.257 E46.8104
G1 X132.732 Y163.855 E46.87684
G1 X132.73 Y163.941 E46.88041
G1 X132.723 Y165.541 E46.94693
G1 X132.721 Y165.628 E46.95055
G1 X132.715 Y167.227 E47.01703
G1 X132.713 Y167.313 E47.02061
G1 X132.708 Y168.912 E47.08708
G1 X132.706 Y168.998 E47.09066
G1 X132.702 Y170.598 E47.15718
G1 X132.7 Y170.684 E47.16076
G1 X132.687 Y175.743 E47.37109
G1 X132.681 Y180.801 E47.58138
G1 X132.682 Y185.641 E47.7826
G1 X126.631 Y185.642 E48.03417
G1 X117.5 Y190.673 E48.4676
G1 X108.369 Y185.641 E48.90105
G1 X102.318 Y185.641 E49.15263
G1 X102.32 Y182.403 E49.28725
G1 X102.316 Y177.346 E49.49749
G1 X102.305 Y172.289 E49.70774
G1 X102.286 Y167.231 E49.91803
G1 X102.259 Y162.173 E50.12832
G1 X102.224 Y157.117 E50.33853
G1 X102.18 Y152.058 E50.54886
G1 X102.128 Y146.999 E50.7592
G1 X102.065 Y141.941 E50.96951
G1 X102.017 Y138.568 E51.10975
G1 X101.936 Y133.509 E51.32011
G1 X101.841 Y128.448 E51.53056
G1 X101.77 Y125.075 E51.67082
G1 X101.692 Y121.7 E51.81118
G1 X101.607 Y118.326 E51.9515
G1 X101.513 Y114.951 E52.09187
G1 X101.411 Y111.575 E52.23229
G1 X101.299 Y108.2 E52.37268
G1 X101.24 Y106.511 E52.44294
G1 X101.113 Y103.137 E52.58332
G1 X101.045 Y101.447 E52.65364
G1 X100.902 Y98.079 E52.79379
G1 X100.751 Y94.766 E52.93167
G1 X100.598 Y91.56 E53.06511
G1 X100.447 Y88.51 E53.19207
G1 X100.232 Y84.349 E53.3653
G1 X99.698 Y74.474 E53.77645
G1 X99.7 Y46.017 E54.95956
G1 X117.5 Y54.917 E55.78694
G1 X135.301 Y46.016 E56.61439
M204 S25
G0 F3000 X134.999 Y46.506
G0 X134.165 Y47.323
G0 X134.311 Y47.618
M204 S5
;TYPE:SKIN
G1 F600 X134.313 Y74.429 E57.72906
G1 X134.232 Y75.889 E57.78985
G1 X134.184 Y76.816 E57.82844
G1 X134.109 Y78.148 E57.88391
G1 X133.782 Y84.281 E58.13925
G1 X133.776 Y84.347 E58.14201
G1 X133.714 Y85.591 E58.19379
G1 X133.708 Y85.669 E58.19704
G1 X133.56 Y88.533 E58.31627
G1 X133.332 Y93.176 E58.50954
G1 X133.104 Y98.117 E58.71518
G1 X132.961 Y101.487 E58.85542
G1 X132.894 Y103.172 E58.92552
G1 X132.767 Y106.558 E59.0664
G1 X132.651 Y109.935 E59.20688
G1 X132.596 Y111.626 E59.27722
G1 X132.494 Y115.004 E59.41773
G1 X132.451 Y116.591 E59.48373
G1 X132.446 Y116.682 E59.48752
G1 X132.358 Y120.071 E59.62846
G1 X132.276 Y123.447 E59.76886
G1 X132.202 Y126.823 E59.90925
G1 X132.134 Y130.198 E60.0496
G1 X132.072 Y133.573 E60.18994
G1 X132.017 Y136.939 E60.3299
G1 X131.944 Y142.009 E60.54071
G1 X131.881 Y147.068 E60.75105
G1 X131.845 Y150.443 E60.89138
G1 X131.813 Y153.819 E61.03174
G1 X131.785 Y157.192 E61.17198
G1 X131.75 Y162.25 E61.38227
G1 X131.742 Y163.833 E61.44809
G1 X131.74 Y163.928 E61.45204
G1 X131.733 Y165.52 E61.51822
G1 X131.731 Y165.615 E61.52218
G1 X131.725 Y167.205 E61.58828
G1 X131.723 Y167.3 E61.59223
G1 X131.718 Y168.89 E61.65834
G1 X131.716 Y168.986 E61.66233
G1 X131.712 Y170.576 E61.72843
G1 X131.71 Y170.672 E61.73242
G1 X131.697 Y175.74 E61.94313
G1 X131.691 Y180.798 E62.15342
G1 X131.692 Y184.651 E62.3136
G1 X126.376 Y184.652 E62.53462
G1 X117.5 Y189.542 E62.95594
G1 X108.624 Y184.651 E63.37727
G1 X103.308 Y184.651 E63.59829
G1 X103.31 Y182.403 E63.69175
G1 X103.306 Y177.346 E63.90199
G1 X103.295 Y172.288 E64.11228
G1 X103.276 Y167.227 E64.32269
G1 X103.249 Y162.168 E64.53303
G1 X103.214 Y157.11 E64.74332
G1 X103.17 Y152.05 E64.9537
G1 X103.118 Y146.99 E65.16408
G1 X103.055 Y141.929 E65.37451
G1 X103.007 Y138.554 E65.51484
G1 X102.926 Y133.492 E65.72532
G1 X102.831 Y128.428 E65.93589
G1 X102.76 Y125.054 E66.0762
G1 X102.682 Y121.676 E66.21668
G1 X102.597 Y118.301 E66.35704
G1 X102.503 Y114.922 E66.49757
G1 X102.401 Y111.544 E66.63808
G1 X102.289 Y108.167 E66.77855
G1 X102.23 Y106.476 E66.8489
G1 X102.103 Y103.1 E66.98936
G1 X102.035 Y101.406 E67.05984
G1 X101.892 Y98.036 E67.20008
G1 X101.74 Y94.721 E67.33804
G1 X101.587 Y91.513 E67.47157
G1 X101.436 Y88.462 E67.59857
G1 X101.221 Y84.298 E67.77192
G1 X100.688 Y74.447 E68.18208
G1 X100.69 Y47.619 E69.29745
G1 X117.5 Y56.024 E70.07882
G1 X134.311 Y47.618 E70.86025
M204 S25
G1 F2700 E62.86025
G0 F3000 X134.166 Y47.322
G0 X134.562 Y47.212
G0 X134.543 Y69.55
G0 X136.217 Y69.549
G0 X128.704 Y72.146
G0 X130.32 Y71.902
G0 X130.26 Y69.55
G0 X130.59 Y69.093
M204 S5
G1 F2700 E70.86025
G1 F600 X117.5 Y75.638 E71.46871
G1 X104.41 Y69.093 E72.07716
G1 X104.409 Y77.978 E72.44656
G1 X117.5 Y84.523 E73.05505
G1 X130.59 Y77.975 E73.66356
G1 X130.59 Y69.093 E74.03283
M204 S25
G1 F2700 E66.03283
G0 F3000 X130.26 Y69.55
G0 X129.884 Y77.539
G0 X126.444 Y79.771
G0 X125.704 Y78.291
G0 X128.12 Y88.833
G0 X129.736 Y88.589
G0 X129.676 Y86.237
G0 X130.006 Y85.78
M204 S5
G1 F2700 E74.03283
G1 F600 X117.5 Y92.034 E74.61416
G1 X104.995 Y85.783 E75.19539
G1 X104.994 Y94.378 E75.55273
G1 X117.5 Y100.63 E76.13402
G1 X130.005 Y94.377 E76.7153
G1 X130.006 Y85.78 E77.07272
M204 S25
G1 F2700 E69.07272
G0 F3000 X129.676 Y86.237
G0 X129.299 Y93.941
G0 X126.102 Y96.05
G0 X125.361 Y94.569
G0 X126.968 Y105.005
G0 X126.236 Y103.543
G0 X129.121 Y102.091
G0 X129.451 Y101.634
M204 S5
G1 F2700 E77.07272
G1 F600 X117.5 Y107.61 E77.62824
G1 X105.55 Y101.637 E78.18367
G1 X105.549 Y109.957 E78.52957
G1 X117.5 Y115.931 E79.08506
G1 X129.45 Y109.956 E79.64052
G1 X129.451 Y101.634 E79.98651
M204 S25
G1 F2700 E71.98651
G0 F3000 X129.121 Y102.091
G0 X128.744 Y109.52
G0 X117.5 Y115.654
G0 X117.499 Y113.805
G0 X118.039 Y125.989
G0 X119.195 Y124.832
G0 X117.52 Y123.201
G0 X117.5 Y122.756
M204 S5
G1 F2700 E79.98651
G1 F600 X111.21 Y129.046 E80.35634
G1 X111.211 Y180.115 E82.47954
G1 X117.5 Y186.406 E82.84937
G1 X123.79 Y180.116 E83.2192
G1 X123.79 Y129.046 E85.34244
G1 X117.5 Y122.756 E85.71227
M204 S25
G1 F2700 E77.71227
G0 F3000 X117.52 Y123.201
G0 X111.914 Y129.337
G0 X111.459 Y180.013
G0 X113.112 Y179.327
G0 X108.135 Y186.554
G0 X108.565 Y184.881
G0 X103.84 Y184.981
G0 X103.84 Y184.45
M204 S5
G1 F2700 E85.71227
G1 F600 X103.507 Y184.117 E85.73185
M204 S25
G0 F3000 X103.509 Y183.412
M204 S5
G1 F600 X104.547 Y184.45 E85.79288
M204 S25
G0 F3000 X105.254 Y184.45
M204 S5
G1 F600 X103.509 Y182.705 E85.89548
M204 S25
G0 F3000 X103.509 Y181.998
M204 S5
G1 F600 X105.961 Y184.45 E86.03964
M204 S25
G0 F3000 X106.668 Y184.45
M204 S5
G1 F600 X103.509 Y181.29 E86.22541
M204 S25
G0 F3000 X103.508 Y180.583
M204 S5
G1 F600 X107.375 Y184.45 E86.45278
M204 S25
G0 F3000 X108.082 Y184.45
M204 S5
G1 F600 X103.508 Y179.875 E86.72174
M204 S25
G0 F3000 X103.507 Y179.168
M204 S5
G1 F600 X108.929 Y184.59 E87.04053
M204 S25
G0 F3000 X108.673 Y185.054
G0 X110.247 Y185.921
G0 X110.504 Y185.457
M204 S5
G1 F600 X103.506 Y178.46 E87.45196
M204 S25
G0 F3000 X103.506 Y177.752
M204 S5
G1 F600 X112.079 Y186.325 E87.95602
M204 S25
G0 F3000 X111.822 Y186.789
G0 X113.397 Y187.657
G0 X113.653 Y187.193
M204 S5
G1 F600 X103.505 Y177.044 E88.55271
M204 S25
G0 F3000 X103.504 Y176.336
M204 S5
G1 F600 X115.228 Y188.06 E89.24204
M204 S25
G0 F3000 X114.971 Y188.525
G0 X116.546 Y189.393
G0 X116.803 Y188.928
M204 S5
G1 F600 X103.502 Y175.626 E90.02411
M204 S25
G0 F3000 X103.5 Y174.918
M204 S5
G1 F600 X117.753 Y189.171 E90.86214
M204 S25
G0 F3000 X118.209 Y188.92
M204 S5
G1 F600 X103.499 Y174.209 E91.72706
M204 S25
G0 F3000 X103.497 Y173.501
M204 S5
G1 F600 X118.665 Y188.669 E92.61888
M204 S25
G0 F3000 X119.122 Y188.418
M204 S5
G1 F600 X103.496 Y172.792 E93.53763
M204 S25
G0 F3000 X103.494 Y172.083
M204 S5
G1 F600 X111.01 Y179.6 E93.97957
M204 S25
G0 F3000 X111.01 Y178.893
M204 S5
G1 F600 X103.491 Y171.373 E94.42168
M204 S25
G0 F3000 X103.489 Y170.664
M204 S5
G1 F600 X111.01 Y178.185 E94.86389
M204 S25
G0 F3000 X111.01 Y177.478
M204 S5
G1 F600 X103.486 Y169.954 E95.30627
M204 S25
G0 F3000 X103.483 Y169.244
M204 S5
G1 F600 X111.01 Y176.771 E95.74883
M204 S25
G0 F3000 X111.01 Y176.064
M204 S5
G1 F600 X103.48 Y168.534 E96.19157
M204 S25
G0 F3000 X103.478 Y167.824
M204 S5
G1 F600 X111.01 Y175.357 E96.63445
M204 S25
G0 F3000 X111.01 Y174.65
M204 S5
