;FLAVOR:Marlin
;TIME:5308
;Filament used: 4.4677m
;Layer height: 0.2
;MINX:97.852
;MINY:24.796
;MINZ:0.2
;MAXX:137.148
;MAXY:208.859
;MAXZ:4
;Generated with Cura_SteamEngine 4.8.0
M140 S60
M105
M190 S60
M104 S200
M105
M109 S200
M82 ;absolute extrusion mode
; Ender 3 Custom Start G-code
G92 E0 ; Reset Extruder
G28 ; Home all axes
G1 Z2.0 F3000 ; Move Z Axis up little to prevent scratching of Heat Bed
G1 X0.1 Y20 Z0.3 F5000.0 ; Move to start position
G1 X0.1 Y200.0 Z0.3 F1500.0 E15 ; Draw the first line
G1 X0.4 Y200.0 Z0.3 F5000.0 ; Move to side a little
G1 X0.4 Y20 Z0.3 F1500.0 E30 ; Draw the second line
G92 E0 ; Reset Extruder
G1 Z2.0 F3000 ; Move Z Axis up little to prevent scratching of Heat Bed
G1 X5 Y20 Z0.3 F5000.0 ; Move over to prevent blob squish
G92 E0
G92 E0
G1 F2700 E-8
;LAYER_COUNT:20
;LAYER:0
M107
M204 S25
;MESH:Blade_2.stl
G0 F3000 X116.431 Y35.371 Z0.2
M204 S5
;TYPE:WALL-INNER
G1 F2700 E0
G1 F600 X116.088 Y35.496 E0.01518
G1 X115.765 Y35.649 E0.03004
G1 X115.455 Y35.834 E0.04505
G1 X115.164 Y36.05 E0.06011
G1 X114.897 Y36.292 E0.07509
G1 X114.655 Y36.559 E0.09008
G1 X114.439 Y36.85 E0.10514
G1 X114.254 Y37.16 E0.12015
G1 X114.101 Y37.483 E0.13501
G1 X113.976 Y37.826 E0.15019
G1 X113.89 Y38.18 E0.16533
G1 X113.837 Y38.533 E0.18018
G1 X113.819 Y38.895 E0.19524
G1 X113.837 Y39.257 E0.21031
G1 X113.89 Y39.61 E0.22515
G1 X113.976 Y39.964 E0.2403
G1 X114.101 Y40.307 E0.25548
G1 X114.254 Y40.63 E0.27034
G1 X114.439 Y40.94 E0.28534
G1 X114.655 Y41.231 E0.30041
G1 X114.897 Y41.498 E0.31539
G1 X115.153 Y41.73 E0.32976
G1 X115.44 Y41.944 E0.34464
G1 X115.747 Y42.131 E0.35959
G1 X116.074 Y42.287 E0.37465
G1 X116.413 Y42.411 E0.38966
G1 X116.764 Y42.5 E0.40471
G1 X117.12 Y42.556 E0.41969
G1 X117.482 Y42.576 E0.43477
G1 X117.844 Y42.559 E0.44983
G1 X118.2 Y42.507 E0.46479
G1 X118.567 Y42.418 E0.48049
G1 X118.909 Y42.294 E0.49562
G1 X119.234 Y42.141 E0.51055
G1 X119.545 Y41.957 E0.52557
G1 X119.836 Y41.74 E0.54067
G1 X120.103 Y41.498 E0.55565
G1 X120.345 Y41.231 E0.57063
G1 X120.561 Y40.94 E0.5857
G1 X120.746 Y40.63 E0.6007
G1 X120.899 Y40.307 E0.61556
G1 X121.024 Y39.964 E0.63074
G1 X121.11 Y39.61 E0.64589
G1 X121.163 Y39.257 E0.66073
G1 X121.181 Y38.895 E0.6758
G1 X121.164 Y38.55 E0.69016
G1 X121.112 Y38.196 E0.70503
G1 X121.028 Y37.847 E0.71996
G1 X120.908 Y37.504 E0.73507
G1 X120.755 Y37.177 E0.75007
G1 X120.572 Y36.866 E0.76508
G1 X120.356 Y36.574 E0.78018
G1 X120.116 Y36.307 E0.7951
G1 X119.85 Y36.062 E0.81014
G1 X119.56 Y35.846 E0.82517
G1 X119.253 Y35.659 E0.84012
G1 X118.927 Y35.503 E0.85514
G1 X118.587 Y35.378 E0.8702
G1 X118.236 Y35.289 E0.88526
G1 X117.88 Y35.234 E0.90023
G1 X117.517 Y35.214 E0.91535
G1 X117.138 Y35.232 E0.93112
G1 X116.785 Y35.285 E0.94596
G1 X116.431 Y35.371 E0.96111
M204 S25
G0 F3000 X116.576 Y35.85
M204 S5
;TYPE:WALL-OUTER
G1 F600 X116.281 Y35.958 E0.97417
G1 X116 Y36.091 E0.9871
G1 X115.733 Y36.25 E1.00002
G1 X115.482 Y36.437 E1.01303
G1 X115.251 Y36.646 E1.02598
G1 X115.042 Y36.877 E1.03893
G1 X114.855 Y37.128 E1.05194
G1 X114.696 Y37.395 E1.06486
G1 X114.563 Y37.676 E1.07779
G1 X114.455 Y37.971 E1.09085
G1 X114.381 Y38.276 E1.1039
G1 X114.335 Y38.582 E1.11676
G1 X114.32 Y38.895 E1.12979
G1 X114.335 Y39.208 E1.14282
G1 X114.381 Y39.514 E1.15568
G1 X114.455 Y39.819 E1.16873
G1 X114.563 Y40.114 E1.18179
G1 X114.696 Y40.395 E1.19472
G1 X114.855 Y40.662 E1.20764
G1 X115.042 Y40.913 E1.22065
G1 X115.251 Y41.144 E1.2336
G1 X115.471 Y41.343 E1.24594
G1 X115.72 Y41.529 E1.25886
G1 X115.986 Y41.691 E1.27181
G1 X116.268 Y41.826 E1.2848
G1 X116.561 Y41.933 E1.29777
G1 X116.864 Y42.01 E1.31077
G1 X117.172 Y42.058 E1.32373
G1 X117.484 Y42.075 E1.33672
G1 X117.797 Y42.061 E1.34975
G1 X118.105 Y42.016 E1.36269
G1 X118.422 Y41.939 E1.37625
G1 X118.717 Y41.832 E1.3893
G1 X118.999 Y41.699 E1.40226
G1 X119.267 Y41.54 E1.41522
G1 X119.518 Y41.353 E1.42823
G1 X119.749 Y41.144 E1.44118
G1 X119.958 Y40.913 E1.45413
G1 X120.145 Y40.662 E1.46714
G1 X120.304 Y40.395 E1.48006
G1 X120.437 Y40.114 E1.49299
G1 X120.545 Y39.819 E1.50605
G1 X120.619 Y39.514 E1.5191
G1 X120.665 Y39.208 E1.53196
G1 X120.68 Y38.895 E1.54499
G1 X120.666 Y38.598 E1.55735
G1 X120.621 Y38.291 E1.57025
G1 X120.548 Y37.989 E1.58317
G1 X120.444 Y37.693 E1.59621
G1 X120.312 Y37.41 E1.6092
G1 X120.154 Y37.142 E1.62213
G1 X119.968 Y36.89 E1.63515
G1 X119.76 Y36.659 E1.64808
G1 X119.53 Y36.447 E1.66108
G1 X119.28 Y36.261 E1.67404
G1 X119.014 Y36.099 E1.68698
G1 X118.732 Y35.964 E1.69998
G1 X118.439 Y35.856 E1.71296
G1 X118.136 Y35.78 E1.72595
G1 X117.828 Y35.732 E1.73891
G1 X117.515 Y35.715 E1.75194
G1 X117.187 Y35.73 E1.7656
G1 X116.881 Y35.776 E1.77846
G1 X116.576 Y35.85 E1.79151
M204 S25
G0 F3000 X116.417 Y35.324
G1 F2700 E-6.20849
G0 F3000 X115.046 Y36.441
G0 X114.44 Y37.259
G0 X114.096 Y38.221
G0 X114.047 Y39.236
G0 X114.296 Y40.226
G0 X114.766 Y41.009
G0 X116.341 Y42.641
G0 X116.828 Y41.057
G0 X116.24 Y52.01
G0 X115.012 Y50.86
G0 X114.177 Y52.884
G0 X114.059 Y53.7
G0 X113.976 Y54.962
M204 S5
;TYPE:WALL-INNER
G1 F2700 E1.79151
G1 F600 X114.101 Y55.305 E1.80669
G1 X114.254 Y55.627 E1.82151
G1 X114.438 Y55.936 E1.83646
G1 X114.654 Y56.228 E1.85156
G1 X114.897 Y56.496 E1.8666
G1 X115.153 Y56.728 E1.88096
G1 X115.44 Y56.941 E1.89582
G1 X115.747 Y57.129 E1.91079
G1 X116.074 Y57.285 E1.92585
G1 X116.413 Y57.409 E1.94086
G1 X116.764 Y57.498 E1.95591
G1 X117.121 Y57.554 E1.97094
G1 X117.482 Y57.573 E1.98597
G1 X117.841 Y57.557 E2.00091
G1 X118.215 Y57.503 E2.01662
G1 X118.57 Y57.416 E2.03181
G1 X118.909 Y57.292 E2.04682
G1 X119.235 Y57.139 E2.06179
G1 X119.544 Y56.954 E2.07677
G1 X119.835 Y56.739 E2.09181
G1 X120.103 Y56.496 E2.10685
G1 X120.346 Y56.228 E2.12189
G1 X120.562 Y55.936 E2.13699
G1 X120.746 Y55.627 E2.15194
G1 X120.899 Y55.305 E2.16676
G1 X121.024 Y54.962 E2.18194
G1 X121.11 Y54.607 E2.19713
G1 X121.163 Y54.254 E2.21197
G1 X121.181 Y53.892 E2.22704
G1 X121.164 Y53.547 E2.2414
G1 X121.112 Y53.193 E2.25627
G1 X121.028 Y52.843 E2.27124
G1 X120.907 Y52.501 E2.28632
G1 X120.756 Y52.176 E2.30122
G1 X120.572 Y51.863 E2.31631
G1 X120.356 Y51.571 E2.33141
G1 X120.116 Y51.304 E2.34634
G1 X119.85 Y51.059 E2.36138
G1 X119.546 Y50.832 E2.37715
G1 X119.235 Y50.646 E2.39222
G1 X118.909 Y50.493 E2.40719
G1 X118.57 Y50.37 E2.42218
G1 X118.234 Y50.286 E2.43658
G1 X117.88 Y50.231 E2.45147
G1 X117.517 Y50.212 E2.46659
G1 X117.139 Y50.229 E2.48232
G1 X116.783 Y50.283 E2.49729
G1 X116.431 Y50.369 E2.51235
G1 X116.091 Y50.493 E2.5274
G1 X115.765 Y50.646 E2.54237
G1 X115.456 Y50.831 E2.55734
G1 X115.165 Y51.046 E2.57239
G1 X114.897 Y51.289 E2.58743
G1 X114.654 Y51.557 E2.60247
G1 X114.438 Y51.849 E2.61757
G1 X114.254 Y52.158 E2.63252
G1 X114.101 Y52.48 E2.64734
G1 X113.976 Y52.822 E2.66248
G1 X113.89 Y53.177 E2.67767
G1 X113.837 Y53.53 E2.69251
G1 X113.819 Y53.892 E2.70758
G1 X113.837 Y54.254 E2.72264
G1 X113.89 Y54.607 E2.73748
G1 X113.976 Y54.962 E2.75267
M204 S25
G0 F3000 X114.455 Y54.817
M204 S5
;TYPE:WALL-OUTER
G1 F600 X114.563 Y55.111 E2.76569
G1 X114.696 Y55.392 E2.77862
G1 X114.855 Y55.659 E2.79154
G1 X115.041 Y55.911 E2.80456
G1 X115.251 Y56.142 E2.81754
G1 X115.471 Y56.341 E2.82987
G1 X115.72 Y56.526 E2.84277
G1 X115.986 Y56.689 E2.85574
G1 X116.268 Y56.824 E2.86874
G1 X116.561 Y56.931 E2.88171
G1 X116.864 Y57.008 E2.8947
G1 X117.172 Y57.056 E2.90766
G1 X117.484 Y57.072 E2.92065
G1 X117.795 Y57.059 E2.93359
G1 X118.119 Y57.012 E2.9472
G1 X118.424 Y56.937 E2.96026
G1 X118.717 Y56.83 E2.97323
G1 X119 Y56.697 E2.98623
G1 X119.267 Y56.537 E2.99917
G1 X119.518 Y56.352 E3.01214
G1 X119.749 Y56.142 E3.02511
G1 X119.959 Y55.911 E3.03809
G1 X120.145 Y55.659 E3.05112
G1 X120.304 Y55.392 E3.06404
G1 X120.437 Y55.111 E3.07696
G1 X120.545 Y54.817 E3.08998
G1 X120.619 Y54.511 E3.10307
G1 X120.665 Y54.205 E3.11594
G1 X120.68 Y53.892 E3.12896
G1 X120.666 Y53.595 E3.14133
G1 X120.621 Y53.288 E3.15423
G1 X120.548 Y52.985 E3.16718
G1 X120.444 Y52.69 E3.18019
G1 X120.313 Y52.409 E3.19308
G1 X120.154 Y52.139 E3.2061
G1 X119.968 Y51.887 E3.21913
G1 X119.76 Y51.656 E3.23205
G1 X119.53 Y51.444 E3.24505
G1 X119.267 Y51.248 E3.25869
G1 X119 Y51.088 E3.27163
G1 X118.717 Y50.955 E3.28463
G1 X118.424 Y50.849 E3.29759
G1 X118.135 Y50.777 E3.30997
G1 X117.828 Y50.729 E3.32289
G1 X117.515 Y50.713 E3.33592
G1 X117.188 Y50.727 E3.34953
G1 X116.88 Y50.774 E3.36248
G1 X116.576 Y50.848 E3.37549
G1 X116.283 Y50.955 E3.38845
G1 X116 Y51.088 E3.40146
G1 X115.733 Y51.248 E3.4144
G1 X115.482 Y51.433 E3.42736
G1 X115.251 Y51.643 E3.44034
G1 X115.041 Y51.874 E3.45332
G1 X114.855 Y52.126 E3.46634
G1 X114.696 Y52.393 E3.47926
G1 X114.563 Y52.674 E3.49218
G1 X114.455 Y52.968 E3.50521
G1 X114.381 Y53.273 E3.51826
G1 X114.335 Y53.579 E3.53112
G1 X114.32 Y53.892 E3.54415
G1 X114.335 Y54.205 E3.55718
G1 X114.381 Y54.511 E3.57004
G1 X114.455 Y54.817 E3.58313
M204 S25
G0 F3000 X113.929 Y54.976
G1 F2700 E-4.41687
G0 F3000 X114.041 Y55.741
G0 X115.622 Y55.159
G0 X115.615 Y67.634
G0 X114.041 Y67.043
G0 X113.976 Y69.96
M204 S5
;TYPE:WALL-INNER
G1 F2700 E3.58313
G1 F600 X114.096 Y70.286 E3.59757
G1 X114.252 Y70.621 E3.61294
G1 X114.439 Y70.934 E3.62809
G1 X114.646 Y71.212 E3.6425
G1 X114.884 Y71.477 E3.65731
G1 X115.15 Y71.723 E3.67238
G1 X115.44 Y71.939 E3.68741
G1 X115.747 Y72.126 E3.70235
G1 X116.074 Y72.282 E3.71742
G1 X116.413 Y72.406 E3.73243
G1 X116.764 Y72.495 E3.74748
G1 X117.121 Y72.551 E3.7625
G1 X117.483 Y72.57 E3.77757
G1 X117.861 Y72.553 E3.79331
G1 X118.217 Y72.499 E3.80828
G1 X118.569 Y72.413 E3.82334
G1 X118.91 Y72.289 E3.83843
G1 X119.234 Y72.136 E3.85332
G1 X119.545 Y71.952 E3.86835
G1 X119.836 Y71.735 E3.88344
G1 X120.103 Y71.493 E3.89842
G1 X120.346 Y71.225 E3.91346
G1 X120.562 Y70.933 E3.92856
G1 X120.746 Y70.624 E3.94351
G1 X120.899 Y70.302 E3.95833
G1 X121.024 Y69.96 E3.97347
G1 X121.11 Y69.605 E3.98866
G1 X121.163 Y69.252 E4.0035
G1 X121.181 Y68.89 E4.01857
G1 X121.164 Y68.545 E4.03293
G1 X121.112 Y68.191 E4.0478
G1 X121.028 Y67.842 E4.06273
G1 X120.908 Y67.499 E4.07784
G1 X120.756 Y67.173 E4.09279
G1 X120.571 Y66.86 E4.10791
G1 X120.356 Y66.568 E4.12298
G1 X120.116 Y66.302 E4.13788
G1 X119.85 Y66.057 E4.15291
G1 X119.56 Y65.841 E4.16795
G1 X119.253 Y65.653 E4.18291
G1 X118.911 Y65.49 E4.19866
G1 X118.57 Y65.367 E4.21374
G1 X118.234 Y65.283 E4.22813
G1 X117.878 Y65.228 E4.24311
G1 X117.502 Y65.209 E4.25876
G1 X117.157 Y65.225 E4.27312
G1 X116.799 Y65.277 E4.28816
G1 X116.451 Y65.362 E4.30306
G1 X116.094 Y65.487 E4.31878
G1 X115.764 Y65.644 E4.33397
G1 X115.454 Y65.829 E4.34898
G1 X115.164 Y66.045 E4.36402
G1 X114.897 Y66.287 E4.379
G1 X114.656 Y66.554 E4.39395
G1 X114.438 Y66.844 E4.40904
G1 X114.254 Y67.156 E4.4241
G1 X114.101 Y67.477 E4.43888
G1 X113.976 Y67.821 E4.4541
G1 X113.89 Y68.175 E4.46924
G1 X113.837 Y68.528 E4.48408
G1 X113.819 Y68.89 E4.49915
G1 X113.836 Y69.235 E4.51351
G1 X113.89 Y69.604 E4.52902
G1 X113.976 Y69.96 E4.54424
M204 S25
G0 F3000 X114.455 Y69.814
M204 S5
;TYPE:WALL-OUTER
G1 F600 X114.558 Y70.093 E4.55661
G1 X114.695 Y70.387 E4.57009
G1 X114.855 Y70.656 E4.58311
G1 X115.033 Y70.895 E4.5955
G1 X115.24 Y71.126 E4.60839
G1 X115.47 Y71.338 E4.6214
G1 X115.72 Y71.524 E4.63435
G1 X115.986 Y71.686 E4.6473
G1 X116.268 Y71.821 E4.6603
G1 X116.561 Y71.928 E4.67327
G1 X116.864 Y72.005 E4.68626
G1 X117.172 Y72.053 E4.69922
G1 X117.485 Y72.069 E4.71225
G1 X117.812 Y72.055 E4.72586
G1 X118.12 Y72.008 E4.73881
G1 X118.424 Y71.934 E4.75182
G1 X118.717 Y71.827 E4.76479
G1 X118.999 Y71.694 E4.77775
G1 X119.267 Y71.535 E4.79071
G1 X119.518 Y71.348 E4.80372
G1 X119.749 Y71.139 E4.81667
G1 X119.959 Y70.908 E4.82965
G1 X120.145 Y70.656 E4.84267
G1 X120.304 Y70.389 E4.85559
G1 X120.437 Y70.108 E4.86852
G1 X120.545 Y69.814 E4.88154
G1 X120.619 Y69.509 E4.89459
G1 X120.665 Y69.203 E4.90745
G1 X120.68 Y68.89 E4.92048
G1 X120.666 Y68.593 E4.93284
G1 X120.621 Y68.286 E4.94574
G1 X120.548 Y67.984 E4.95866
G1 X120.444 Y67.688 E4.9717
G1 X120.313 Y67.406 E4.98463
G1 X120.154 Y67.136 E4.99766
G1 X119.968 Y66.885 E5.01065
G1 X119.76 Y66.654 E5.02357
G1 X119.53 Y66.442 E5.03658
G1 X119.28 Y66.256 E5.04953
G1 X119.014 Y66.093 E5.0625
G1 X118.718 Y65.952 E5.07613
G1 X118.424 Y65.846 E5.08912
G1 X118.135 Y65.774 E5.10151
G1 X117.827 Y65.726 E5.11447
G1 X117.501 Y65.71 E5.12804
G1 X117.204 Y65.723 E5.1404
G1 X116.895 Y65.768 E5.15338
G1 X116.593 Y65.842 E5.16631
G1 X116.284 Y65.95 E5.17991
G1 X116 Y66.085 E5.19299
G1 X115.733 Y66.245 E5.20593
G1 X115.482 Y66.432 E5.21894
G1 X115.251 Y66.641 E5.23189
G1 X115.042 Y66.872 E5.24485
G1 X114.855 Y67.122 E5.25782
G1 X114.696 Y67.391 E5.27082
G1 X114.563 Y67.671 E5.2837
G1 X114.455 Y67.966 E5.29676
G1 X114.381 Y68.271 E5.30981
G1 X114.335 Y68.577 E5.32268
G1 X114.32 Y68.89 E5.33571
G1 X114.334 Y69.187 E5.34807
G1 X114.381 Y69.509 E5.3616
G1 X114.455 Y69.814 E5.37464
M204 S25
G0 F3000 X113.929 Y69.974
G1 F2700 E-2.62536
G0 F3000 X114.039 Y70.734
G0 X115.613 Y70.142
G0 X115.619 Y82.623
G0 X114.041 Y82.04
G0 X113.976 Y82.817
M204 S5
;TYPE:WALL-INNER
G1 F2700 E5.37464
G1 F600 X113.89 Y83.172 E5.38983
G1 X113.837 Y83.525 E5.40467
G1 X113.819 Y83.887 E5.41974
G1 X113.837 Y84.249 E5.43481
G1 X113.89 Y84.602 E5.44965
G1 X113.976 Y84.956 E5.4648
G1 X114.101 Y85.3 E5.48001
G1 X114.254 Y85.621 E5.4948
G1 X114.438 Y85.933 E5.50986
G1 X114.647 Y86.211 E5.52431
G1 X114.896 Y86.489 E5.53983
G1 X115.153 Y86.722 E5.55425
G1 X115.44 Y86.936 E5.56914
G1 X115.747 Y87.123 E5.58408
G1 X116.073 Y87.279 E5.59911
G1 X116.413 Y87.404 E5.61417
G1 X116.764 Y87.494 E5.62923
G1 X117.121 Y87.548 E5.64424
G1 X117.483 Y87.568 E5.65932
G1 X117.86 Y87.55 E5.67501
G1 X118.216 Y87.498 E5.68997
G1 X118.57 Y87.41 E5.70513
G1 X118.912 Y87.286 E5.72026
G1 X119.235 Y87.133 E5.73512
G1 X119.545 Y86.948 E5.75013
G1 X119.836 Y86.732 E5.76519
G1 X120.103 Y86.49 E5.78017
G1 X120.344 Y86.223 E5.79513
G1 X120.562 Y85.933 E5.81021
G1 X120.746 Y85.621 E5.82527
G1 X120.899 Y85.3 E5.84005
G1 X121.024 Y84.956 E5.85527
G1 X121.11 Y84.602 E5.87042
G1 X121.163 Y84.249 E5.88526
G1 X121.181 Y83.887 E5.90033
G1 X121.164 Y83.542 E5.91469
G1 X121.112 Y83.188 E5.92956
G1 X121.028 Y82.838 E5.94453
G1 X120.907 Y82.496 E5.95961
G1 X120.756 Y82.171 E5.97451
G1 X120.572 Y81.858 E5.9896
G1 X120.356 Y81.566 E6.0047
G1 X120.116 Y81.299 E6.01963
G1 X119.85 Y81.054 E6.03467
G1 X119.56 Y80.838 E6.0497
G1 X119.253 Y80.651 E6.06464
G1 X118.926 Y80.495 E6.07971
G1 X118.586 Y80.37 E6.09477
G1 X118.22 Y80.278 E6.11046
G1 X117.878 Y80.226 E6.12484
G1 X117.518 Y80.207 E6.13983
G1 X117.157 Y80.223 E6.15485
G1 X116.8 Y80.275 E6.16985
G1 X116.433 Y80.364 E6.18555
G1 X116.091 Y80.488 E6.20067
G1 X115.766 Y80.641 E6.21561
G1 X115.455 Y80.825 E6.23063
G1 X115.164 Y81.042 E6.24572
G1 X114.897 Y81.284 E6.26071
G1 X114.655 Y81.551 E6.27569
G1 X114.438 Y81.842 E6.29078
G1 X114.254 Y82.153 E6.3058
G1 X114.101 Y82.475 E6.32062
G1 X113.976 Y82.817 E6.33576
M204 S25
G0 F3000 X114.455 Y82.963
M204 S5
;TYPE:WALL-OUTER
G1 F600 X114.381 Y83.268 E6.34881
G1 X114.335 Y83.574 E6.36168
G1 X114.32 Y83.887 E6.3747
G1 X114.335 Y84.2 E6.38773
G1 X114.381 Y84.506 E6.4006
G1 X114.455 Y84.811 E6.41365
G1 X114.563 Y85.106 E6.42671
G1 X114.696 Y85.386 E6.43959
G1 X114.855 Y85.655 E6.45258
G1 X115.034 Y85.894 E6.465
G1 X115.251 Y86.136 E6.47851
G1 X115.471 Y86.335 E6.49085
G1 X115.72 Y86.521 E6.50377
G1 X115.986 Y86.683 E6.51672
G1 X116.268 Y86.818 E6.52971
G1 X116.561 Y86.926 E6.5427
G1 X116.864 Y87.003 E6.55569
G1 X117.172 Y87.05 E6.56865
G1 X117.485 Y87.067 E6.58168
G1 X117.812 Y87.052 E6.59529
G1 X118.119 Y87.007 E6.60819
G1 X118.424 Y86.931 E6.62126
G1 X118.719 Y86.824 E6.6343
G1 X119 Y86.691 E6.64723
G1 X119.267 Y86.532 E6.66015
G1 X119.518 Y86.345 E6.67316
G1 X119.749 Y86.136 E6.68611
G1 X119.958 Y85.905 E6.69907
G1 X120.145 Y85.655 E6.71204
G1 X120.304 Y85.386 E6.72504
G1 X120.437 Y85.106 E6.73792
G1 X120.545 Y84.811 E6.75098
G1 X120.619 Y84.506 E6.76403
G1 X120.665 Y84.2 E6.7769
G1 X120.68 Y83.887 E6.78993
G1 X120.666 Y83.59 E6.80229
G1 X120.621 Y83.283 E6.81519
G1 X120.548 Y82.98 E6.82814
G1 X120.444 Y82.685 E6.84115
G1 X120.313 Y82.404 E6.85404
G1 X120.154 Y82.134 E6.86707
G1 X119.968 Y81.882 E6.88009
