;FLAVOR:Marlin
;TIME:615
;Filament used: 0.723521m
;Layer height: 0.2
;MINX:97.799
;MINY:106.313
;MINZ:0.2
;MAXX:137.201
;MAXY:128.627
;MAXZ:3.75
;Generated with Cura_SteamEngine 4.12.1
M140 S60
M105
M190 S60
M104 S200
M105
M109 S200
M82 ;absolute extrusion mode
; Ender 3 Custom Start G-code
G92 E0 ; Reset Extruder
G28 ; Home all axes
G1 Z2.0 F3000 ; Move Z Axis up little to prevent scratching of Heat Bed
G1 X0.1 Y20 Z0.3 F5000.0 ; Move to start position
G1 X0.1 Y200.0 Z0.3 F1500.0 E15 ; Draw the first line
G1 X0.4 Y200.0 Z0.3 F5000.0 ; Move to side a little
G1 X0.4 Y20 Z0.3 F1500.0 E30 ; Draw the second line
G92 E0 ; Reset Extruder
G1 Z2.0 F3000 ; Move Z Axis up little to prevent scratching of Heat Bed
G1 X5 Y20 Z0.3 F5000.0 ; Move over to prevent blob squish
G92 E0
G92 E0
G1 F2700 E-8
;LAYER_COUNT:14
;LAYER:0
M107
M204 S25
;MESH:Blade_test.stl
G0 F3000 X134.901 Y126.862 Z0.2
M204 S5
;TYPE:WALL-INNER
G1 F2700 E0
G1 F600 X117.699 Y118.261 E0.79959
G1 X117.301 Y118.261 E0.81614
G1 X100.099 Y126.862 E1.61573
G1 X100.099 Y115.629 E2.08274
G1 X117.5 Y106.928 E2.89159
G1 X134.901 Y115.629 E3.70044
G1 X134.901 Y126.862 E4.16746
M204 S25
G0 F3000 X135.401 Y127.671
M204 S5
;TYPE:WALL-OUTER
G1 F600 X117.581 Y118.761 E4.99578
G1 X117.419 Y118.761 E5.00251
G1 X99.599 Y127.671 E5.83083
G1 X99.599 Y115.32 E6.34432
G1 X117.5 Y106.369 E7.17641
G1 X135.401 Y115.32 E8.00851
G1 X135.401 Y127.671 E8.522
M204 S25
G0 F3000 X135.099 Y127.181
G0 X134.264 Y126.363
G0 X134.411 Y126.069
M204 S5
;TYPE:SKIN
G1 F600 X117.815 Y117.771 E9.29342
G1 X117.185 Y117.771 E9.31962
G1 X100.589 Y126.069 E10.09104
G1 X100.589 Y115.932 E10.51249
G1 X117.5 Y107.477 E11.29854
G1 X134.411 Y115.932 E12.0846
G1 X134.411 Y126.069 E12.50604
M204 S25
G0 F3000 X134.264 Y126.363
G0 X134.662 Y126.475
G0 X134.741 Y116.532
G0 X134.21 Y116.532
M204 S5
G1 F600 X133.257 Y115.58 E12.56205
M204 S25
G0 F3000 X133.494 Y115.106
G0 X132.08 Y114.399
G0 X131.843 Y114.873
M204 S5
G1 F600 X134.21 Y117.239 E12.70119
M204 S25
G0 F3000 X134.21 Y117.946
M204 S5
G1 F600 X130.429 Y114.165 E12.9235
M204 S25
G0 F3000 X130.666 Y113.692
G0 X129.252 Y112.985
G0 X129.015 Y113.458
M204 S5
G1 F600 X134.21 Y118.653 E13.22894
M204 S25
G0 F3000 X134.21 Y119.361
M204 S5
G1 F600 X127.601 Y112.752 E13.61753
M204 S25
G0 F3000 X127.838 Y112.278
G0 X126.424 Y111.571
G0 X126.187 Y112.045
M204 S5
G1 F600 X134.21 Y120.068 E14.08925
M204 S25
G0 F3000 X134.21 Y120.775
M204 S5
G1 F600 X124.773 Y111.338 E14.64411
M204 S25
G0 F3000 X125.01 Y110.864
G0 X123.596 Y110.157
G0 X123.359 Y110.631
M204 S5
G1 F600 X134.21 Y121.482 E15.28211
M204 S25
G0 F3000 X134.21 Y122.189
M204 S5
G1 F600 X121.945 Y109.924 E16.00324
M204 S25
G0 F3000 X122.182 Y109.45
G0 X120.768 Y108.743
G0 X120.531 Y109.217
M204 S5
G1 F600 X134.21 Y122.896 E16.80751
M204 S25
G0 F3000 X134.21 Y123.603
M204 S5
G1 F600 X119.117 Y108.51 E17.69492
M204 S25
G0 F3000 X119.354 Y108.036
G0 X117.94 Y107.328
G0 X117.702 Y107.803
M204 S5
G1 F600 X134.21 Y124.31 E18.6655
M204 S25
G0 F3000 X134.21 Y125.017
M204 S5
G1 F600 X117.096 Y107.903 E19.67174
M204 S25
G0 F3000 X116.624 Y108.139
M204 S5
G1 F600 X134.21 Y125.724 E20.7057
M204 S25
G0 F3000 X134.741 Y125.724
G0 X134.662 Y126.475
G0 X132.598 Y125.53
G0 X132.835 Y125.057
M204 S5
G1 F600 X116.152 Y108.374 E21.6866
M204 S25
G0 F3000 X115.681 Y108.61
M204 S5
G1 F600 X131.421 Y124.35 E22.61205
M204 S25
G0 F3000 X131.184 Y124.823
G0 X129.77 Y124.116
G0 X130.007 Y123.643
M204 S5
G1 F600 X115.21 Y108.846 E23.48205
M204 S25
G0 F3000 X114.738 Y109.081
M204 S5
G1 F600 X128.593 Y122.936 E24.29668
M204 S25
G0 F3000 X128.356 Y123.409
G0 X126.942 Y122.702
G0 X127.179 Y122.229
M204 S5
G1 F600 X114.267 Y109.318 E25.05582
M204 S25
G0 F3000 X113.796 Y109.553
M204 S5
G1 F600 X125.765 Y121.522 E25.75955
M204 S25
G0 F3000 X125.528 Y121.996
G0 X124.114 Y121.289
G0 X124.351 Y120.815
M204 S5
G1 F600 X113.324 Y109.788 E26.4079
M204 S25
G0 F3000 X112.852 Y110.024
M204 S5
G1 F600 X122.937 Y120.109 E27.00086
M204 S25
G0 F3000 X122.7 Y120.582
G0 X121.286 Y119.875
G0 X121.523 Y119.402
M204 S5
G1 F600 X112.381 Y110.26 E27.53837
M204 S25
G0 F3000 X111.91 Y110.496
M204 S5
G1 F600 X120.109 Y118.694 E28.02041
M204 S25
G0 F3000 X119.872 Y119.168
G0 X118.457 Y118.46
G0 X118.694 Y117.987
M204 S5
G1 F600 X111.438 Y110.731 E28.44704
M204 S25
G0 F3000 X110.967 Y110.967
M204 S5
G1 F600 X117.57 Y117.57 E28.83527
M204 S25
G0 F3000 X116.954 Y117.661
M204 S5
G1 F600 X110.496 Y111.203 E29.21497
M204 S25
G0 F3000 X110.024 Y111.438
M204 S5
G1 F600 X116.483 Y117.897 E29.59474
M204 S25
G0 F3000 X116.011 Y118.132
M204 S5
G1 F600 X109.553 Y111.674 E29.97444
M204 S25
G0 F3000 X109.081 Y111.91
M204 S5
G1 F600 X115.54 Y118.368 E30.35418
M204 S25
G0 F3000 X115.068 Y118.604
M204 S5
G1 F600 X108.61 Y112.145 E30.73391
M204 S25
G0 F3000 X108.138 Y112.381
M204 S5
G1 F600 X114.597 Y118.839 E31.11365
M204 S25
G0 F3000 X114.126 Y119.076
M204 S5
G1 F600 X107.667 Y112.617 E31.49341
M204 S25
G0 F3000 X107.195 Y112.852
M204 S5
G1 F600 X113.654 Y119.311 E31.87318
M204 S25
G0 F3000 X113.183 Y119.547
M204 S5
G1 F600 X106.724 Y113.088 E32.25294
M204 S25
G0 F3000 X106.253 Y113.324
M204 S5
G1 F600 X112.712 Y119.783 E32.63271
M204 S25
G0 F3000 X112.24 Y120.018
M204 S5
G1 F600 X105.781 Y113.559 E33.01247
M204 S25
G0 F3000 X105.31 Y113.795
M204 S5
G1 F600 X111.768 Y120.254 E33.39221
M204 S25
G0 F3000 X111.297 Y120.489
M204 S5
G1 F600 X104.838 Y114.03 E33.77197
M204 S25
G0 F3000 X104.367 Y114.267
M204 S5
G1 F600 X110.826 Y120.725 E34.15171
M204 S25
G0 F3000 X110.354 Y120.961
M204 S5
G1 F600 X103.895 Y114.502 E34.53147
M204 S25
G0 F3000 X103.424 Y114.737
M204 S5
G1 F600 X109.882 Y121.196 E34.91121
M204 S25
G0 F3000 X109.412 Y121.432
M204 S5
G1 F600 X102.953 Y114.974 E35.29094
M204 S25
G0 F3000 X102.481 Y115.209
M204 S5
G1 F600 X108.94 Y121.668 E35.67071
M204 S25
G0 F3000 X108.468 Y121.903
M204 S5
G1 F600 X102.01 Y115.445 E36.05041
M204 S25
G0 F3000 X101.539 Y115.681
M204 S5
G1 F600 X107.997 Y122.139 E36.43012
M204 S25
G0 F3000 X107.526 Y122.375
M204 S5
G1 F600 X101.067 Y115.916 E36.80988
M204 S25
G0 F3000 X100.788 Y116.345
M204 S5
G1 F600 X107.054 Y122.61 E37.17827
M204 S25
G0 F3000 X106.583 Y122.847
M204 S5
G1 F600 X100.788 Y117.052 E37.51899
M204 S25
G0 F3000 X100.788 Y117.759
M204 S5
G1 F600 X106.111 Y123.082 E37.83196
M204 S25
G0 F3000 X105.64 Y123.318
M204 S5
G1 F600 X100.788 Y118.466 E38.11724
M204 S25
G0 F3000 X100.788 Y119.173
M204 S5
G1 F600 X105.168 Y123.553 E38.37477
M204 S25
G0 F3000 X104.697 Y123.789
M204 S5
G1 F600 X100.788 Y119.88 E38.6046
M204 S25
G0 F3000 X100.788 Y120.587
M204 S5
G1 F600 X104.226 Y124.025 E38.80675
M204 S25
G0 F3000 X103.754 Y124.26
M204 S5
G1 F600 X100.788 Y121.294 E38.98114
M204 S25
G0 F3000 X100.788 Y122.002
M204 S5
G1 F600 X103.283 Y124.496 E39.1278
M204 S25
G0 F3000 X102.811 Y124.732
M204 S5
G1 F600 X100.788 Y122.709 E39.24675
M204 S25
G0 F3000 X100.788 Y123.416
M204 S5
G1 F600 X102.34 Y124.967 E39.33797
M204 S25
G0 F3000 X101.869 Y125.203
M204 S5
G1 F600 X100.788 Y124.123 E39.4015
M204 S25
G0 F3000 X100.788 Y124.83
M204 S5
G1 F600 X101.397 Y125.439 E39.43731
M204 S25
G0 F3000 X100.926 Y125.674
M204 S5
G1 F600 X100.788 Y125.537 E39.44539
M204 S25
G0 F3000 X100.349 Y125.537
G1 F2700 E31.44539
;MESH:NONMESH
G0 F300 X100.349 Y125.537 Z0.45
G0 F3000 X100.259 Y125.537
G0 X100.338 Y126.475
G0 X117.351 Y118.473
G0 X135.051 Y127.068
G1 F2700 E39.44539
G0 F3000 X135.201 Y127.068
;TIME_ELAPSED:167.748211
;LAYER:1
M106 S85
M204 S252
;TYPE:WALL-INNER
;MESH:Blade_test.stl
G1 F900 X117.5 Y118.217 E40.47388
G1 X99.799 Y127.068 E41.50238
G1 X99.799 Y115.723 E42.09197
G1 X117.5 Y106.872 E43.12046
G1 X135.201 Y115.723 E44.14895
G1 X135.201 Y127.068 E44.73854
M204 S138
G0 F9000 X135.701 Y127.877
M204 S252
;TYPE:WALL-OUTER
G1 F900 X117.5 Y118.776 E45.79609
G1 X99.299 Y127.877 E46.85363
G1 X99.299 Y115.414 E47.50132
G1 X117.5 Y106.313 E48.55887
G1 X135.701 Y115.414 E49.61641
G1 X135.701 Y127.877 E50.2641
M204 S138
G0 F9000 X135.399 Y127.387
G0 X134.564 Y126.569
G0 X134.711 Y126.275
M204 S252
;TYPE:SKIN
G1 F1800 X117.5 Y117.669 E51.26413
G1 X100.289 Y126.275 E52.26415
G1 X100.289 Y116.026 E52.79678
G1 X117.5 Y107.421 E53.79678
G1 X134.711 Y116.026 E54.79678
G1 X134.711 Y126.275 E55.32941
M204 S138
G0 F9000 X134.346 Y125.869
M204 S252
G1 F1800 X134.51 Y125.705 E55.34146
M204 S138
G0 F9000 X133.874 Y125.633
M204 S252
G1 F1800 X134.51 Y124.998 E55.38817
M204 S138
G0 F9000 X134.51 Y124.29
M204 S252
G1 F1800 X133.402 Y125.398 E55.4696
M204 S138
G0 F9000 X132.931 Y125.162
M204 S252
G1 F1800 X134.51 Y123.583 E55.58565
M204 S138
G0 F9000 X134.51 Y122.876
M204 S252
G1 F1800 X132.46 Y124.926 E55.73632
M204 S138
G0 F9000 X131.988 Y124.691
M204 S252
G1 F1800 X134.51 Y122.169 E55.92167
M204 S138
G0 F9000 X134.51 Y121.462
M204 S252
G1 F1800 X131.517 Y124.455 E56.14164
M204 S138
G0 F9000 X131.045 Y124.219
M204 S252
G1 F1800 X134.51 Y120.755 E56.39627
M204 S138
G0 F9000 X134.51 Y120.048
M204 S252
G1 F1800 X130.574 Y123.984 E56.68554
M204 S138
G0 F9000 X130.103 Y123.747
M204 S252
G1 F1800 X134.51 Y119.341 E57.0094
M204 S138
G0 F9000 X134.51 Y118.634
M204 S252
G1 F1800 X129.631 Y123.512 E57.36795
M204 S138
G0 F9000 X129.16 Y123.276
M204 S252
G1 F1800 X134.51 Y117.927 E57.76111
M204 S138
G0 F9000 X134.51 Y117.219
M204 S252
G1 F1800 X128.689 Y123.04 E58.18892
M204 S138
G0 F9000 X128.217 Y122.805
M204 S252
G1 F1800 X134.51 Y116.512 E58.65143
M204 S138
G0 F9000 X134.28 Y116.034
M204 S252
G1 F1800 X127.745 Y122.569 E59.13172
M204 S138
G0 F9000 X127.274 Y122.333
M204 S252
G1 F1800 X133.809 Y115.799 E59.61198
M204 S138
G0 F9000 X133.338 Y115.563
M204 S252
G1 F1800 X126.803 Y122.098 E60.09227
M204 S138
G0 F9000 X126.331 Y121.862
M204 S252
G1 F1800 X132.866 Y115.327 E60.57256
M204 S138
G0 F9000 X132.395 Y115.092
M204 S252
G1 F1800 X125.86 Y121.626 E61.05281
M204 S138
G0 F9000 X125.389 Y121.391
M204 S252
G1 F1800 X131.924 Y114.856 E61.5331
M204 S138
G0 F9000 X131.452 Y114.62
M204 S252
G1 F1800 X124.917 Y121.155 E62.01339
M204 S138
G0 F9000 X124.446 Y120.919
M204 S252
G1 F1800 X130.98 Y114.385 E62.49361
M204 S138
G0 F9000 X130.509 Y114.148
M204 S252
G1 F1800 X123.974 Y120.684 E62.97394
M204 S138
G0 F9000 X123.503 Y120.448
M204 S252
G1 F1800 X130.038 Y113.913 E63.45423
M204 S138
G0 F9000 X129.566 Y113.678
M204 S252
G1 F1800 X123.032 Y120.212 E63.93445
M204 S138
G0 F9000 X122.56 Y119.976
M204 S252
G1 F1800 X129.095 Y113.441 E64.41474
M204 S138
G0 F9000 X128.624 Y113.206
M204 S252
G1 F1800 X122.089 Y119.741 E64.89503
M204 S138
G0 F9000 X121.618 Y119.505
M204 S252
G1 F1800 X128.152 Y112.97 E65.37529
M204 S138
G0 F9000 X127.681 Y112.734
M204 S252
G1 F1800 X121.146 Y119.269 E65.85558
M204 S138
G0 F9000 X120.674 Y119.034
M204 S252
G1 F1800 X127.209 Y112.499 E66.33587
M204 S138
G0 F9000 X126.738 Y112.263
M204 S252
G1 F1800 X120.203 Y118.798 E66.81616
M204 S138
G0 F9000 X119.732 Y118.562
M204 S252
G1 F1800 X126.267 Y112.027 E67.29645
M204 S138
G0 F9000 X125.795 Y111.792
M204 S252
G1 F1800 X119.26 Y118.327 E67.77674
M204 S138
G0 F9000 X118.789 Y118.091
M204 S252
G1 F1800 X125.324 Y111.556 E68.25703
M204 S138
G0 F9000 X124.852 Y111.321
M204 S252
G1 F1800 X118.318 Y117.855 E68.73725
M204 S138
G0 F9000 X117.846 Y117.62
M204 S252
G1 F1800 X124.381 Y111.085 E69.21754
M204 S138
G0 F9000 X123.909 Y110.849
M204 S252
G1 F1800 X117.128 Y117.63 E69.71591
M204 S138
G0 F9000 X117.364 Y118.105
G0 X115.95 Y118.812
G0 X115.714 Y118.337
M204 S252
G1 F1800 X123.438 Y110.614 E70.28355
M204 S138
G0 F9000 X122.967 Y110.377
M204 S252
G1 F1800 X114.3 Y119.044 E70.92054
M204 S138
G0 F9000 X114.536 Y119.519
G0 X113.122 Y120.226
G0 X112.886 Y119.752
M204 S252
G1 F1800 X122.495 Y110.142 E71.62679
M204 S138
G0 F9000 X122.024 Y109.907
M204 S252
G1 F1800 X111.471 Y120.459 E72.40235
M204 S138
G0 F9000 X111.707 Y120.934
G0 X110.293 Y121.641
G0 X110.057 Y121.166
M204 S252
G1 F1800 X121.553 Y109.67 E73.24725
M204 S138
G0 F9000 X121.081 Y109.435
M204 S252
G1 F1800 X108.643 Y121.873 E74.16138
M204 S138
G0 F9000 X108.879 Y122.348
G0 X107.465 Y123.055
G0 X107.229 Y122.58
M204 S252
G1 F1800 X120.609 Y109.199 E75.14478
M204 S138
G0 F9000 X120.138 Y108.963
M204 S252
G1 F1800 X105.814 Y123.287 E76.19753
M204 S138
G0 F9000 X106.05 Y123.762
G0 X104.636 Y124.469
G0 X104.4 Y123.994
M204 S252
G1 F1800 X119.667 Y108.728 E77.31954
M204 S138
G0 F9000 X119.195 Y108.492
M204 S252
G1 F1800 X102.986 Y124.701 E78.51083
M204 S138
G0 F9000 X103.222 Y125.176
G0 X101.808 Y125.883
G0 X101.572 Y125.408
M204 S252
G1 F1800 X118.724 Y108.256 E79.77142
M204 S138
G0 F9000 X118.253 Y108.021
M204 S252
G1 F1800 X100.489 Y125.785 E81.07699
M204 S138
G0 F9000 X100.489 Y125.077
M204 S252
G1 F1800 X117.781 Y107.785 E82.34787
M204 S138
G0 F9000 X116.931 Y107.928
M204 S252
G1 F1800 X100.489 Y124.37 E83.55627
M204 S138
G0 F9000 X100.489 Y123.663
M204 S252
G1 F1800 X115.517 Y108.635 E84.66076
M204 S138
G0 F9000 X115.281 Y108.161
G0 X113.867 Y108.869
G0 X114.102 Y109.342
M204 S252
G1 F1800 X100.489 Y122.956 E85.66129
M204 S138
G0 F9000 X100.489 Y122.249
M204 S252
G1 F1800 X112.689 Y110.049 E86.55793
M204 S138
G0 F9000 X112.453 Y109.575
G0 X111.039 Y110.282
G0 X111.275 Y110.756
M204 S252
G1 F1800 X100.489 Y121.542 E87.35065
M204 S138
G0 F9000 X100.489 Y120.835
M204 S252
G1 F1800 X109.861 Y111.463 E88.03944
M204 S138
G0 F9000 X109.625 Y110.989
G0 X108.212 Y111.696
G0 X108.447 Y112.169
M204 S252
G1 F1800 X100.489 Y120.128 E88.62436
M204 S138
G0 F9000 X100.489 Y119.421
M204 S252
G1 F1800 X107.033 Y112.876 E89.10535
M204 S138
G0 F9000 X106.798 Y112.403
G0 X105.384 Y113.11
G0 X105.619 Y113.583
M204 S252
G1 F1800 X100.489 Y118.714 E89.48241
M204 S138
G0 F9000 X100.489 Y118.006
M204 S252
G1 F1800 X104.205 Y114.29 E89.75552
M204 S138
G0 F9000 X103.97 Y113.817
G0 X102.556 Y114.524
G0 X102.791 Y114.997
M204 S252
G1 F1800 X100.489 Y117.299 E89.92471
M204 S138
G0 F9000 X100.489 Y116.592
M204 S252
G1 F1800 X101.377 Y115.704 E89.98997
M204 S138
G0 F9000 X101.181 Y115.312
G1 F2700 E81.98997
;MESH:NONMESH
G0 F300 X101.181 Y115.312 Z0.75
G0 F9000 X101.142 Y115.231
G0 X100.025 Y115.863
G0 X100.038 Y126.681
G0 X117.5 Y118.456
G0 X135.351 Y127.218
G1 F2700 E89.98997
G0 F9000 X135.501 Y127.218
;TIME_ELAPSED:222.613734
;LAYER:2
M106 S170
M204 S500
;TYPE:WALL-INNER
;MESH:Blade_test.stl
G1 F1200 X117.5 Y118.217 E91.24508
G1 X99.499 Y127.218 E92.50019
G1 X99.499 Y115.873 E93.2077
G1 X117.5 Y106.872 E94.46281
G1 X135.501 Y115.873 E95.71792
G1 X135.501 Y127.218 E96.42542
M204 S250
G0 F15000 X136.001 Y128.027
M204 S500
;TYPE:WALL-OUTER
G1 F1200 X117.5 Y118.776 E97.71539
G1 X98.999 Y128.027 E99.00536
G1 X98.999 Y115.564 E99.78259
G1 X117.5 Y106.313 E101.07256
G1 X136.001 Y115.564 E102.36253
G1 X136.001 Y128.027 E103.13976
M204 S250
G0 F15000 X135.699 Y127.537
G0 X134.864 Y126.719
G0 X135.011 Y126.425
M204 S500
;TYPE:SKIN
G1 F3000 X117.5 Y117.669 E104.36071
G1 X99.989 Y126.425 E105.58165
G1 X99.989 Y116.176 E106.22081
G1 X117.5 Y107.421 E107.44173
G1 X135.011 Y116.176 E108.66264
G1 X135.011 Y126.425 E109.3018
M204 S250
G0 F15000 X134.864 Y126.719
G0 X135.262 Y126.831
G0 X135.341 Y116.425
G0 X134.81 Y116.425
M204 S500
G1 F3000 X134.559 Y116.174 E109.32394
M204 S250
G0 F15000 X134.81 Y117.132
M204 S500
G1 F3000 X133.145 Y115.467 E109.47078
M204 S250
G0 F15000 X133.382 Y114.994
G0 X131.968 Y114.287
G0 X131.731 Y114.76
M204 S500
G1 F3000 X134.81 Y117.84 E109.74237
M204 S250
G0 F15000 X134.81 Y118.547
M204 S500
G1 F3000 X130.316 Y114.053 E110.13872
M204 S250
G0 F15000 X130.553 Y113.579
G0 X129.139 Y112.872
G0 X128.902 Y113.346
M204 S500
G1 F3000 X134.81 Y119.254 E110.65977
M204 S250
G0 F15000 X134.81 Y119.961
M204 S500
G1 F3000 X127.488 Y112.639 E111.30553
M204 S250
G0 F15000 X127.725 Y112.165
G0 X126.312 Y111.459
G0 X126.075 Y111.932
M204 S500
G1 F3000 X134.81 Y120.668 E112.07595
M204 S250
G0 F15000 X134.81 Y121.375
M204 S500
G1 F3000 X124.66 Y111.225 E112.97112
M204 S250
G0 F15000 X124.897 Y110.751
G0 X123.483 Y110.044
G0 X123.246 Y110.518
M204 S500
G1 F3000 X134.81 Y122.082 E113.991
M204 S250
G0 F15000 X134.81 Y122.789
M204 S500
G1 F3000 X121.832 Y109.811 E115.13558
M204 S250
