;FLAVOR:Marlin
;TIME:2488
;Filament used: 1.82914m
;Layer height: 0.2
;MINX:115.257
;MINY:85.986
;MINZ:0.2
;MAXX:119.756
;MAXY:148.954
;MAXZ:31.7
;Generated with Cura_SteamEngine 4.12.1
M140 S60
M105
M190 S60
M104 S200
M105
M109 S200
M82 ;absolute extrusion mode
; Ender 3 Custom Start G-code
G92 E0 ; Reset Extruder
G28 ; Home all axes
G1 Z2.0 F3000 ; Move Z Axis up little to prevent scratching of Heat Bed
G1 X0.1 Y20 Z0.3 F5000.0 ; Move to start position
G1 X0.1 Y200.0 Z0.3 F1500.0 E15 ; Draw the first line
G1 X0.4 Y200.0 Z0.3 F5000.0 ; Move to side a little
G1 X0.4 Y20 Z0.3 F1500.0 E30 ; Draw the second line
G92 E0 ; Reset Extruder
G1 Z2.0 F3000 ; Move Z Axis up little to prevent scratching of Heat Bed
G1 X5 Y20 Z0.3 F5000.0 ; Move over to prevent blob squish
G92 E0
G92 E0
G1 F2700 E-8
;LAYER_COUNT:107
;LAYER:0
M107
M204 S25
;MESH:Holder_out.stl
G0 F3000 X117.02 Y101.223 Z0.2
M204 S5
;TYPE:WALL-INNER
G1 F2700 E0
G1 F600 X116.71 Y101.223 E0.01289
G1 X116.71 Y93.836 E0.32
G1 X118.291 Y93.835 E0.38573
G1 X118.291 Y100.963 E0.68208
G1 X117.28 Y100.963 E0.72411
G1 X117.02 Y101.223 E0.7394
M204 S25
G0 F3000 X117.291 Y101.723
M204 S5
;TYPE:WALL-OUTER
G1 F600 X116.21 Y101.723 E0.78434
G1 X116.21 Y93.336 E1.13304
G1 X118.791 Y93.335 E1.24034
G1 X118.791 Y101.463 E1.57826
G1 X117.487 Y101.463 E1.63248
G1 X117.291 Y101.659 E1.644
G1 X117.291 Y101.723 E1.64666
M204 S25
G0 F3000 X116.903 Y101.173
G0 X117.2 Y100.473
M204 S5
;TYPE:SKIN
G1 F600 X117.2 Y94.326 E1.90223
G1 X117.801 Y94.325 E1.92721
G1 X117.801 Y100.473 E2.18282
G1 X117.2 Y100.473 E2.2078
M204 S25
G0 F3000 X117.6 Y99.922
M204 S5
G1 F600 X117.399 Y99.721 E2.21962
M204 S25
G0 F3000 X117.6 Y99.215
M204 S5
G1 F600 X117.399 Y99.014 E2.23144
M204 S25
G0 F3000 X117.6 Y98.508
M204 S5
G1 F600 X117.399 Y98.307 E2.24326
M204 S25
G0 F3000 X117.6 Y97.801
M204 S5
G1 F600 X117.399 Y97.6 E2.25508
M204 S25
G0 F3000 X117.6 Y97.094
M204 S5
G1 F600 X117.399 Y96.893 E2.26689
M204 S25
G0 F3000 X117.6 Y96.387
M204 S5
G1 F600 X117.399 Y96.186 E2.27871
M204 S25
G0 F3000 X117.6 Y95.68
M204 S5
G1 F600 X117.399 Y95.479 E2.29053
M204 S25
G0 F3000 X117.6 Y94.972
M204 S5
G1 F600 X117.399 Y94.772 E2.30232
M204 S25
G0 F3000 X116.87 Y94.772
G0 X116.87 Y100.688
G0 X116.951 Y100.688
M204 S5
;TYPE:SKIN
G1 F600 X117.111 Y100.847 E2.30701
M204 S25
G0 F3000 X117.423 Y100.713
G1 F2700 E-5.69299
G0 F3000 X117.423 Y100.803
G0 X117.02 Y101.453
G0 X117.02 Y102.638
G0 X117.02 Y104.888
G0 X117.02 Y106.073
G0 X116.955 Y106.585
G0 X116.955 Y111.468
G0 X117.02 Y111.75
M204 S5
;TYPE:WALL-INNER
G1 F2700 E2.30701
G1 F600 X116.71 Y111.75 E2.3199
G1 X116.71 Y106.303 E2.54636
G1 X117.02 Y106.303 E2.55924
G1 X117.28 Y106.563 E2.57453
G1 X118.291 Y106.563 E2.61656
G1 X118.291 Y111.49 E2.8214
G1 X117.28 Y111.49 E2.86344
G1 X117.02 Y111.75 E2.87872
M204 S25
G0 F3000 X117.291 Y112.25
M204 S5
;TYPE:WALL-OUTER
G1 F600 X116.21 Y112.25 E2.92367
G1 X116.21 Y105.803 E3.1917
G1 X117.291 Y105.803 E3.23664
G1 X117.291 Y105.867 E3.2393
G1 X117.487 Y106.063 E3.25083
G1 X118.791 Y106.063 E3.30504
G1 X118.791 Y111.99 E3.55146
G1 X117.487 Y111.99 E3.60567
G1 X117.291 Y112.186 E3.6172
G1 X117.291 Y112.25 E3.61986
M204 S25
G0 F3000 X116.903 Y111.7
G0 X117.2 Y111
M204 S5
;TYPE:SKIN
G1 F600 X117.2 Y107.053 E3.78395
G1 X117.801 Y107.053 E3.80894
G1 X117.801 Y111 E3.97304
G1 X117.2 Y111 E3.99803
M204 S25
G0 F3000 X117.6 Y110.529
M204 S5
G1 F600 X117.398 Y110.327 E4.0099
M204 S25
G0 F3000 X117.6 Y109.822
M204 S5
G1 F600 X117.398 Y109.62 E4.02178
M204 S25
G0 F3000 X117.6 Y109.115
M204 S5
G1 F600 X117.398 Y108.913 E4.03366
M204 S25
G0 F3000 X117.6 Y108.407
M204 S5
G1 F600 X117.398 Y108.206 E4.0455
M204 S25
G0 F3000 X117.6 Y107.7
M204 S5
G1 F600 X117.398 Y107.499 E4.05735
M204 S25
G0 F3000 X117.091 Y106.838
M204 S5
;TYPE:SKIN
G1 F600 X116.908 Y106.655 E4.06273
M204 S25
G0 F3000 X116.87 Y106.655
G0 X116.87 Y111.251
G0 X116.908 Y111.251
M204 S5
G1 F600 X117.071 Y111.414 E4.06752
M204 S25
G0 F3000 X117.192 Y111.279
G1 F2700 E-3.93248
G0 F3000 X117.227 Y111.33
G0 X117.116 Y111.982
G0 X117.116 Y113.165
G0 X117.428 Y115.415
G0 X117.428 Y116.733
G0 X118.059 Y117.322
G0 X118.17 Y123.254
G0 X118.29 Y143.989
M204 S5
;TYPE:WALL-INNER
G1 F2700 E4.06752
G1 F600 X118.29 Y144.581 E4.09213
G1 X118.29 Y147.747 E4.22376
G1 X117.736 Y148.361 E4.25814
G1 X116.71 Y148.363 E4.3008
G1 X116.71 Y145.33 E4.4269
G1 X116.735 Y145.33 E4.42794
G1 X117.043 Y145.208 E4.44171
G1 X117.867 Y144.403 E4.4896
G1 X118.29 Y143.989 E4.50285
M204 S25
G0 F3000 X118.291 Y117.09
M204 S5
G1 F600 X118.291 Y124.262 E4.80103
G1 X118.047 Y124.018 E4.81538
G1 X116.71 Y124.018 E4.87096
G1 X116.71 Y116.83 E5.16981
G1 X117.02 Y116.83 E5.18269
G1 X117.28 Y117.09 E5.19798
G1 X118.291 Y117.09 E5.24001
M204 S25
G0 F3000 X118.791 Y116.59
M204 S5
;TYPE:WALL-OUTER
G1 F600 X118.79 Y147.939 E6.54335
G1 X117.959 Y148.861 E6.59496
G1 X116.21 Y148.864 E6.66767
G1 X116.21 Y144.83 E6.83539
G1 X116.639 Y144.83 E6.85322
G1 X116.765 Y144.78 E6.85886
G1 X117.982 Y143.591 E6.9296
G1 X118.036 Y143.462 E6.93541
G1 X118.036 Y124.714 E7.71486
G1 X117.84 Y124.518 E7.72638
G1 X116.21 Y124.518 E7.79415
G1 X116.21 Y116.33 E8.13457
G1 X117.291 Y116.33 E8.17951
G1 X117.291 Y116.394 E8.18217
G1 X117.487 Y116.59 E8.1937
G1 X118.791 Y116.59 E8.24791
M204 S25
G0 F3000 X118.596 Y116.785
G0 X117.801 Y117.25
G0 X117.801 Y117.58
M204 S5
;TYPE:SKIN
G1 F600 X117.801 Y123.528 E8.4952
G1 X117.2 Y123.528 E8.52019
G1 X117.2 Y117.58 E8.76748
G1 X117.801 Y117.58 E8.79246
M204 S25
G0 F3000 X117.4 Y118.107
M204 S5
G1 F600 X117.601 Y118.308 E8.80428
M204 S25
G0 F3000 X117.4 Y118.814
M204 S5
G1 F600 X117.601 Y119.015 E8.8161
M204 S25
G0 F3000 X117.4 Y119.521
M204 S5
G1 F600 X117.601 Y119.722 E8.82792
M204 S25
G0 F3000 X117.4 Y120.228
M204 S5
G1 F600 X117.601 Y120.429 E8.83974
M204 S25
G0 F3000 X117.4 Y120.935
M204 S5
G1 F600 X117.601 Y121.136 E8.85155
M204 S25
G0 F3000 X117.4 Y121.642
M204 S5
G1 F600 X117.601 Y121.843 E8.86337
M204 S25
G0 F3000 X117.4 Y122.349
M204 S5
G1 F600 X117.601 Y122.55 E8.87519
M204 S25
G0 F3000 X117.4 Y123.057
M204 S5
G1 F600 X117.601 Y123.257 E8.88698
M204 S25
G0 F3000 X118.131 Y123.257
G0 X118.059 Y117.322
G0 X116.955 Y117.112
G0 X116.87 Y117.364
G0 X117.01 Y117.364
M204 S5
;TYPE:SKIN
G1 F600 X116.91 Y117.263 E8.88993
M204 S25
G0 F3000 X116.87 Y117.263
G0 X116.942 Y123.786
G0 X117.907 Y124.357
G0 X118.197 Y124.647
G0 X118.2 Y143.494
G0 X117.571 Y144.917
G0 X117.8 Y145.153
M204 S5
;TYPE:SKIN
G1 F600 X117.8 Y147.559 E8.98996
G1 X117.518 Y147.871 E9.00745
G1 X117.2 Y147.872 E9.02067
G1 X117.2 Y145.673 E9.11209
G1 X117.315 Y145.627 E9.11724
G1 X117.8 Y145.153 E9.14544
M204 S25
G0 F3000 X117.47 Y145.754
M204 S5
G1 F600 X117.6 Y145.884 E9.15308
M204 S25
G0 F3000 X117.399 Y146.39
M204 S5
G1 F600 X117.6 Y146.591 E9.1649
M204 S25
G0 F3000 X117.399 Y147.098
M204 S5
G1 F600 X117.6 Y147.298 E9.17669
M204 S25
G0 F3000 X118.13 Y147.298
G0 X118.13 Y144.959
G0 X118.089 Y144.959
M204 S5
;TYPE:SKIN
G1 F600 X117.839 Y144.709 E9.18404
M204 S25
G0 F3000 X118.018 Y144.534
M204 S5
G1 F600 X118.089 Y144.606 E9.18614
M204 S25
G0 F3000 X118.261 Y143.717
M204 S5
G1 F600 X118.413 Y143.515 E9.19307
G1 X118.413 Y125.13 E9.69698
G1 X118.496 Y124.506 E9.71424
M204 S25
G0 F3000 X118.479 Y124.274
G1 F2700 E1.71424
;MESH:NONMESH
G0 F300 X118.479 Y124.274 Z0.5
G0 F3000 X118.059 Y117.322
G0 X116.841 Y116.475
G0 X116.841 Y115.415
G0 X115.307 Y113.153
G0 X115.307 Y104.9
G0 X116.841 Y102.638
G0 X116.841 Y101.453
G1 F2700 E9.71424
G0 F3000 X116.841 Y101.663
;TIME_ELAPSED:71.258584
;LAYER:1
M106 S85
M204 S252
;TYPE:WALL-INNER
;MESH:Holder_out.stl
G1 F900 X116.66 Y101.663 E9.72553
G1 X116.66 Y101.013 E9.76606
G1 X116.66 Y93.486 E10.23547
G1 X118.341 Y93.485 E10.3403
G1 X118.341 Y101.013 E10.80976
G1 X116.841 Y101.013 E10.90331
G1 X116.841 Y101.663 E10.91801
M204 S138
G0 F9000 X117.341 Y101.513
M204 S252
;TYPE:WALL-OUTER
G1 F900 X117.341 Y102.163 E10.95855
G1 X116.16 Y102.163 E11.0322
G1 X116.16 Y92.986 E11.6045
G1 X118.841 Y92.985 E11.7717
G1 X118.841 Y101.513 E12.30353
G1 X117.341 Y101.513 E12.39707
M204 S138
G0 F9000 X116.991 Y101.513
G0 X116.82 Y100.523
G0 X117.15 Y100.523
M204 S252
;TYPE:SKIN
G1 F1800 X117.15 Y93.976 E12.80536
G1 X117.851 Y93.975 E12.84907
G1 X117.851 Y100.523 E13.25743
G1 X117.15 Y100.523 E13.30114
M204 S138
G0 F9000 X117.649 Y100.139
M204 S252
G1 F1800 X117.465 Y100.323 E13.31737
M204 S138
G0 F9000 X117.349 Y99.732
M204 S252
G1 F1800 X117.649 Y99.431 E13.34387
M204 S138
G0 F9000 X117.349 Y99.025
M204 S252
G1 F1800 X117.649 Y98.724 E13.37037
M204 S138
G0 F9000 X117.349 Y98.318
M204 S252
G1 F1800 X117.649 Y98.017 E13.39688
M204 S138
G0 F9000 X117.349 Y97.611
M204 S252
G1 F1800 X117.649 Y97.31 E13.42338
M204 S138
G0 F9000 X117.349 Y96.904
M204 S252
G1 F1800 X117.649 Y96.603 E13.44988
M204 S138
G0 F9000 X117.349 Y96.196
M204 S252
G1 F1800 X117.649 Y95.896 E13.47634
M204 S138
G0 F9000 X117.349 Y95.489
M204 S252
G1 F1800 X117.649 Y95.189 E13.5028
M204 S138
G0 F9000 X117.349 Y94.782
M204 S252
G1 F1800 X117.649 Y94.482 E13.52926
M204 S138
G0 F9000 X118.091 Y94.482
G1 F2700 E5.52926
G0 F9000 X118.181 Y94.482
G0 X118.109 Y100.781
G0 X117.243 Y100.789
G0 X116.841 Y101.893
G0 X116.841 Y103.078
G0 X116.841 Y104.448
G0 X116.841 Y105.633
G0 X116.841 Y112.19
M204 S252
;TYPE:WALL-INNER
G1 F2700 E13.52926
G1 F900 X116.66 Y112.19 E13.54054
G1 X116.66 Y111.54 E13.58108
G1 X116.66 Y106.513 E13.89458
G1 X116.66 Y105.863 E13.93511
G1 X116.841 Y105.863 E13.9464
G1 X116.841 Y106.513 E13.9611
G1 X118.341 Y106.513 E14.05465
G1 X118.341 Y111.54 E14.36815
G1 X116.841 Y111.54 E14.46169
G1 X116.841 Y112.19 E14.47639
M204 S138
G0 F9000 X117.341 Y112.04
M204 S252
;TYPE:WALL-OUTER
G1 F900 X117.341 Y112.69 E14.51693
G1 X116.16 Y112.69 E14.59058
G1 X116.16 Y105.363 E15.04751
G1 X117.341 Y105.363 E15.12116
G1 X117.341 Y106.013 E15.1617
G1 X118.841 Y106.013 E15.25524
G1 X118.841 Y112.04 E15.6311
G1 X117.341 Y112.04 E15.72465
M204 S138
G0 F9000 X116.991 Y112.04
G0 X116.82 Y111.05
G0 X117.15 Y111.05
M204 S252
;TYPE:SKIN
G1 F1800 X117.15 Y107.003 E15.97703
G1 X117.851 Y107.003 E16.02074
G1 X117.851 Y111.05 E16.27313
G1 X117.15 Y111.05 E16.31684
M204 S138
G0 F9000 X117.649 Y110.745
M204 S252
G1 F1800 X117.545 Y110.849 E16.32602
M204 S138
G0 F9000 X117.349 Y110.339
M204 S252
G1 F1800 X117.649 Y110.038 E16.35252
M204 S138
G0 F9000 X117.349 Y109.631
M204 S252
G1 F1800 X117.649 Y109.331 E16.37898
M204 S138
G0 F9000 X117.349 Y108.924
M204 S252
G1 F1800 X117.649 Y108.624 E16.40543
M204 S138
G0 F9000 X117.349 Y108.217
M204 S252
G1 F1800 X117.649 Y107.917 E16.43189
M204 S138
G0 F9000 X117.349 Y107.51
M204 S252
G1 F1800 X117.649 Y107.21 E16.45835
M204 S138
G0 F9000 X118.091 Y107.21
G1 F2700 E8.45835
G0 F9000 X118.181 Y107.21
G0 X118.34 Y111.77
G0 X118.34 Y112.955
G0 X118.34 Y115.625
G0 X118.34 Y116.685
G0 X118.34 Y143.725
M204 S252
;TYPE:WALL-INNER
G1 F2700 E16.45835
G1 F900 X118.34 Y147.616 E16.701
G1 X117.758 Y148.261 E16.75518
G1 X116.66 Y148.263 E16.82366
G1 X116.66 Y145.13 E17.01904
G1 X116.897 Y145.13 E17.03382
G1 X118.224 Y143.832 E17.14958
G1 X118.34 Y143.725 E17.15942
M204 S138
G0 F9000 X118.139 Y124.415
G0 X116.892 Y123.836
G0 X116.841 Y116.39
M204 S252
G1 F900 X116.841 Y117.04 E17.19996
G1 X118.341 Y117.04 E17.2935
G1 X118.341 Y124.068 E17.73179
G1 X116.66 Y124.068 E17.83662
G1 X116.66 Y117.04 E18.27491
G1 X116.66 Y116.39 E18.28961
G1 X116.841 Y116.39 E18.3009
M204 S138
G0 F9000 X117.341 Y116.54
M204 S252
;TYPE:WALL-OUTER
G1 F900 X118.841 Y116.54 E18.39444
G1 X118.84 Y147.808 E20.3444
G1 X117.981 Y148.761 E20.42441
G1 X116.16 Y148.764 E20.53797
G1 X116.16 Y144.63 E20.79578
G1 X116.693 Y144.63 E20.82902
G1 X117.874 Y143.475 E20.93204
G1 X117.986 Y143.372 E20.94153
G1 X117.986 Y124.568 E22.1142
G1 X116.16 Y124.568 E22.22807
G1 X116.16 Y115.89 E22.76925
G1 X117.341 Y115.89 E22.84291
G1 X117.341 Y116.54 E22.88344
M204 S138
G0 F9000 X117.116 Y116.54
G0 X117.15 Y117.2
G0 X117.15 Y117.53
M204 S252
;TYPE:SKIN
G1 F1800 X117.851 Y117.53 E22.92716
G1 X117.851 Y123.578 E23.30433
G1 X117.15 Y123.578 E23.34804
G1 X117.15 Y117.53 E23.72521
M204 S138
G0 F9000 X117.651 Y117.815
M204 S252
G1 F1800 X117.35 Y118.116 E23.75176
M204 S138
G0 F9000 X117.651 Y118.522
M204 S252
G1 F1800 X117.35 Y118.823 E23.77831
M204 S138
G0 F9000 X117.651 Y119.229
M204 S252
G1 F1800 X117.35 Y119.53 E23.80485
M204 S138
G0 F9000 X117.651 Y119.936
M204 S252
G1 F1800 X117.35 Y120.237 E23.8314
M204 S138
G0 F9000 X117.651 Y120.643
M204 S252
G1 F1800 X117.35 Y120.944 E23.85795
M204 S138
G0 F9000 X117.651 Y121.35
M204 S252
G1 F1800 X117.35 Y121.652 E23.88454
M204 S138
G0 F9000 X117.651 Y122.057
M204 S252
G1 F1800 X117.35 Y122.359 E23.91113
M204 S138
G0 F9000 X117.651 Y122.765
M204 S252
G1 F1800 X117.35 Y123.066 E23.93767
M204 S138
G0 F9000 X116.82 Y123.066
G0 X116.902 Y124.403
G0 X118.139 Y124.415
G0 X118.18 Y144.884
G0 X117.85 Y144.884
M204 S252
G1 F1800 X117.85 Y147.428 E24.09632
G1 X117.54 Y147.771 E24.12516
G1 X117.15 Y147.772 E24.14948
G1 X117.15 Y145.568 E24.28693
G1 X117.85 Y144.884 E24.34796
M204 S138
G0 F9000 X117.35 Y145.693
M204 S252
G1 F1800 X117.615 Y145.428 E24.37133
M204 S138
G0 F9000 X117.649 Y146.1
M204 S252
G1 F1800 X117.35 Y146.4 E24.39775
M204 S138
G0 F9000 X117.649 Y146.808
M204 S252
G1 F1800 X117.35 Y147.107 E24.42412
M204 S138
G0 F9000 X116.82 Y147.107
G0 X116.82 Y145.468
G0 X116.868 Y145.468
M204 S252
;TYPE:SKIN
G1 F1800 X117 Y145.336 E24.42994
M204 S138
G0 F9000 X116.96 Y145.294
G0 X117.703 Y144.567
G0 X117.735 Y144.601
M204 S252
G1 F1800 X118.082 Y144.254 E24.44524
M204 S138
G0 F9000 X118.139 Y144.55
M204 S252
G1 F1800 X117.984 Y144.705 E24.45207
M204 S138
G0 F9000 X118.18 Y144.705
G0 X118.435 Y143.547
G0 X118.529 Y143.452
M204 S252
G1 F1800 X118.412 Y143.216 E24.46608
G1 X118.412 Y124.478 E25.46252
G1 X118.235 Y124.301 E25.47583
M204 S138
G0 F9000 X118.216 Y124.09
G1 F2700 E17.47583
;MESH:NONMESH
G0 F300 X118.216 Y124.09 Z0.8
G0 F9000 X118.109 Y117.272
G0 X117.51 Y117.267
G0 X116.841 Y116.035
G0 X116.841 Y114.975
G0 X115.257 Y113.593
G0 X115.257 Y104.46
G0 X116.841 Y103.078
G0 X116.841 Y101.893
G0 X116.841 Y101.013
;TIME_ELAPSED:99.714620
;LAYER:2
M106 S170
M204 S500
;TYPE:WALL-INNER
;MESH:Holder_out.stl
G1 F2700 E25.47583
G1 F1200 X116.841 Y102.053 E25.54069
G1 X116.66 Y102.053 E25.55197
G1 X116.66 Y101.013 E25.5755
G1 X116.66 Y93.186 E26.06361
G1 X118.341 Y93.185 E26.16844
G1 X118.341 Y101.013 E26.65662
G1 X116.841 Y101.013 E26.75016
M204 S250
G0 F15000 X117.341 Y101.513
M204 S500
;TYPE:WALL-OUTER
G1 F1200 X117.341 Y102.553 E26.81502
G1 X116.16 Y102.553 E26.88867
G1 X116.16 Y92.686 E27.50401
G1 X118.841 Y92.685 E27.6712
G1 X118.841 Y101.513 E28.22174
G1 X117.341 Y101.513 E28.31528
M204 S250
G0 F15000 X116.991 Y101.513
G0 X116.82 Y100.523
G0 X117.15 Y100.523
M204 S500
;TYPE:SKIN
G1 F3000 X117.15 Y93.676 E28.74228
G1 X117.851 Y93.675 E28.786
G1 X117.851 Y100.523 E29.21306
G1 X117.15 Y100.523 E29.25677
M204 S250
G0 F15000 X117.65 Y99.972
M204 S500
G1 F3000 X117.349 Y99.671 E29.28332
M204 S250
G0 F15000 X117.65 Y99.265
M204 S500
G1 F3000 X117.349 Y98.964 E29.30987
M204 S250
G0 F15000 X117.65 Y98.558
M204 S500
G1 F3000 X117.349 Y98.257 E29.33641
M204 S250
G0 F15000 X117.65 Y97.851
M204 S500
G1 F3000 X117.349 Y97.55 E29.36296
M204 S250
G0 F15000 X117.65 Y97.144
M204 S500
G1 F3000 X117.349 Y96.843 E29.3895
M204 S250
G0 F15000 X117.65 Y96.437
M204 S500
G1 F3000 X117.349 Y96.136 E29.41605
M204 S250
G0 F15000 X117.65 Y95.73
M204 S500
G1 F3000 X117.349 Y95.429 E29.4426
M204 S250
G0 F15000 X117.65 Y95.023
M204 S500
G1 F3000 X117.349 Y94.721 E29.46919
M204 S250
G0 F15000 X117.65 Y94.316
M204 S500
G1 F3000 X117.349 Y94.014 E29.49578
M204 S250
G0 F15000 X116.91 Y94.014
G1 F2700 E21.49578
G0 F15000 X116.82 Y94.014
G0 X116.841 Y102.283
G0 X116.841 Y105.243
G0 X116.841 Y111.54
M204 S500
;TYPE:WALL-INNER
G1 F2700 E29.49578
G1 F1200 X116.841 Y112.58 E29.56064
G1 X116.66 Y112.58 E29.57192
G1 X116.66 Y111.54 E29.59545
G1 X116.66 Y106.513 E29.90895
G1 X116.66 Y105.473 E29.9738
G1 X116.841 Y105.473 E29.98509
G1 X116.841 Y106.513 E30.00862
G1 X118.341 Y106.513 E30.10216
G1 X118.341 Y111.54 E30.41566
